;FLAVOR:RepRap
;TIME:3397
;Filament used: 2.62083m
;Layer height: 0.2
;Generated with Cura_SteamEngine 2.6.2
M190 S60
M104 S210
M109 S210
G21 ;metric values
G90 ;absolute positioning
M82 ;set extruder to absolute mode
M107 ;start with the fan off
G28 X0 Y0 ;move X/Y to min endstops
G28 Z0 ;move Z to min endstops
G0 X1 Y0 Z0.15 F9000 ; Move in 1mm from edge and up [z] 0.15mm
G92 E0 ;zero the extruded length
G1 F200 E3 ;extrude 3mm of feed stock
G92 E0 ;zero the extruded length again
G1 F9000
M117 Printing...
G5
;LAYER_COUNT:11
;LAYER:0
M107
M205 X30
G0 F3000 X65.641 Y76.006 Z0.3
G0 X66.112 Y75.636
M205 X8
;TYPE:SKIRT
G1 F1800 X70.621 Y72.542 E0.254
G1 X74.867 Y69.262 E0.50321
G1 X78.943 Y65.726 E0.75384
G1 X82.807 Y61.972 E1.00407
G1 X86.453 Y58.005 E1.25433
G1 X89.9 Y53.802 E1.5068
G1 X91.998 Y51.027 E1.66839
G1 X92.399 Y50.563 E1.69687
G1 X92.857 Y50.155 E1.72536
G1 X93.293 Y49.853 E1.75
G1 X93.942 Y49.455 E1.78536
G1 X94.484 Y49.169 E1.81382
G1 X95.06 Y48.956 E1.84235
G1 X95.693 Y48.814 E1.87248
G1 X96.322 Y48.718 E1.90203
G1 X97.033 Y48.664 E1.93515
G1 X115.238 Y48.665 E2.78074
G1 X116.001 Y48.727 E2.81629
G1 X116.555 Y48.818 E2.84237
G1 X117.153 Y48.957 E2.87089
G1 X117.719 Y49.168 E2.89894
G1 X118.029 Y49.307 E2.91472
G1 X118.571 Y49.594 E2.94321
G1 X119.243 Y50.095 E2.98214
G1 X119.785 Y50.58 E3.01592
G1 X120.214 Y51.018 E3.0444
G1 X120.47 Y51.343 E3.06362
G1 X123.997 Y56.256 E3.34453
G1 X127.38 Y60.433 E3.59419
G1 X131.001 Y64.424 E3.84449
G1 X134.858 Y68.216 E4.09572
G1 X138.922 Y71.784 E4.34691
G1 X140.986 Y73.444 E4.46994
G1 X144.281 Y75.963 E4.66258
G1 X144.743 Y76.367 E4.69109
G1 X145.148 Y76.827 E4.71956
G1 X145.445 Y77.259 E4.74391
G1 X145.778 Y77.807 E4.77369
G1 X146.062 Y78.351 E4.8022
G1 X146.273 Y78.927 E4.83069
G1 X146.413 Y79.568 E4.86116
G1 X146.532 Y80.377 E4.89914
G1 X146.582 Y81.063 E4.93109
G1 X146.567 Y143.464 E7.82948
G1 X146.527 Y144.076 E7.85797
G1 X146.357 Y144.854 E7.89495
G1 X146.136 Y145.569 E7.92972
G1 X145.917 Y146.142 E7.95821
G1 X145.625 Y146.682 E7.98672
G1 X145.132 Y147.335 E8.02472
G1 X144.638 Y147.882 E8.05896
G1 X144.198 Y148.309 E8.08744
G1 X143.706 Y148.676 E8.11595
G1 X143.341 Y148.89 E8.1356
G1 X142.947 Y149.098 E8.15629
G1 X142.387 Y149.349 E8.1848
G1 X141.799 Y149.524 E8.21329
G1 X141.491 Y149.584 E8.22787
G1 X140.759 Y149.701 E8.2623
G1 X140.015 Y149.76 E8.29697
G1 X121.824 Y149.755 E9.1419
G1 X121.16 Y149.708 E9.17282
G1 X117.044 Y149.121 E9.36593
G1 X111.664 Y148.59 E9.61703
G1 X106.262 Y148.363 E9.86816
G1 X100.893 Y148.442 E10.11757
G1 X95.487 Y148.828 E10.36931
G1 X92.83 Y149.132 E10.49352
G1 X88.845 Y149.707 E10.68053
G1 X88.173 Y149.755 E10.71183
G1 X69.868 Y149.757 E11.56205
G1 X69.094 Y149.693 E11.59813
G1 X68.571 Y149.606 E11.62275
G1 X67.974 Y149.466 E11.65123
G1 X67.274 Y149.191 E11.68617
G1 X66.767 Y148.943 E11.71238
G1 X66.235 Y148.638 E11.74086
G1 X65.747 Y148.267 E11.76934
G1 X65.457 Y147.992 E11.7879
G1 X65.065 Y147.588 E11.81405
G1 X64.667 Y147.121 E11.84255
G1 X64.334 Y146.606 E11.87103
G1 X64.173 Y146.318 E11.88636
G1 X63.909 Y145.764 E11.91486
G1 X63.679 Y145.011 E11.95143
G1 X63.529 Y144.314 E11.98455
G1 X63.44 Y143.707 E12.01304
G1 X63.424 Y143.32 E12.03103
G1 X63.466 Y80.488 E14.94944
G1 X63.506 Y79.876 E14.97793
G1 X63.626 Y79.274 E15.00644
G1 X63.784 Y78.789 E15.03013
G1 X63.977 Y78.291 E15.05494
G1 X64.236 Y77.735 E15.08343
G1 X64.564 Y77.216 E15.11195
G1 X64.802 Y76.917 E15.1297
G1 X65.21 Y76.444 E15.15871
G1 X65.641 Y76.006 E15.18725
G1 X66.112 Y75.636 E15.21507
M205 X30
G0 F3000 X66.327 Y75.95
M205 X8
G1 F1800 X70.826 Y72.863 E15.4685
G1 X75.117 Y69.548 E15.72036
G1 X79.197 Y66.008 E15.97125
G1 X83.084 Y62.233 E16.22293
G1 X86.741 Y58.253 E16.47398
G1 X90.203 Y54.032 E16.72754
G1 X92.301 Y51.257 E16.88913
G1 X92.687 Y50.813 E16.91645
G1 X93.129 Y50.425 E16.94377
G1 X93.491 Y50.177 E16.96415
G1 X94.14 Y49.779 E16.99951
G1 X94.662 Y49.506 E17.02688
G1 X95.215 Y49.306 E17.05419
G1 X95.751 Y49.19 E17.07966
G1 X96.38 Y49.094 E17.10922
G1 X97.033 Y49.044 E17.13964
G1 X115.238 Y49.045 E17.98522
G1 X115.94 Y49.102 E18.01793
G1 X116.494 Y49.193 E18.04401
G1 X117.066 Y49.328 E18.07131
G1 X117.564 Y49.515 E18.09601
G1 X117.874 Y49.654 E18.11179
G1 X118.393 Y49.931 E18.13912
G1 X118.989 Y50.378 E18.17372
G1 X119.531 Y50.863 E18.2075
G1 X119.942 Y51.284 E18.23483
G1 X120.161 Y51.565 E18.25138
G1 X123.686 Y56.476 E18.53216
G1 X127.097 Y60.688 E18.78391
G1 X130.721 Y64.681 E19.03437
G1 X134.592 Y68.486 E19.28649
G1 X138.69 Y72.085 E19.53981
G1 X140.764 Y73.753 E19.66344
G1 X144.05 Y76.265 E19.85555
G1 X144.492 Y76.653 E19.88287
G1 X144.877 Y77.098 E19.9102
G1 X145.12 Y77.456 E19.9303
G1 X145.453 Y78.004 E19.96008
G1 X145.724 Y78.527 E19.98744
G1 X145.921 Y79.081 E20.01475
G1 X146.037 Y79.623 E20.0405
G1 X146.156 Y80.432 E20.07848
G1 X146.202 Y81.063 E20.10786
G1 X146.187 Y143.464 E23.00625
G1 X146.147 Y144.051 E23.03358
G1 X145.994 Y144.742 E23.06645
G1 X145.773 Y145.457 E23.10121
G1 X145.561 Y146.006 E23.12855
G1 X145.278 Y146.521 E23.15584
G1 X144.849 Y147.08 E23.18857
G1 X144.355 Y147.627 E23.22281
G1 X143.933 Y148.036 E23.2501
G1 X143.458 Y148.384 E23.27745
G1 X143.163 Y148.554 E23.29327
G1 X142.769 Y148.762 E23.31396
G1 X142.232 Y149.001 E23.34126
G1 X141.431 Y149.209 E23.3797
G1 X140.699 Y149.326 E23.41413
G1 X140.015 Y149.38 E23.446
G1 X121.824 Y149.375 E24.29093
G1 X121.214 Y149.332 E24.31934
G1 X117.091 Y148.744 E24.51278
G1 X111.681 Y148.21 E24.76528
G1 X106.29 Y147.984 E25.0159
G1 X100.859 Y148.063 E25.26819
G1 X95.442 Y148.45 E25.52043
G1 X92.801 Y148.752 E25.6439
G1 X88.791 Y149.331 E25.83209
G1 X88.172 Y149.375 E25.86091
G1 X69.867 Y149.377 E26.71114
G1 X69.156 Y149.318 E26.74428
G1 X68.633 Y149.231 E26.7689
G1 X68.061 Y149.096 E26.7962
G1 X67.441 Y148.85 E26.82718
G1 X66.934 Y148.602 E26.8534
G1 X66.425 Y148.308 E26.8807
G1 X65.96 Y147.948 E26.90802
G1 X65.729 Y147.727 E26.92286
G1 X65.337 Y147.323 E26.94901
G1 X64.957 Y146.874 E26.97633
G1 X64.665 Y146.421 E27.00137
G1 X64.504 Y146.133 E27.01669
G1 X64.253 Y145.601 E27.04401
G1 X64.051 Y144.931 E27.07652
G1 X63.901 Y144.234 E27.10963
G1 X63.817 Y143.652 E27.13695
G1 X63.804 Y143.32 E27.15238
G1 X63.846 Y80.488 E30.07079
G1 X63.886 Y79.901 E30.09811
G1 X64.006 Y79.325 E30.12544
G1 X64.139 Y78.926 E30.14498
G1 X64.332 Y78.428 E30.16978
G1 X64.581 Y77.896 E30.19707
G1 X64.9 Y77.401 E30.22442
G1 X65.09 Y77.165 E30.23849
G1 X65.498 Y76.692 E30.26751
G1 X65.912 Y76.274 E30.29483
G1 X66.327 Y75.95 E30.31929
M205 X30
G0 F3000 X66.542 Y76.263
M205 X8
G1 F1800 X71.054 Y73.167 E30.57345
G1 X75.357 Y69.843 E30.826
G1 X79.461 Y66.282 E31.07838
G1 X83.352 Y62.503 E31.33032
G1 X87.03 Y58.501 E31.58278
G1 X90.496 Y54.275 E31.83664
G1 X92.604 Y51.486 E31.99903
G1 X92.974 Y51.063 E32.02513
G1 X93.4 Y50.697 E32.05122
G1 X93.69 Y50.501 E32.06747
G1 X94.339 Y50.103 E32.10283
G1 X94.838 Y49.844 E32.12895
G1 X95.368 Y49.658 E32.15504
G1 X95.808 Y49.565 E32.17593
G1 X96.437 Y49.469 E32.20548
G1 X97.033 Y49.424 E32.23324
G1 X115.238 Y49.425 E33.07882
G1 X115.878 Y49.477 E33.10865
G1 X116.432 Y49.568 E33.13473
G1 X116.979 Y49.698 E33.16084
G1 X117.408 Y49.862 E33.18217
G1 X117.718 Y50.001 E33.19795
G1 X118.213 Y50.266 E33.22403
G1 X118.736 Y50.661 E33.25447
G1 X119.278 Y51.146 E33.28826
G1 X119.669 Y51.55 E33.31437
G1 X119.853 Y51.786 E33.32827
G1 X123.391 Y56.714 E33.61005
G1 X126.807 Y60.932 E33.86215
G1 X130.459 Y64.957 E34.11459
G1 X134.334 Y68.766 E34.36697
G1 X138.433 Y72.365 E34.62033
G1 X140.543 Y74.062 E34.7461
G1 X143.819 Y76.567 E34.93765
G1 X144.24 Y76.939 E34.96374
G1 X144.604 Y77.367 E34.98984
G1 X144.796 Y77.654 E35.00588
G1 X145.129 Y78.202 E35.03566
G1 X145.385 Y78.701 E35.06171
G1 X145.569 Y79.232 E35.08782
G1 X145.661 Y79.678 E35.10897
G1 X145.78 Y80.487 E35.14695
G1 X145.822 Y81.063 E35.17377
G1 X145.807 Y143.464 E38.07216
G1 X145.767 Y144.024 E38.09824
G1 X145.631 Y144.629 E38.12704
G1 X145.41 Y145.344 E38.1618
G1 X145.206 Y145.868 E38.18792
G1 X144.93 Y146.357 E38.214
G1 X144.567 Y146.825 E38.24151
G1 X144.073 Y147.372 E38.27574
G1 X143.668 Y147.762 E38.30186
G1 X142.986 Y148.218 E38.33997
G1 X142.592 Y148.426 E38.36066
G1 X142.078 Y148.652 E38.38674
G1 X141.371 Y148.833 E38.42064
G1 X140.639 Y148.95 E38.45507
G1 X140.015 Y149 E38.48415
G1 X121.824 Y148.995 E39.32908
G1 X121.267 Y148.955 E39.35501
G1 X117.155 Y148.369 E39.54794
G1 X111.718 Y147.832 E39.8017
G1 X106.283 Y147.604 E40.05437
G1 X100.844 Y147.683 E40.30703
G1 X95.393 Y148.073 E40.56086
G1 X92.737 Y148.376 E40.68502
G1 X88.736 Y148.954 E40.87279
G1 X88.172 Y148.995 E40.89906
G1 X69.867 Y148.997 E41.74928
G1 X69.219 Y148.943 E41.77949
G1 X68.696 Y148.856 E41.80411
G1 X68.15 Y148.725 E41.83019
G1 X67.608 Y148.508 E41.85731
G1 X67.101 Y148.26 E41.88353
G1 X66.616 Y147.978 E41.90958
G1 X66.002 Y147.463 E41.94681
G1 X65.61 Y147.059 E41.97295
G1 X65.249 Y146.629 E41.99903
G1 X64.997 Y146.235 E42.02075
G1 X64.836 Y145.947 E42.03608
G1 X64.598 Y145.439 E42.06214
G1 X64.422 Y144.851 E42.09064
G1 X64.272 Y144.154 E42.12376
G1 X64.184 Y143.32 E42.16271
G1 X64.226 Y80.488 E45.08112
G1 X64.266 Y79.928 E45.1072
G1 X64.386 Y79.379 E45.1333
G1 X64.493 Y79.064 E45.14875
G1 X64.686 Y78.566 E45.17356
G1 X64.926 Y78.058 E45.19965
G1 X65.378 Y77.413 E45.23624
G1 X65.786 Y76.94 E45.26525
G1 X66.182 Y76.542 E45.29133
G1 X66.542 Y76.263 E45.31248
M205 X30
G0 F3000 X66.757 Y76.576
M205 X8
G1 F1800 X71.291 Y73.465 E45.56788
G1 X75.589 Y70.145 E45.82014
G1 X79.706 Y66.573 E46.07331
G1 X83.636 Y62.755 E46.32781
G1 X87.318 Y58.749 E46.58053
G1 X90.789 Y54.517 E46.83476
G1 X92.907 Y51.715 E46.9979
G1 X93.26 Y51.314 E47.02272
G1 X93.889 Y50.825 E47.05972
G1 X94.538 Y50.427 E47.09508
G1 X95.013 Y50.182 E47.11991
G1 X95.519 Y50.012 E47.1447
G1 X95.865 Y49.941 E47.16111
G1 X96.494 Y49.845 E47.19066
G1 X97.033 Y49.804 E47.21577
G1 X115.238 Y49.805 E48.06135
G1 X115.817 Y49.852 E48.08833
G1 X116.371 Y49.943 E48.11441
G1 X116.89 Y50.069 E48.13922
G1 X117.253 Y50.208 E48.15727
G1 X117.563 Y50.347 E48.17305
G1 X118.032 Y50.602 E48.19785
G1 X118.483 Y50.945 E48.22416
G1 X119.025 Y51.43 E48.25795
G1 X119.544 Y52.008 E48.29403
G1 X123.088 Y56.944 E48.57627
G1 X126.514 Y61.176 E48.82917
G1 X130.18 Y65.215 E49.08253
G1 X134.076 Y69.045 E49.33629
G1 X138.19 Y72.657 E49.59057
G1 X140.321 Y74.371 E49.7176
G1 X143.588 Y76.869 E49.90862
G1 X143.987 Y77.224 E49.93342
G1 X144.471 Y77.851 E49.97021
G1 X144.804 Y78.399 E50
G1 X145.046 Y78.875 E50.0248
G1 X145.215 Y79.382 E50.04962
G1 X145.285 Y79.733 E50.06625
G1 X145.404 Y80.542 E50.10423
G1 X145.442 Y81.063 E50.12849
G1 X145.427 Y143.464 E53.02688
G1 X145.387 Y143.996 E53.05166
G1 X145.268 Y144.517 E53.07648
G1 X145.047 Y145.232 E53.11124
G1 X144.851 Y145.729 E53.13606
G1 X144.584 Y146.192 E53.16088
G1 X144.285 Y146.571 E53.1833
G1 X143.791 Y147.118 E53.21754
G1 X143.405 Y147.486 E53.24231
G1 X142.809 Y147.882 E53.27554
G1 X142.415 Y148.09 E53.29624
G1 X141.925 Y148.303 E53.32106
G1 X141.311 Y148.458 E53.35047
G1 X140.579 Y148.575 E53.3849
G1 X140.015 Y148.62 E53.41118
G1 X121.824 Y148.615 E54.25611
G1 X121.321 Y148.579 E54.27953
G1 X117.202 Y147.992 E54.47279
G1 X111.736 Y147.452 E54.72791
G1 X106.292 Y147.223 E54.98099
G1 X100.83 Y147.304 E55.23472
G1 X95.37 Y147.694 E55.48897
G1 X92.675 Y148.002 E55.61496
G1 X88.682 Y148.578 E55.80234
G1 X88.172 Y148.615 E55.8261
G1 X69.867 Y148.617 E56.67632
G1 X69.281 Y148.569 E56.70363
G1 X68.758 Y148.482 E56.72826
G1 X68.239 Y148.355 E56.75308
G1 X67.775 Y148.167 E56.77633
G1 X67.268 Y147.919 E56.80254
G1 X66.808 Y147.649 E56.82732
G1 X66.275 Y147.198 E56.85975
G1 X65.883 Y146.794 E56.8859
G1 X65.541 Y146.384 E56.91069
G1 X65.329 Y146.05 E56.92907
G1 X65.168 Y145.762 E56.94439
G1 X64.943 Y145.278 E56.96919
G1 X64.794 Y144.771 E56.99373
G1 X64.644 Y144.074 E57.02685
G1 X64.564 Y143.321 E57.06202
G1 X64.606 Y80.489 E59.98043
G1 X64.646 Y79.956 E60.00525
G1 X64.847 Y79.201 E60.04154
G1 X65.04 Y78.703 E60.06635
G1 X65.27 Y78.221 E60.09115
G1 X65.666 Y77.661 E60.12301
G1 X66.074 Y77.188 E60.15203
G1 X66.452 Y76.811 E60.17682
G1 X66.757 Y76.576 E60.19471
M205 X30
G0 F3000 X66.972 Y76.89
M205 X8
G1 F1800 X71.507 Y73.778 E60.45017
G1 X75.829 Y70.44 E60.70382
G1 X79.97 Y66.847 E60.95847
G1 X83.895 Y63.034 E61.21264
G1 X87.605 Y58.997 E61.46731
G1 X91.094 Y54.743 E61.72285
G1 X93.21 Y51.944 E61.88583
G1 X93.546 Y51.567 E61.90928
G1 X94.087 Y51.149 E61.94104
G1 X94.736 Y50.751 E61.9764
G1 X95.186 Y50.522 E61.99985
G1 X95.667 Y50.366 E62.02334
G1 X95.923 Y50.317 E62.03545
G1 X96.552 Y50.221 E62.065
G1 X97.033 Y50.184 E62.08741
G1 X115.238 Y50.185 E62.93299
G1 X115.755 Y50.227 E62.95708
G1 X116.309 Y50.318 E62.98316
G1 X116.799 Y50.439 E63.0066
G1 X117.097 Y50.555 E63.02146
G1 X117.407 Y50.694 E63.03724
G1 X117.85 Y50.937 E63.0607
G1 X118.229 Y51.228 E63.0829
G1 X118.771 Y51.713 E63.11668
G1 X119.235 Y52.23 E63.14895
G1 X122.777 Y57.164 E63.43106
G1 X126.232 Y61.43 E63.68604
G1 X129.909 Y65.482 E63.94018
G1 X133.81 Y69.317 E64.19427
G1 X137.944 Y72.947 E64.4498
G1 X140.095 Y74.677 E64.57802
G1 X143.357 Y77.171 E64.76874
G1 X143.733 Y77.508 E64.79219
G1 X144.146 Y78.048 E64.82377
G1 X144.479 Y78.596 E64.85355
G1 X144.706 Y79.047 E64.87701
G1 X144.86 Y79.528 E64.90046
G1 X144.909 Y79.789 E64.9128
G1 X145.028 Y80.598 E64.95078
G1 X145.062 Y81.063 E64.97244
G1 X145.047 Y143.464 E67.87082
G1 X145.007 Y143.967 E67.89426
G1 X144.905 Y144.405 E67.91515
G1 X144.684 Y145.12 E67.94991
G1 X144.497 Y145.589 E67.97336
G1 X144.239 Y146.023 E67.99681
G1 X144.003 Y146.316 E68.01429
G1 X143.509 Y146.863 E68.04852
G1 X143.143 Y147.21 E68.07195
G1 X142.631 Y147.546 E68.10039
G1 X142.237 Y147.754 E68.12109
G1 X141.774 Y147.954 E68.14451
G1 X141.251 Y148.083 E68.16953
G1 X140.519 Y148.2 E68.20396
G1 X140.015 Y148.24 E68.22745
G1 X121.824 Y148.235 E69.07238
G1 X121.375 Y148.203 E69.09329
G1 X117.248 Y147.615 E69.28691
G1 X111.753 Y147.072 E69.54339
G1 X106.303 Y146.843 E69.79675
G1 X100.815 Y146.924 E70.05168
G1 X95.324 Y147.316 E70.30738
G1 X92.645 Y147.622 E70.43262
G1 X88.628 Y148.202 E70.62114
G1 X88.172 Y148.235 E70.64237
G1 X69.867 Y148.237 E71.4926
G1 X69.344 Y148.194 E71.51697
G1 X68.821 Y148.107 E71.5416
G1 X68.331 Y147.985 E71.56505
G1 X67.942 Y147.826 E71.58457
G1 X67.435 Y147.578 E71.61079
G1 X67.001 Y147.321 E71.63421
G1 X66.548 Y146.933 E71.66192
G1 X66.156 Y146.529 E71.68806
G1 X65.834 Y146.14 E71.71152
G1 X65.661 Y145.865 E71.72661
G1 X65.5 Y145.577 E71.74194
G1 X65.289 Y145.118 E71.7654
G1 X65.165 Y144.691 E71.78605
G1 X65.015 Y143.994 E71.81917
G1 X64.944 Y143.321 E71.8506
G1 X64.986 Y80.489 E74.76901
G1 X65.026 Y79.986 E74.79244
G1 X65.202 Y79.338 E74.82363
G1 X65.395 Y78.84 E74.84844
G1 X65.614 Y78.385 E74.8719
G1 X65.953 Y77.909 E74.89904
G1 X66.361 Y77.436 E74.92805
G1 X66.72 Y77.081 E74.9515
G1 X66.972 Y76.89 E74.96619
M205 X30
G1 F3600 E69.96619
G0 F3000 X68.364 Y78.987
G0 X69.18 Y79.938
G0 X69.227 Y80.002
G0 X69.169 Y79.922
M205 X8
;TYPE:WALL-INNER
G1 F3600 E74.96619
G1 F1800 X69.334 Y79.821 E74.97518
G1 X69.496 Y79.754 E74.98332
G1 X69.678 Y79.71 E74.99201
G1 X69.874 Y79.695 E75.00115
G1 X88.124 Y79.694 E75.84882
G1 X88.322 Y79.71 E75.85804
G1 X88.504 Y79.754 E75.86674
G1 X88.666 Y79.821 E75.87488
G1 X88.831 Y79.922 E75.88387
G1 X88.964 Y80.036 E75.89201
G1 X89.078 Y80.169 E75.90014
G1 X89.179 Y80.334 E75.90913
G1 X89.246 Y80.496 E75.91727
G1 X89.29 Y80.678 E75.92597
G1 X89.305 Y80.872 E75.93501
G1 X89.306 Y99.126 E76.78286
G1 X89.29 Y99.322 E76.792
G1 X89.246 Y99.504 E76.80069
G1 X89.179 Y99.666 E76.80884
G1 X89.078 Y99.831 E76.81782
G1 X88.964 Y99.964 E76.82596
G1 X88.831 Y100.078 E76.8341
G1 X88.666 Y100.179 E76.84308
G1 X88.504 Y100.246 E76.85122
G1 X88.322 Y100.29 E76.85992
G1 X88.126 Y100.305 E76.86905
G1 X69.876 Y100.306 E77.71672
G1 X69.678 Y100.29 E77.72595
G1 X69.496 Y100.246 E77.73465
G1 X69.334 Y100.179 E77.74279
G1 X69.169 Y100.078 E77.75177
G1 X69.036 Y99.964 E77.75991
G1 X68.922 Y99.831 E77.76805
G1 X68.821 Y99.666 E77.77703
G1 X68.754 Y99.504 E77.78518
G1 X68.71 Y99.322 E77.79387
G1 X68.695 Y99.128 E77.80291
G1 X68.694 Y80.874 E78.65077
