;FLAVOR:RepRap
;TIME:8587
;Filament used: 6.15601m
;Layer height: 0.2
;Generated with Cura_SteamEngine 2.6.2
M190 S60
M104 S210
M109 S210
G21 ;metric values
G90 ;absolute positioning
M82 ;set extruder to absolute mode
M107 ;start with the fan off
G28 X0 Y0 ;move X/Y to min endstops
G28 Z0 ;move Z to min endstops
G0 X1 Y0 Z0.15 F9000 ; Move in 1mm from edge and up [z] 0.15mm
G92 E0 ;zero the extruded length
G1 F200 E3 ;extrude 3mm of feed stock
G92 E0 ;zero the extruded length again
G1 F9000
M117 Printing...
G5
;LAYER_COUNT:51
;LAYER:0
M107
M205 X30
G0 F3000 X20.705 Y74.415 Z0.3
M205 X8
;TYPE:SKIRT
G1 F1800 X27.498 Y72.529 E0.32745
G1 X32.603 Y70.781 E0.57809
G1 X37.609 Y68.743 E0.82913
G1 X40.036 Y67.634 E0.95307
G1 X43.771 Y65.774 E1.14688
G1 X44.525 Y65.476 E1.18453
G1 X45.102 Y65.304 E1.2125
G1 X45.991 Y65.13 E1.25458
G1 X46.555 Y65.075 E1.2809
G1 X47.013 Y65.053 E1.30219
G1 X164.114 Y65.082 E6.74128
G1 X164.726 Y65.122 E6.76976
G1 X165.466 Y65.281 E6.80492
G1 X166.306 Y65.533 E6.84565
G1 X167.012 Y65.808 E6.88084
G1 X172.505 Y68.478 E7.16453
G1 X177.53 Y70.567 E7.41729
G1 X179.975 Y71.461 E7.53821
G1 X185.168 Y73.119 E7.79141
G1 X190.201 Y74.502 E8.03385
G1 X190.781 Y74.703 E8.06236
G1 X191.488 Y75.074 E8.09944
G1 X191.961 Y75.376 E8.12551
G1 X192.455 Y75.739 E8.15398
G1 X193.001 Y76.279 E8.18965
G1 X193.563 Y76.934 E8.22974
G1 X193.931 Y77.425 E8.25824
G1 X194.232 Y77.959 E8.28671
G1 X194.387 Y78.318 E8.30487
G1 X194.7 Y79.136 E8.34555
G1 X194.881 Y79.722 E8.37404
G1 X194.985 Y80.327 E8.40255
G1 X195.011 Y80.816 E8.4253
G1 X195.042 Y131.443 E10.77681
G1 X195.002 Y132.055 E10.8053
G1 X194.862 Y132.736 E10.83759
G1 X194.604 Y133.642 E10.88134
G1 X194.398 Y134.22 E10.90985
G1 X194.044 Y134.887 E10.94492
G1 X193.742 Y135.36 E10.97099
G1 X193.379 Y135.854 E10.99946
G1 X192.829 Y136.408 E11.03572
G1 X192.161 Y136.978 E11.07651
G1 X191.67 Y137.345 E11.10498
G1 X191.138 Y137.643 E11.1333
G1 X190.737 Y137.835 E11.15395
G1 X189.905 Y138.141 E11.19513
G1 X185.827 Y139.217 E11.39102
G1 X180.664 Y140.823 E11.64217
G1 X175.619 Y142.711 E11.89237
G1 X170.654 Y144.897 E12.14434
G1 X166.953 Y146.741 E12.3364
G1 X166.182 Y147.044 E12.37488
G1 X165.519 Y147.239 E12.40698
G1 X164.92 Y147.373 E12.43549
G1 X164.19 Y147.43 E12.4695
G1 X46.514 Y147.428 E17.93529
G1 X45.902 Y147.388 E17.96377
G1 X45.453 Y147.307 E17.98497
G1 X45.159 Y147.239 E17.99898
G1 X44.571 Y147.062 E18.0275
G1 X44.171 Y146.891 E18.04771
G1 X39.203 Y144.49 E18.304
G1 X34.21 Y142.348 E18.55635
G1 X31.726 Y141.403 E18.6798
G1 X26.617 Y139.71 E18.92979
G1 X20.82 Y138.147 E19.20866
G1 X20.239 Y137.949 E19.23717
G1 X19.709 Y137.688 E19.26461
G1 X18.948 Y137.253 E19.30532
G1 X18.436 Y136.915 E19.33382
G1 X17.973 Y136.512 E19.36233
G1 X17.697 Y136.215 E19.38116
G1 X17.135 Y135.554 E19.42146
G1 X16.769 Y135.062 E19.44994
G1 X16.47 Y134.526 E19.47845
G1 X16.316 Y134.166 E19.49664
G1 X16.008 Y133.35 E19.53715
G1 X15.83 Y132.763 E19.56564
G1 X15.729 Y132.158 E19.59413
G1 X15.705 Y131.689 E19.61594
G1 X15.683 Y81.007 E21.97001
G1 X15.723 Y80.395 E21.9985
G1 X15.876 Y79.67 E22.03291
G1 X16.118 Y78.851 E22.07258
G1 X16.33 Y78.276 E22.10104
G1 X16.615 Y77.732 E22.12957
G1 X16.86 Y77.369 E22.14991
G1 X17.419 Y76.62 E22.19332
G1 X17.818 Y76.153 E22.22185
G1 X18.273 Y75.742 E22.25033
G1 X18.69 Y75.448 E22.27403
G1 X19.461 Y74.964 E22.31631
G1 X20.001 Y74.672 E22.34483
G1 X20.705 Y74.415 E22.37964
M205 X30
G0 F3000 X20.807 Y74.781
M205 X8
G1 F1800 X27.603 Y72.894 E22.70724
G1 X32.744 Y71.134 E22.95963
G1 X37.769 Y69.088 E23.21164
G1 X40.193 Y67.981 E23.33541
G1 X43.941 Y66.114 E23.5299
G1 X44.634 Y65.84 E23.56451
G1 X45.211 Y65.668 E23.59248
G1 X46.028 Y65.508 E23.63115
G1 X46.592 Y65.453 E23.65747
G1 X47.013 Y65.433 E23.67704
G1 X164.114 Y65.462 E29.11613
G1 X164.701 Y65.502 E29.14345
G1 X165.357 Y65.645 E29.17464
G1 X166.197 Y65.897 E29.21537
G1 X166.846 Y66.15 E29.24773
G1 X172.349 Y68.825 E29.53193
G1 X177.394 Y70.922 E29.78569
G1 X179.842 Y71.817 E29.90676
G1 X185.079 Y73.489 E30.1621
G1 X190.1 Y74.869 E30.40397
G1 X190.656 Y75.063 E30.43132
G1 X191.283 Y75.394 E30.46425
G1 X191.756 Y75.696 E30.49031
G1 X192.229 Y76.046 E30.51765
G1 X192.712 Y76.526 E30.54927
G1 X193.274 Y77.181 E30.58936
G1 X193.626 Y77.653 E30.61671
G1 X193.911 Y78.168 E30.64405
G1 X194.032 Y78.454 E30.65847
G1 X194.345 Y79.272 E30.69915
G1 X194.517 Y79.834 E30.72645
G1 X194.612 Y80.415 E30.7538
G1 X194.631 Y80.816 E30.77244
G1 X194.662 Y131.443 E33.12396
G1 X194.622 Y132.03 E33.15128
G1 X194.496 Y132.632 E33.17985
G1 X194.238 Y133.538 E33.22361
G1 X194.039 Y134.091 E33.2509
G1 X193.724 Y134.682 E33.28201
G1 X193.422 Y135.155 E33.30808
G1 X193.072 Y135.628 E33.33541
G1 X192.583 Y136.119 E33.36759
G1 X191.915 Y136.689 E33.40838
G1 X191.442 Y137.039 E33.43571
G1 X190.974 Y137.3 E33.4606
G1 X190.573 Y137.492 E33.48125
G1 X189.808 Y137.774 E33.51912
G1 X185.73 Y138.85 E33.71502
G1 X180.527 Y140.468 E33.9681
G1 X175.473 Y142.36 E34.21876
G1 X170.502 Y144.549 E34.47104
G1 X166.784 Y146.401 E34.66398
G1 X166.075 Y146.679 E34.69935
G1 X165.412 Y146.874 E34.73145
G1 X164.837 Y147.001 E34.7588
G1 X164.19 Y147.05 E34.78894
G1 X46.514 Y147.048 E40.25473
G1 X45.927 Y147.008 E40.28205
G1 X45.538 Y146.937 E40.30042
G1 X45.244 Y146.869 E40.31444
G1 X44.682 Y146.697 E40.34174
G1 X44.336 Y146.549 E40.35921
G1 X39.358 Y144.143 E40.61602
G1 X34.346 Y141.993 E40.86933
G1 X31.848 Y141.043 E40.99347
G1 X26.732 Y139.347 E41.24381
G1 X20.919 Y137.78 E41.52345
G1 X20.363 Y137.588 E41.55077
G1 X19.897 Y137.358 E41.57491
G1 X19.136 Y136.923 E41.61562
G1 X18.647 Y136.597 E41.64292
G1 X18.206 Y136.208 E41.67023
G1 X17.986 Y135.969 E41.68532
G1 X17.424 Y135.308 E41.72562
G1 X17.074 Y134.835 E41.75295
G1 X16.792 Y134.319 E41.78026
G1 X16.672 Y134.032 E41.79471
G1 X16.364 Y133.216 E41.83522
G1 X16.194 Y132.653 E41.86254
G1 X16.102 Y132.072 E41.88986
G1 X16.085 Y131.689 E41.90767
G1 X16.063 Y81.007 E44.26174
G1 X16.103 Y80.42 E44.28907
G1 X16.24 Y79.778 E44.31956
G1 X16.482 Y78.959 E44.35922
G1 X16.687 Y78.408 E44.38653
G1 X16.965 Y77.889 E44.41388
G1 X17.165 Y77.596 E44.43035
G1 X17.724 Y76.847 E44.47376
G1 X18.107 Y76.401 E44.50107
G1 X18.547 Y76.01 E44.52841
G1 X18.892 Y75.77 E44.54793
G1 X19.663 Y75.286 E44.59021
G1 X20.181 Y75.008 E44.61752
G1 X20.807 Y74.781 E44.64845
M205 X30
G0 F3000 X20.908 Y75.147
M205 X8
G1 F1800 X27.733 Y73.252 E44.97745
G1 X32.854 Y71.499 E45.22886
G1 X37.921 Y69.436 E45.48297
G1 X40.363 Y68.32 E45.60767
G1 X44.11 Y66.454 E45.8021
G1 X44.743 Y66.205 E45.8337
G1 X45.32 Y66.033 E45.86166
G1 X46.065 Y65.887 E45.89692
G1 X46.629 Y65.832 E45.92324
G1 X47.013 Y65.813 E45.9411
G1 X164.114 Y65.842 E51.38018
G1 X164.674 Y65.882 E51.40626
G1 X165.248 Y66.009 E51.43357
G1 X166.088 Y66.261 E51.4743
G1 X166.68 Y66.491 E51.5038
G1 X172.192 Y69.171 E51.78848
G1 X177.278 Y71.284 E52.04429
G1 X179.715 Y72.176 E52.16483
G1 X184.954 Y73.849 E52.42027
G1 X190 Y75.235 E52.66333
G1 X190.529 Y75.422 E52.68939
G1 X191.079 Y75.715 E52.71833
G1 X191.552 Y76.017 E52.7444
G1 X192.002 Y76.352 E52.77046
G1 X192.424 Y76.774 E52.79818
G1 X192.986 Y77.429 E52.83826
G1 X193.32 Y77.88 E52.86433
G1 X193.677 Y78.589 E52.9012
G1 X193.99 Y79.407 E52.94188
G1 X194.153 Y79.945 E52.96799
G1 X194.238 Y80.5 E52.99407
G1 X194.251 Y80.817 E53.00881
G1 X194.282 Y131.444 E55.36032
G1 X194.242 Y132.004 E55.3864
G1 X194.131 Y132.528 E55.41128
G1 X193.873 Y133.434 E55.45503
G1 X193.681 Y133.962 E55.48113
G1 X193.403 Y134.478 E55.50835
G1 X193.101 Y134.951 E55.53442
G1 X192.766 Y135.401 E55.56047
G1 X192.336 Y135.83 E55.58869
G1 X191.668 Y136.4 E55.62947
G1 X191.216 Y136.733 E55.65555
G1 X190.81 Y136.958 E55.67711
G1 X190.409 Y137.15 E55.69776
G1 X189.711 Y137.406 E55.73229
G1 X185.634 Y138.482 E55.92814
G1 X180.406 Y140.108 E56.18245
G1 X175.328 Y142.009 E56.4343
G1 X170.341 Y144.205 E56.68739
G1 X166.614 Y146.061 E56.88078
G1 X165.968 Y146.314 E56.91301
G1 X165.305 Y146.509 E56.94511
G1 X164.756 Y146.629 E56.97121
G1 X164.19 Y146.67 E56.99757
G1 X46.514 Y146.668 E62.46335
G1 X45.954 Y146.628 E62.48943
G1 X45.624 Y146.566 E62.50503
G1 X45.33 Y146.498 E62.51904
G1 X44.793 Y146.333 E62.54514
G1 X44.501 Y146.206 E62.55993
G1 X39.531 Y143.804 E62.81632
G1 X34.49 Y141.642 E63.07109
G1 X31.968 Y140.682 E63.19643
G1 X26.841 Y138.983 E63.4473
G1 X21.018 Y137.413 E63.72743
G1 X20.487 Y137.228 E63.75354
G1 X20.086 Y137.028 E63.77436
G1 X19.325 Y136.593 E63.81507
G1 X18.858 Y136.281 E63.84116
G1 X18.276 Y135.723 E63.87861
G1 X17.714 Y135.062 E63.91891
G1 X17.381 Y134.609 E63.94502
G1 X17.027 Y133.898 E63.98191
G1 X16.719 Y133.082 E64.02242
G1 X16.559 Y132.544 E64.04849
G1 X16.476 Y131.988 E64.0746
G1 X16.465 Y131.689 E64.0885
G1 X16.443 Y81.007 E66.44257
G1 X16.483 Y80.446 E66.46869
G1 X16.605 Y79.886 E66.49531
G1 X16.847 Y79.067 E66.53498
G1 X17.044 Y78.541 E66.56107
G1 X17.469 Y77.823 E66.59982
G1 X18.028 Y77.074 E66.64323
G1 X18.396 Y76.649 E66.66934
G1 X18.819 Y76.28 E66.69542
G1 X19.094 Y76.092 E66.71089
G1 X19.865 Y75.608 E66.75317
G1 X20.361 Y75.343 E66.77929
G1 X20.908 Y75.147 E66.80628
M205 X30
G0 F3000 X21.01 Y75.513
M205 X8
G1 F1800 X27.838 Y73.617 E67.13543
G1 X32.995 Y71.852 E67.3886
G1 X38.082 Y69.781 E67.64371
G1 X40.508 Y68.672 E67.76761
G1 X44.279 Y66.794 E67.96328
G1 X44.851 Y66.569 E67.99183
G1 X45.428 Y66.397 E68.01979
G1 X46.102 Y66.265 E68.0517
G1 X46.666 Y66.21 E68.07802
G1 X47.013 Y66.193 E68.09415
G1 X164.114 Y66.222 E73.53323
G1 X164.646 Y66.262 E73.55801
G1 X165.139 Y66.373 E73.58149
G1 X165.979 Y66.625 E73.62222
G1 X166.514 Y66.833 E73.64888
G1 X172.036 Y69.517 E73.93406
G1 X177.115 Y71.628 E74.18953
G1 X179.611 Y72.542 E74.31299
G1 X184.865 Y74.219 E74.56916
G1 X189.899 Y75.602 E74.81164
G1 X190.402 Y75.781 E74.83644
G1 X190.874 Y76.035 E74.86134
G1 X191.347 Y76.337 E74.8874
G1 X191.775 Y76.657 E74.91223
G1 X192.135 Y77.021 E74.936
G1 X192.697 Y77.676 E74.97609
G1 X193.014 Y78.106 E75.0009
G1 X193.322 Y78.725 E75.03302
G1 X193.635 Y79.543 E75.0737
G1 X193.788 Y80.055 E75.09852
G1 X193.871 Y80.817 E75.13412
G1 X193.902 Y131.444 E77.48563
G1 X193.862 Y131.976 E77.51041
G1 X193.765 Y132.424 E77.5317
G1 X193.507 Y133.33 E77.57546
G1 X193.323 Y133.831 E77.60025
G1 X193.083 Y134.273 E77.62361
G1 X192.781 Y134.746 E77.64968
G1 X192.461 Y135.174 E77.6745
G1 X192.089 Y135.541 E77.69877
G1 X191.421 Y136.111 E77.73956
G1 X190.99 Y136.426 E77.76435
G1 X190.646 Y136.615 E77.78258
G1 X190.245 Y136.807 E77.80323
G1 X189.614 Y137.039 E77.83446
G1 X185.516 Y138.12 E78.03132
G1 X180.28 Y139.749 E78.28601
G1 X175.189 Y141.655 E78.53851
G1 X170.171 Y143.864 E78.79317
G1 X166.445 Y145.72 E78.98651
G1 X165.86 Y145.95 E79.01571
G1 X165.197 Y146.145 E79.04781
G1 X164.675 Y146.257 E79.07261
G1 X164.19 Y146.29 E79.09519
G1 X46.514 Y146.288 E84.56098
G1 X45.981 Y146.248 E84.5858
G1 X45.71 Y146.196 E84.59862
G1 X45.416 Y146.128 E84.61264
G1 X44.667 Y145.864 E84.64952
G1 X39.702 Y143.465 E84.90565
G1 X34.625 Y141.287 E85.16224
G1 X32.103 Y140.327 E85.28758
G1 X26.939 Y138.616 E85.54026
G1 X21.117 Y137.046 E85.82034
G1 X20.613 Y136.869 E85.84515
G1 X20.274 Y136.698 E85.86279
G1 X19.513 Y136.263 E85.9035
G1 X19.071 Y135.964 E85.92829
G1 X18.565 Y135.476 E85.96094
G1 X18.003 Y134.815 E86.00124
G1 X17.689 Y134.384 E86.02601
G1 X17.383 Y133.764 E86.05812
G1 X17.075 Y132.948 E86.09863
G1 X16.924 Y132.435 E86.12347
G1 X16.845 Y131.689 E86.15832
G1 X16.823 Y81.007 E88.51238
G1 X16.863 Y80.474 E88.53721
G1 X16.969 Y79.993 E88.56009
G1 X17.211 Y79.174 E88.59975
G1 X17.401 Y78.675 E88.62455
G1 X17.774 Y78.051 E88.65832
G1 X18.333 Y77.302 E88.70173
G1 X18.684 Y76.899 E88.72655
G1 X19.296 Y76.413 E88.76285
G1 X20.067 Y75.929 E88.80514
G1 X20.539 Y75.68 E88.82992
G1 X21.01 Y75.513 E88.85313
M205 X30
G0 F3000 X21.112 Y75.879
M205 X8
G1 F1800 X27.958 Y73.978 E89.18315
G1 X33.12 Y72.211 E89.43657
G1 X38.242 Y70.126 E89.69343
G1 X40.69 Y69.007 E89.81845
G1 X44.449 Y67.135 E90.0135
G1 X44.96 Y66.933 E90.03902
G1 X45.537 Y66.761 E90.06699
G1 X46.138 Y66.643 E90.09544
G1 X46.702 Y66.588 E90.12176
G1 X47.013 Y66.573 E90.13622
G1 X164.114 Y66.602 E95.5753
G1 X164.617 Y66.642 E95.59874
G1 X165.03 Y66.737 E95.61842
G1 X165.87 Y66.989 E95.65916
G1 X166.348 Y67.175 E95.68298
G1 X171.88 Y69.864 E95.96868
G1 X176.979 Y71.984 E96.22517
G1 X179.485 Y72.9 E96.3491
G1 X184.746 Y74.58 E96.60562
G1 X189.798 Y75.968 E96.84897
G1 X190.273 Y76.14 E96.87243
G1 X190.67 Y76.355 E96.8934
G1 X191.143 Y76.657 E96.91947
G1 X191.545 Y76.962 E96.9429
G1 X191.847 Y77.269 E96.96291
G1 X192.409 Y77.924 E97.00299
G1 X192.706 Y78.332 E97.02643
G1 X192.967 Y78.861 E97.05383
G1 X193.28 Y79.679 E97.09451
G1 X193.423 Y80.163 E97.11795
G1 X193.491 Y80.817 E97.1485
G1 X193.522 Y131.444 E99.50001
G1 X193.482 Y131.947 E99.52344
G1 X193.4 Y132.32 E99.54118
G1 X193.142 Y133.226 E99.58494
G1 X192.966 Y133.699 E99.60838
G1 X192.763 Y134.069 E99.62798
G1 X192.461 Y134.542 E99.65405
G1 X192.156 Y134.944 E99.67749
G1 X191.843 Y135.252 E99.69788
G1 X191.175 Y135.822 E99.73867
G1 X190.766 Y136.118 E99.76212
G1 X190.482 Y136.272 E99.77713
G1 X190.081 Y136.464 E99.79778
G1 X189.517 Y136.671 E99.82568
G1 X185.419 Y137.752 E100.02254
G1 X180.175 Y139.383 E100.27762
G1 X175.037 Y141.307 E100.53245
G1 X170 Y143.524 E100.78807
G1 X166.275 Y145.38 E100.98137
G1 X165.753 Y145.585 E101.00742
G1 X165.09 Y145.78 E101.03952
G1 X164.596 Y145.884 E101.06297
G1 X164.19 Y145.91 E101.08186
G1 X46.514 Y145.908 E106.54765
G1 X45.795 Y145.826 E106.58126
G1 X45.501 Y145.758 E106.59528
G1 X44.832 Y145.522 E106.62823
G1 X39.857 Y143.118 E106.88487
G1 X34.769 Y140.935 E107.14203
G1 X32.223 Y139.967 E107.26855
G1 X27.048 Y138.251 E107.52178
G1 X21.216 Y136.679 E107.80234
G1 X20.74 Y136.51 E107.8258
G1 X20.463 Y136.368 E107.84026
G1 X19.702 Y135.933 E107.88097
G1 X19.285 Y135.649 E107.9044
G1 X18.855 Y135.23 E107.93229
G1 X18.293 Y134.569 E107.97259
G1 X17.997 Y134.16 E107.99604
G1 X17.739 Y133.629 E108.02346
G1 X17.431 Y132.813 E108.06397
G1 X17.29 Y132.329 E108.08739
G1 X17.225 Y131.688 E108.11731
G1 X17.203 Y81.006 E110.47138
G1 X17.243 Y80.503 E110.49482
G1 X17.334 Y80.101 E110.51396
G1 X17.576 Y79.282 E110.55363
G1 X17.757 Y78.811 E110.57706
G1 X18.079 Y78.278 E110.60599
G1 X18.638 Y77.529 E110.6494
G1 X18.97 Y77.15 E110.6728
G1 X19.498 Y76.735 E110.70399
G1 X20.269 Y76.251 E110.74628
G1 X20.716 Y76.018 E110.76969
G1 X21.112 Y75.879 E110.78918
M205 X30
G1 F3600 E105.78918
G0 F3000 X21.908 Y78.258
G0 X22.236 Y79.466
G0 X22.264 Y79.542
G0 X22.23 Y79.448
M205 X8
;TYPE:WALL-INNER
G1 F3600 E110.78918
G1 F1800 X22.552 Y79.361 E110.80468
G1 X22.928 Y79.328 E110.82221
G1 X41.843 Y79.328 E111.70077
G1 X42.36 Y79.284 E111.72487
G1 X42.884 Y79.142 E111.75008
G1 X43.374 Y78.913 E111.77521
G1 X43.82 Y78.602 E111.80046
G1 X44.203 Y78.219 E111.82562
G1 X44.514 Y77.773 E111.85087
G1 X44.743 Y77.283 E111.876
G1 X44.885 Y76.759 E111.90121
G1 X44.929 Y76.242 E111.92531
G1 X44.929 Y72.317 E112.10762
G1 X44.956 Y71.995 E112.12263
G1 X45.029 Y71.687 E112.13733
G1 X45.145 Y71.406 E112.15145
G1 X45.309 Y71.139 E112.16601
G1 X45.504 Y70.91 E112.17998
G1 X45.744 Y70.706 E112.19461
G1 X46.008 Y70.543 E112.20902
G1 X46.288 Y70.428 E112.22308
G1 X46.596 Y70.355 E112.23778
G1 X46.921 Y70.328 E112.25293
G1 X163.791 Y70.328 E117.68128
G1 X164.166 Y70.361 E117.69876
G1 X164.49 Y70.448 E117.71435
G1 X164.803 Y70.594 E117.73039
G1 X165.085 Y70.792 E117.74639
G1 X165.324 Y71.031 E117.76209
G1 X165.526 Y71.317 E117.77835
G1 X165.67 Y71.629 E117.79432
G1 X165.757 Y71.952 E117.80985
G1 X165.789 Y72.32 E117.82701
G1 X165.789 Y76.243 E118.00922
G1 X165.834 Y76.76 E118.03333
G1 X165.976 Y77.283 E118.0585
G1 X166.205 Y77.773 E118.08362
G1 X166.516 Y78.219 E118.10888
G1 X166.899 Y78.602 E118.13404
G1 X167.345 Y78.913 E118.15929
G1 X167.835 Y79.142 E118.18441
G1 X168.359 Y79.284 E118.20963
G1 X168.876 Y79.328 E118.23373
G1 X187.791 Y79.328 E119.11229
G1 X188.166 Y79.361 E119.12977
G1 X188.49 Y79.448 E119.14536
G1 X188.803 Y79.594 E119.1614
G1 X189.085 Y79.792 E119.1774
G1 X189.324 Y80.031 E119.1931
G1 X189.526 Y80.317 E119.20937
G1 X189.67 Y80.629 E119.22533
