;FLAVOR:RepRap
;TIME:3339
;Filament used: 2.63322m
;Layer height: 0.2
;Generated with Cura_SteamEngine 2.6.2
M190 S60
M104 S210
M109 S210
G21 ;metric values
G90 ;absolute positioning
M82 ;set extruder to absolute mode
M107 ;start with the fan off
G28 X0 Y0 ;move X/Y to min endstops
G28 Z0 ;move Z to min endstops
G0 X1 Y0 Z0.15 F9000 ; Move in 1mm from edge and up [z] 0.15mm
G92 E0 ;zero the extruded length
G1 F200 E3 ;extrude 3mm of feed stock
G92 E0 ;zero the extruded length again
G1 F9000
M117 Printing...
G5
;LAYER_COUNT:11
;LAYER:0
M107
M205 X30
G0 F3000 X62.623 Y62.823 Z0.3
M205 X8
;TYPE:SKIRT
G1 F1800 X63.072 Y62.401 E0.02862
G1 X63.546 Y62.011 E0.05713
G1 X64.066 Y61.685 E0.08564
G1 X64.62 Y61.432 E0.11393
G1 X65.31 Y61.169 E0.14822
G1 X65.897 Y60.988 E0.17676
G1 X66.502 Y60.885 E0.20526
G1 X66.985 Y60.86 E0.22773
G1 X85.638 Y60.848 E1.09412
G1 X86.053 Y60.866 E1.11341
G1 X89.54 Y61.172 E1.276
G1 X94.996 Y61.404 E1.52964
G1 X109.549 Y61.413 E2.2056
G1 X109.657 Y61.414 E2.21062
G1 X112.669 Y61.485 E2.35055
G1 X118.291 Y61.415 E2.6117
G1 X118.37 Y61.415 E2.61537
G1 X136.626 Y61.491 E3.46333
G1 X137.238 Y61.534 E3.49183
G1 X137.839 Y61.655 E3.5203
G1 X138.426 Y61.857 E3.54914
G1 X138.827 Y62.025 E3.56933
G1 X139.376 Y62.298 E3.59781
G1 X140.082 Y62.801 E3.63807
G1 X140.552 Y63.206 E3.66689
G1 X140.989 Y63.636 E3.69537
G1 X141.469 Y64.275 E3.73249
G1 X141.705 Y64.652 E3.75315
G1 X141.996 Y65.192 E3.78164
G1 X142.215 Y65.765 E3.81013
G1 X142.317 Y66.158 E3.82899
G1 X142.469 Y66.863 E3.86249
G1 X142.559 Y67.47 E3.89099
G1 X142.575 Y67.856 E3.90893
G1 X142.576 Y86.133 E4.75786
G1 X142.569 Y86.396 E4.77008
G1 X142.386 Y89.669 E4.92234
G1 X142.307 Y93.574 E5.10376
G1 X142.298 Y110.266 E5.87906
G1 X142.287 Y110.588 E5.89403
G1 X141.85 Y116.912 E6.18846
G1 X141.78 Y120.551 E6.35752
G1 X141.757 Y135.151 E7.03566
G1 X141.716 Y135.764 E7.06419
G1 X141.63 Y136.229 E7.08616
G1 X141.527 Y136.664 E7.10692
G1 X141.347 Y137.251 E7.13544
G1 X140.956 Y138.047 E7.17663
G1 X140.622 Y138.59 E7.20624
G1 X140.267 Y139.09 E7.23472
G1 X139.67 Y139.703 E7.27447
G1 X139.347 Y139.979 E7.2942
G1 X138.855 Y140.346 E7.32271
G1 X138.32 Y140.646 E7.3512
G1 X137.901 Y140.823 E7.37233
G1 X137.15 Y141.097 E7.40946
G1 X136.562 Y141.269 E7.43792
G1 X135.955 Y141.363 E7.46645
G1 X135.56 Y141.382 E7.48481
G1 X122.943 Y141.445 E8.07085
G1 X117.575 Y141.751 E8.32059
G1 X110.448 Y142.564 E8.65377
G1 X109.912 Y142.594 E8.6787
G1 X91.759 Y142.585 E9.52187
G1 X91.21 Y142.553 E9.54741
G1 X87.797 Y142.151 E9.70704
G1 X82.398 Y141.736 E9.95855
G1 X77.708 Y141.624 E10.17645
G1 X66.363 Y141.548 E10.70341
G1 X65.751 Y141.504 E10.73191
G1 X65.15 Y141.381 E10.7604
G1 X64.574 Y141.182 E10.78871
G1 X64.173 Y141.014 E10.8089
G1 X63.624 Y140.741 E10.83738
G1 X62.89 Y140.213 E10.87938
G1 X62.399 Y139.783 E10.9097
G1 X61.965 Y139.35 E10.93817
G1 X61.482 Y138.695 E10.97597
G1 X61.267 Y138.343 E10.99513
G1 X60.982 Y137.8 E11.02361
G1 X60.77 Y137.224 E11.05212
G1 X60.681 Y136.87 E11.06908
G1 X60.529 Y136.157 E11.10294
G1 X60.44 Y135.55 E11.13143
G1 X60.425 Y135.173 E11.14896
G1 X60.435 Y116.244 E12.02817
G1 X60.347 Y110.059 E12.31548
G1 X60.347 Y109.987 E12.31882
G1 X60.366 Y92.012 E13.15372
G1 X60.376 Y91.705 E13.16799
G1 X60.723 Y86.468 E13.41177
G1 X60.795 Y82.75 E13.58449
G1 X60.864 Y66.818 E14.32451
G1 X60.907 Y66.206 E14.353
G1 X61.028 Y65.604 E14.38152
G1 X61.314 Y64.829 E14.41989
G1 X61.589 Y64.246 E14.44983
G1 X61.886 Y63.709 E14.47834
G1 X62.251 Y63.216 E14.50683
G1 X62.623 Y62.823 E14.53196
M205 X30
G0 F3000 X62.884 Y63.1
M205 X8
G1 F1800 X63.333 Y62.678 E14.56058
G1 X63.788 Y62.305 E14.58791
G1 X64.289 Y61.997 E14.61523
G1 X64.756 Y61.787 E14.63901
G1 X65.446 Y61.524 E14.67331
G1 X66.008 Y61.352 E14.70061
G1 X66.589 Y61.258 E14.72794
G1 X66.985 Y61.24 E14.74636
G1 X85.638 Y61.228 E15.61275
G1 X86.02 Y61.245 E15.63051
G1 X89.513 Y61.552 E15.79337
G1 X94.98 Y61.784 E16.04753
G1 X109.549 Y61.793 E16.72423
G1 X109.648 Y61.794 E16.72883
G1 X112.665 Y61.865 E16.869
G1 X118.296 Y61.795 E17.13057
G1 X118.368 Y61.795 E17.13391
G1 X136.624 Y61.871 E17.98187
G1 X137.211 Y61.913 E18.00921
G1 X137.786 Y62.035 E18.03651
G1 X138.279 Y62.207 E18.06076
G1 X138.68 Y62.375 E18.08095
G1 X139.206 Y62.639 E18.10829
G1 X139.834 Y63.089 E18.14417
G1 X140.304 Y63.494 E18.17299
G1 X140.722 Y63.907 E18.20029
G1 X141.147 Y64.476 E18.23327
G1 X141.383 Y64.853 E18.25393
G1 X141.661 Y65.372 E18.28128
G1 X141.865 Y65.924 E18.30861
G1 X141.946 Y66.238 E18.32367
G1 X142.098 Y66.943 E18.35717
G1 X142.182 Y67.526 E18.38453
G1 X142.195 Y67.856 E18.39987
G1 X142.196 Y86.133 E19.2488
G1 X142.189 Y86.375 E19.26004
G1 X142.007 Y89.64 E19.41193
G1 X141.927 Y93.567 E19.59437
G1 X141.918 Y110.265 E20.36995
G1 X141.908 Y110.562 E20.38376
G1 X141.47 Y116.899 E20.6788
G1 X141.4 Y120.517 E20.84688
G1 X141.377 Y135.151 E21.52659
G1 X141.336 Y135.738 E21.55393
G1 X141.26 Y136.142 E21.57302
G1 X141.157 Y136.577 E21.59378
G1 X140.983 Y137.139 E21.62111
G1 X140.632 Y137.848 E21.65786
G1 X140.298 Y138.391 E21.68747
G1 X139.957 Y138.87 E21.71478
G1 X139.423 Y139.414 E21.75018
G1 X139.1 Y139.69 E21.76992
G1 X138.628 Y140.041 E21.79724
G1 X138.112 Y140.324 E21.82457
G1 X137.771 Y140.466 E21.84173
G1 X137.02 Y140.74 E21.87886
G1 X136.455 Y140.903 E21.90617
G1 X135.873 Y140.989 E21.9335
G1 X135.558 Y141.002 E21.94814
G1 X122.94 Y141.065 E22.53423
G1 X117.528 Y141.373 E22.78601
G1 X110.405 Y142.186 E23.11901
G1 X109.912 Y142.214 E23.14194
G1 X91.759 Y142.205 E23.98511
G1 X91.254 Y142.175 E24.00861
G1 X87.845 Y141.773 E24.16804
G1 X82.418 Y141.356 E24.42086
G1 X77.72 Y141.244 E24.63913
G1 X66.365 Y141.168 E25.16656
G1 X65.779 Y141.124 E25.19386
G1 X65.203 Y141.001 E25.22121
G1 X64.721 Y140.832 E25.24494
G1 X64.32 Y140.664 E25.26513
G1 X63.794 Y140.4 E25.29247
G1 X63.14 Y139.927 E25.32996
G1 X62.649 Y139.497 E25.36027
G1 X62.234 Y139.081 E25.38756
G1 X61.807 Y138.497 E25.42117
G1 X61.592 Y138.145 E25.44032
G1 X61.32 Y137.623 E25.46766
G1 X61.052 Y136.791 E25.50826
G1 X60.9 Y136.078 E25.54213
G1 X60.817 Y135.496 E25.56943
G1 X60.805 Y135.173 E25.58445
G1 X60.815 Y116.239 E26.46389
G1 X60.727 Y110.054 E26.7512
G1 X60.727 Y109.987 E26.75431
G1 X60.746 Y92.012 E27.58921
G1 X60.755 Y91.73 E27.60231
G1 X61.103 Y86.479 E27.84674
G1 X61.175 Y82.759 E28.01956
G1 X61.244 Y66.819 E28.75995
G1 X61.287 Y66.233 E28.78724
G1 X61.408 Y65.657 E28.81458
G1 X61.658 Y64.991 E28.84762
G1 X61.933 Y64.408 E28.87756
G1 X62.219 Y63.894 E28.90488
G1 X62.573 Y63.424 E28.93221
G1 X62.884 Y63.1 E28.95307
M205 X30
G0 F3000 X63.144 Y63.377
M205 X8
G1 F1800 X63.593 Y62.955 E28.98169
G1 X64.028 Y62.6 E29.00777
G1 X64.51 Y62.311 E29.03387
G1 X64.891 Y62.142 E29.05323
G1 X65.581 Y61.879 E29.08753
G1 X66.119 Y61.717 E29.11363
G1 X66.674 Y61.632 E29.13971
G1 X66.985 Y61.62 E29.15416
G1 X85.638 Y61.608 E30.02055
G1 X85.987 Y61.623 E30.03678
G1 X89.508 Y61.932 E30.20095
G1 X94.964 Y62.164 E30.4546
G1 X109.548 Y62.173 E31.13199
G1 X109.639 Y62.174 E31.13622
G1 X112.661 Y62.245 E31.27662
G1 X118.301 Y62.175 E31.53861
G1 X118.366 Y62.175 E31.54163
G1 X136.622 Y62.251 E32.38959
G1 X137.183 Y62.293 E32.41572
G1 X137.731 Y62.415 E32.44179
G1 X138.132 Y62.558 E32.46157
G1 X138.533 Y62.726 E32.48176
G1 X139.035 Y62.979 E32.50787
G1 X139.585 Y63.377 E32.53941
G1 X140.055 Y63.782 E32.56822
G1 X140.454 Y64.178 E32.59433
G1 X140.825 Y64.678 E32.62325
G1 X141.061 Y65.055 E32.64391
G1 X141.325 Y65.551 E32.67001
G1 X141.574 Y66.318 E32.70747
G1 X141.726 Y67.023 E32.74096
G1 X141.815 Y67.856 E32.77987
G1 X141.816 Y86.133 E33.6288
G1 X141.81 Y86.353 E33.63902
G1 X141.626 Y89.638 E33.79184
G1 X141.547 Y93.558 E33.97396
G1 X141.538 Y110.265 E34.74996
G1 X141.529 Y110.536 E34.76255
G1 X141.09 Y116.885 E35.05815
G1 X141.02 Y120.516 E35.22684
G1 X140.997 Y135.15 E35.90655
G1 X140.956 Y135.711 E35.93268
G1 X140.891 Y136.054 E35.9489
G1 X140.788 Y136.489 E35.96966
G1 X140.62 Y137.025 E35.99575
G1 X140.308 Y137.648 E36.02811
G1 X139.974 Y138.191 E36.05772
G1 X139.647 Y138.648 E36.08382
G1 X139.176 Y139.125 E36.11496
G1 X138.853 Y139.401 E36.13469
G1 X138.401 Y139.735 E36.1608
G1 X137.906 Y140.001 E36.1869
G1 X137.641 Y140.109 E36.20019
G1 X136.89 Y140.383 E36.23732
G1 X136.35 Y140.537 E36.2634
G1 X135.556 Y140.622 E36.30049
G1 X122.935 Y140.685 E36.88672
G1 X117.499 Y140.994 E37.13962
G1 X110.362 Y141.809 E37.47327
G1 X109.912 Y141.834 E37.4942
G1 X91.759 Y141.825 E38.33737
G1 X91.299 Y141.798 E38.35877
G1 X87.869 Y141.394 E38.51919
G1 X82.438 Y140.977 E38.77219
G1 X77.731 Y140.864 E38.99088
G1 X66.368 Y140.788 E39.51868
G1 X65.808 Y140.744 E39.54477
G1 X65.259 Y140.622 E39.57089
G1 X64.868 Y140.481 E39.5902
G1 X64.467 Y140.313 E39.61039
G1 X63.965 Y140.06 E39.6365
G1 X63.391 Y139.642 E39.66949
G1 X62.9 Y139.212 E39.6998
G1 X62.504 Y138.812 E39.72594
G1 X62.131 Y138.299 E39.7554
G1 X61.916 Y137.947 E39.77456
G1 X61.658 Y137.448 E39.80065
G1 X61.424 Y136.712 E39.83653
G1 X61.272 Y135.999 E39.87039
G1 X61.185 Y135.173 E39.90897
G1 X61.195 Y116.233 E40.78869
G1 X61.107 Y110.048 E41.076
G1 X61.107 Y109.988 E41.07878
G1 X61.126 Y92.013 E41.91368
G1 X61.135 Y91.756 E41.92563
G1 X61.483 Y86.512 E42.16973
G1 X61.555 Y82.769 E42.34362
G1 X61.624 Y66.821 E43.08438
G1 X61.666 Y66.261 E43.11046
G1 X61.788 Y65.712 E43.13658
G1 X62.001 Y65.153 E43.16437
G1 X62.276 Y64.57 E43.19431
G1 X62.552 Y64.08 E43.22043
G1 X62.894 Y63.634 E43.24653
G1 X63.144 Y63.377 E43.26319
M205 X30
G0 F3000 X63.404 Y63.654
M205 X8
G1 F1800 X63.853 Y63.232 E43.29181
G1 X64.268 Y62.896 E43.31661
G1 X64.729 Y62.626 E43.34142
G1 X65.026 Y62.497 E43.35646
G1 X65.716 Y62.234 E43.39076
G1 X66.228 Y62.082 E43.41557
G1 X66.986 Y62 E43.45098
G1 X85.639 Y61.988 E44.31737
G1 X85.953 Y62.002 E44.33197
G1 X89.458 Y62.31 E44.4954
G1 X94.971 Y62.544 E44.7517
G1 X109.548 Y62.553 E45.42877
G1 X109.63 Y62.554 E45.43257
G1 X112.657 Y62.625 E45.57321
G1 X118.306 Y62.555 E45.83561
G1 X118.365 Y62.555 E45.83835
G1 X136.621 Y62.631 E46.68631
G1 X137.153 Y62.673 E46.7111
G1 X137.673 Y62.794 E46.7359
G1 X137.985 Y62.908 E46.75133
G1 X138.386 Y63.076 E46.77152
G1 X138.862 Y63.319 E46.79634
G1 X139.337 Y63.665 E46.82364
G1 X139.807 Y64.07 E46.85246
G1 X140.185 Y64.447 E46.87725
G1 X140.503 Y64.88 E46.90221
G1 X140.739 Y65.257 E46.92287
G1 X140.988 Y65.729 E46.94765
G1 X141.203 Y66.399 E46.98034
G1 X141.355 Y67.104 E47.01383
G1 X141.435 Y67.856 E47.04896
G1 X141.436 Y86.133 E47.89789
G1 X141.43 Y86.332 E47.90713
G1 X141.247 Y89.61 E48.05963
G1 X141.167 Y93.529 E48.24169
G1 X141.158 Y110.265 E49.01904
G1 X141.149 Y110.509 E49.03038
G1 X140.71 Y116.851 E49.32566
G1 X140.64 Y120.516 E49.49592
G1 X140.617 Y135.15 E50.17564
G1 X140.576 Y135.682 E50.20042
G1 X140.521 Y135.967 E50.21391
G1 X140.418 Y136.402 E50.23467
G1 X140.256 Y136.911 E50.25948
G1 X139.985 Y137.449 E50.28746
G1 X139.651 Y137.992 E50.31707
G1 X139.338 Y138.425 E50.34189
G1 X138.929 Y138.836 E50.36882
G1 X138.606 Y139.112 E50.38855
G1 X138.175 Y139.428 E50.41338
G1 X137.511 Y139.752 E50.44769
G1 X136.76 Y140.026 E50.48482
G1 X136.246 Y140.171 E50.50963
G1 X135.554 Y140.242 E50.54194
G1 X122.912 Y140.306 E51.12914
G1 X117.469 Y140.615 E51.38236
G1 X110.319 Y141.431 E51.71662
G1 X109.912 Y141.454 E51.73555
G1 X91.759 Y141.445 E52.57872
G1 X91.343 Y141.42 E52.59808
G1 X87.941 Y141.019 E52.75719
G1 X82.438 Y140.597 E53.01354
G1 X77.743 Y140.484 E53.23168
G1 X66.37 Y140.408 E53.75994
G1 X65.838 Y140.364 E53.78473
G1 X65.318 Y140.242 E53.80954
G1 X65.015 Y140.131 E53.82453
G1 X64.614 Y139.963 E53.84472
G1 X64.138 Y139.72 E53.86955
G1 X63.641 Y139.356 E53.89816
G1 X63.15 Y138.926 E53.92848
G1 X62.776 Y138.545 E53.95327
G1 X62.455 Y138.101 E53.97872
G1 X62.24 Y137.749 E53.99788
G1 X61.997 Y137.274 E54.02266
G1 X61.795 Y136.632 E54.05392
G1 X61.643 Y135.919 E54.08778
G1 X61.565 Y135.173 E54.12262
G1 X61.575 Y116.228 E55.00258
G1 X61.487 Y110.043 E55.28989
G1 X61.487 Y109.988 E55.29244
G1 X61.506 Y92.013 E56.12734
G1 X61.514 Y91.781 E56.13812
G1 X61.863 Y86.523 E56.38288
G1 X61.935 Y82.777 E56.55691
G1 X62.004 Y66.823 E57.29794
G1 X62.046 Y66.29 E57.32278
G1 X62.167 Y65.77 E57.34757
G1 X62.345 Y65.315 E57.37027
G1 X62.62 Y64.732 E57.40021
G1 X62.883 Y64.267 E57.42502
G1 X63.213 Y63.847 E57.44983
G1 X63.404 Y63.654 E57.46244
M205 X30
G0 F3000 X63.664 Y63.931
M205 X8
G1 F1800 X64.113 Y63.509 E57.49106
G1 X64.507 Y63.193 E57.51452
G1 X65.162 Y62.852 E57.54882
G1 X65.852 Y62.589 E57.58312
G1 X66.336 Y62.447 E57.60655
G1 X66.986 Y62.38 E57.6369
G1 X85.639 Y62.368 E58.50329
G1 X85.92 Y62.38 E58.51635
G1 X89.453 Y62.69 E58.68108
G1 X94.954 Y62.924 E58.93682
G1 X109.548 Y62.933 E59.61468
G1 X109.621 Y62.934 E59.61807
G1 X112.652 Y63.005 E59.7589
G1 X118.31 Y62.935 E60.02172
G1 X118.363 Y62.935 E60.02418
G1 X136.619 Y63.011 E60.87214
G1 X137.122 Y63.053 E60.89558
G1 X137.839 Y63.259 E60.93023
G1 X138.24 Y63.427 E60.95043
G1 X138.688 Y63.658 E60.97384
G1 X139.089 Y63.952 E60.99693
G1 X139.559 Y64.357 E61.02575
G1 X139.914 Y64.716 E61.0492
G1 X140.181 Y65.081 E61.07021
G1 X140.417 Y65.458 E61.09086
G1 X140.65 Y65.906 E61.11432
G1 X140.831 Y66.479 E61.14223
G1 X140.983 Y67.184 E61.17573
G1 X141.055 Y67.856 E61.20712
G1 X141.056 Y86.133 E62.05605
G1 X141.051 Y86.311 E62.06432
G1 X140.867 Y89.609 E62.21774
G1 X140.787 Y93.529 E62.39985
G1 X140.778 Y110.265 E63.1772
G1 X140.77 Y110.483 E63.18734
G1 X140.33 Y116.838 E63.48322
G1 X140.26 Y120.515 E63.65404
G1 X140.237 Y135.149 E64.33376
G1 X140.151 Y135.879 E64.3679
G1 X140.048 Y136.314 E64.38866
G1 X139.893 Y136.794 E64.41209
G1 X139.661 Y137.25 E64.43585
G1 X139.327 Y137.793 E64.46546
G1 X139.029 Y138.201 E64.48893
G1 X138.682 Y138.547 E64.51169
G1 X138.359 Y138.823 E64.53142
G1 X137.951 Y139.12 E64.55486
G1 X137.38 Y139.395 E64.5843
G1 X136.629 Y139.669 E64.62143
G1 X136.143 Y139.804 E64.64486
G1 X135.552 Y139.862 E64.67244
G1 X122.908 Y139.926 E65.25974
G1 X117.422 Y140.237 E65.51496
G1 X110.276 Y141.053 E65.84903
G1 X109.912 Y141.074 E65.86597
G1 X91.759 Y141.065 E66.70913
G1 X91.388 Y141.043 E66.7264
G1 X87.967 Y140.64 E66.88639
G1 X82.458 Y140.217 E67.14303
G1 X77.754 Y140.104 E67.36158
G1 X66.373 Y140.028 E67.89021
G1 X65.87 Y139.985 E67.91366
G1 X65.161 Y139.78 E67.94794
G1 X64.76 Y139.612 E67.96814
G1 X64.312 Y139.381 E67.99155
G1 X63.891 Y139.07 E68.01586
G1 X63.4 Y138.64 E68.04617
G1 X63.048 Y138.278 E68.06963
G1 X62.78 Y137.903 E68.09104
G1 X62.565 Y137.551 E68.11019
G1 X62.336 Y137.101 E68.13365
G1 X62.167 Y136.553 E68.16028
G1 X62.015 Y135.84 E68.19414
G1 X61.945 Y135.173 E68.2253
G1 X61.955 Y116.222 E69.10553
G1 X61.867 Y110.037 E69.39284
G1 X61.867 Y109.989 E69.39507
G1 X61.886 Y92.014 E70.22996
G1 X61.893 Y91.806 E70.23963
G1 X62.243 Y86.534 E70.48504
G1 X62.315 Y82.781 E70.65939
G1 X62.384 Y66.824 E71.40057
G1 X62.426 Y66.321 E71.42401
G1 X62.547 Y65.831 E71.44746
G1 X62.689 Y65.477 E71.46517
G1 X62.964 Y64.894 E71.49511
G1 X63.215 Y64.456 E71.51856
G1 X63.664 Y63.931 E71.55065
M205 X30
G1 F3600 E66.55065
G0 F3000 X65.48 Y65.65
G0 X66.431 Y66.467
G0 X66.487 Y66.523
G0 X66.417 Y66.453
M205 X8
;TYPE:WALL-INNER
G1 F3600 E71.55065
G1 F1800 X66.557 Y66.333 E71.55921
G1 X66.71 Y66.24 E71.56753
G1 X66.877 Y66.171 E71.57592
G1 X67.059 Y66.127 E71.58462
G1 X67.257 Y66.111 E71.59384
G1 X85.501 Y66.11 E72.44124
G1 X85.703 Y66.127 E72.45065
G1 X85.881 Y66.17 E72.45916
G1 X86.058 Y66.243 E72.46805
G1 X86.204 Y66.332 E72.47599
G1 X86.345 Y66.453 E72.48462
G1 X86.465 Y66.593 E72.49319
G1 X86.558 Y66.746 E72.5015
G1 X86.627 Y66.913 E72.5099
G1 X86.671 Y67.095 E72.51859
G1 X86.687 Y67.291 E72.52773
G1 X86.688 Y85.541 E73.3754
G1 X86.671 Y85.739 E73.38463
G1 X86.627 Y85.921 E73.39333
G1 X86.558 Y86.088 E73.40172
G1 X86.465 Y86.241 E73.41004
G1 X86.345 Y86.381 E73.4186
G1 X86.204 Y86.502 E73.42723
G1 X86.058 Y86.591 E73.43517
G1 X85.881 Y86.664 E73.44407
G1 X85.703 Y86.707 E73.45257
G1 X85.505 Y86.723 E73.4618
G1 X67.261 Y86.724 E74.30919
G1 X67.059 Y86.707 E74.31861
G1 X66.877 Y86.663 E74.3273
G1 X66.71 Y86.594 E74.3357
G1 X66.557 Y86.501 E74.34401
G1 X66.417 Y86.381 E74.35258
G1 X66.299 Y86.244 E74.36098
G1 X66.205 Y86.089 E74.3694
