;FLAVOR:RepRap
;TIME:12529
;Filament used: 10.3587m
;Layer height: 0.2
;Generated with Cura_SteamEngine 2.6.2
M190 S60
M104 S210
M109 S210
G21 ;metric values
G90 ;absolute positioning
M82 ;set extruder to absolute mode
M107 ;start with the fan off
G28 X0 Y0 ;move X/Y to min endstops
G28 Z0 ;move Z to min endstops
G0 X1 Y0 Z0.15 F9000 ; Move in 1mm from edge and up [z] 0.15mm
G92 E0 ;zero the extruded length
G1 F200 E3 ;extrude 3mm of feed stock
G92 E0 ;zero the extruded length again
G1 F9000
M117 Printing...
G5
;LAYER_COUNT:15
;LAYER:0
M107
M205 X30
G0 F3000 X21.791 Y45.357 Z0.3
G0 X22.164 Y45.185
M205 X8
;TYPE:SKIRT
G1 F1800 X22.979 Y44.85 E0.04093
G1 X23.672 Y44.626 E0.07476
G1 X24.494 Y44.429 E0.11402
G1 X25.332 Y44.306 E0.15336
G1 X26.759 Y44.227 E0.21974
G1 X27.02 Y44.22 E0.23187
G1 X183.867 Y44.248 E7.51706
G1 X184.709 Y44.324 E7.55633
G1 X186.066 Y44.571 E7.6204
G1 X186.662 Y44.72 E7.64893
G1 X187.011 Y44.848 E7.6662
G1 X187.842 Y45.189 E7.70792
G1 X188.643 Y45.611 E7.74997
G1 X189.59 Y46.234 E7.80262
G1 X190.225 Y46.735 E7.84019
G1 X190.846 Y47.318 E7.87975
G1 X191.265 Y47.766 E7.90824
G1 X191.487 Y48.06 E7.92536
G1 X192.323 Y49.26 E7.99329
G1 X192.64 Y49.785 E8.02177
G1 X192.806 Y50.142 E8.04006
G1 X193.134 Y50.93 E8.0797
G1 X193.367 Y51.646 E8.11468
G1 X193.581 Y52.542 E8.15746
G1 X193.703 Y53.378 E8.19671
G1 X193.777 Y54.728 E8.2595
G1 X193.784 Y54.987 E8.27154
G1 X193.761 Y155.778 E12.95306
G1 X193.722 Y156.382 E12.98117
G1 X193.602 Y157.309 E13.02459
G1 X193.484 Y157.911 E13.05308
G1 X193.375 Y158.266 E13.07033
G1 X192.904 Y159.606 E13.1363
G1 X192.663 Y160.17 E13.16479
G1 X192.395 Y160.633 E13.18964
G1 X191.762 Y161.595 E13.24313
G1 X191.364 Y162.116 E13.27358
G1 X190.978 Y162.555 E13.30073
G1 X190.502 Y163.025 E13.3318
G1 X189.854 Y163.579 E13.3714
G1 X189.254 Y164.015 E13.40585
G1 X188.497 Y164.479 E13.44709
G1 X187.826 Y164.819 E13.48203
G1 X187.023 Y165.149 E13.52235
G1 X186.332 Y165.373 E13.55609
G1 X185.507 Y165.571 E13.5955
G1 X184.668 Y165.694 E13.63489
G1 X183.241 Y165.773 E13.70127
G1 X182.98 Y165.78 E13.7134
G1 X26.134 Y165.752 E20.99854
G1 X25.292 Y165.676 E21.03781
G1 X23.934 Y165.429 E21.10192
G1 X23.339 Y165.28 E21.13041
G1 X22.999 Y165.156 E21.14722
G1 X22.175 Y164.82 E21.18855
G1 X21.489 Y164.473 E21.22426
G1 X20.756 Y164.023 E21.26421
G1 X20.159 Y163.589 E21.29849
G1 X19.49 Y163.017 E21.33938
G1 X18.971 Y162.497 E21.3735
G1 X18.418 Y161.85 E21.41304
G1 X17.983 Y161.252 E21.44738
G1 X17.52 Y160.497 E21.48852
G1 X17.183 Y159.835 E21.52302
G1 X16.855 Y159.042 E21.56288
G1 X16.598 Y158.21 E21.60333
G1 X16.366 Y157.105 E21.65577
G1 X16.279 Y156.497 E21.6843
G1 X16.265 Y156.139 E21.70094
G1 X16.216 Y55.242 E26.38738
G1 X16.231 Y54.866 E26.40486
G1 X16.391 Y52.855 E26.49856
G1 X16.479 Y52.248 E26.52705
G1 X16.651 Y51.644 E26.55622
G1 X17.107 Y50.368 E26.61916
G1 X17.35 Y49.805 E26.64764
G1 X17.607 Y49.364 E26.67135
G1 X18.238 Y48.405 E26.72467
G1 X18.748 Y47.761 E26.76283
G1 X19.335 Y47.139 E26.80255
G1 X19.784 Y46.721 E26.83104
G1 X20.071 Y46.505 E26.84773
G1 X21.266 Y45.674 E26.91534
G1 X21.791 Y45.357 E26.94382
G1 X22.164 Y45.185 E26.9629
M205 X30
G0 F3000 X22.309 Y45.536
M205 X8
G1 F1800 X23.124 Y45.201 E27.00383
G1 X23.761 Y44.995 E27.03492
G1 X24.583 Y44.798 E27.07418
G1 X25.353 Y44.686 E27.11033
G1 X26.78 Y44.607 E27.17671
G1 X27.02 Y44.6 E27.18786
G1 X183.867 Y44.628 E34.47306
G1 X184.641 Y44.698 E34.50915
G1 X185.998 Y44.945 E34.57322
G1 X186.569 Y45.089 E34.60057
G1 X186.867 Y45.199 E34.61532
G1 X187.698 Y45.54 E34.65705
G1 X188.434 Y45.929 E34.69571
G1 X189.381 Y46.552 E34.74836
G1 X189.965 Y47.012 E34.78289
G1 X190.586 Y47.595 E34.82246
G1 X190.986 Y48.026 E34.84977
G1 X191.175 Y48.277 E34.86436
G1 X192.011 Y49.477 E34.93229
G1 X192.314 Y49.981 E34.95961
G1 X192.456 Y50.288 E34.97532
G1 X192.784 Y51.076 E35.01496
G1 X192.998 Y51.734 E35.0471
G1 X193.212 Y52.63 E35.08989
G1 X193.324 Y53.399 E35.12598
G1 X193.398 Y54.749 E35.18878
G1 X193.404 Y54.987 E35.19984
G1 X193.381 Y155.778 E39.88136
G1 X193.345 Y156.333 E39.90719
G1 X193.225 Y157.26 E39.95061
G1 X193.11 Y157.837 E39.97793
G1 X193.016 Y158.14 E39.99267
G1 X192.545 Y159.48 E40.05864
G1 X192.313 Y160.02 E40.08594
G1 X192.077 Y160.424 E40.10767
G1 X191.444 Y161.386 E40.16116
G1 X191.079 Y161.865 E40.18913
G1 X190.693 Y162.304 E40.21629
G1 X190.255 Y162.736 E40.24486
G1 X189.607 Y163.29 E40.28446
G1 X189.056 Y163.691 E40.31611
G1 X188.299 Y164.155 E40.35735
G1 X187.682 Y164.468 E40.38949
G1 X186.879 Y164.798 E40.42981
G1 X186.244 Y165.003 E40.4608
G1 X185.419 Y165.201 E40.50021
G1 X184.647 Y165.314 E40.53645
G1 X183.22 Y165.393 E40.60283
G1 X182.98 Y165.4 E40.61399
G1 X26.134 Y165.372 E47.89913
G1 X25.36 Y165.302 E47.93523
G1 X24.002 Y165.055 E47.99934
G1 X23.432 Y164.911 E48.02665
G1 X23.142 Y164.804 E48.04101
G1 X22.318 Y164.468 E48.08234
G1 X21.688 Y164.149 E48.11514
G1 X20.955 Y163.699 E48.15509
G1 X20.406 Y163.3 E48.18661
G1 X19.737 Y162.728 E48.2275
G1 X19.259 Y162.25 E48.25889
G1 X18.706 Y161.603 E48.29843
G1 X18.307 Y161.054 E48.32995
G1 X17.844 Y160.299 E48.37109
G1 X17.534 Y159.69 E48.40283
G1 X17.206 Y158.897 E48.44269
G1 X16.969 Y158.132 E48.47989
G1 X16.737 Y157.027 E48.53233
G1 X16.656 Y156.444 E48.55967
G1 X16.645 Y156.139 E48.57384
G1 X16.596 Y55.242 E53.26029
G1 X16.61 Y54.897 E53.27632
G1 X16.77 Y52.886 E53.37003
G1 X16.856 Y52.304 E53.39735
G1 X17.009 Y51.772 E53.42306
G1 X17.465 Y50.496 E53.486
G1 X17.7 Y49.957 E53.51331
G1 X17.925 Y49.573 E53.53399
G1 X18.556 Y48.614 E53.58731
G1 X19.024 Y48.022 E53.62236
G1 X19.611 Y47.4 E53.66208
G1 X20.043 Y47.001 E53.6894
G1 X20.288 Y46.817 E53.70363
G1 X21.483 Y45.986 E53.77123
G1 X21.988 Y45.684 E53.79857
G1 X22.309 Y45.536 E53.81498
M205 X30
G0 F3000 X22.453 Y45.888
M205 X8
G1 F1800 X23.268 Y45.553 E53.85591
G1 X23.849 Y45.365 E53.88428
G1 X24.671 Y45.168 E53.92354
G1 X25.374 Y45.065 E53.95654
G1 X26.801 Y44.986 E54.02292
G1 X27.02 Y44.98 E54.0331
G1 X183.867 Y45.008 E61.31829
G1 X184.573 Y45.072 E61.35122
G1 X185.93 Y45.319 E61.41528
G1 X186.723 Y45.551 E61.45366
G1 X187.554 Y45.892 E61.49538
G1 X188.225 Y46.246 E61.53062
G1 X189.172 Y46.869 E61.58327
G1 X189.705 Y47.289 E61.61479
G1 X190.326 Y47.872 E61.65435
G1 X190.863 Y48.494 E61.69252
G1 X191.699 Y49.694 E61.76045
G1 X191.987 Y50.177 E61.78657
G1 X192.105 Y50.434 E61.79971
G1 X192.433 Y51.222 E61.83935
G1 X192.628 Y51.822 E61.86865
G1 X192.842 Y52.718 E61.91144
G1 X192.944 Y53.42 E61.94439
G1 X193.018 Y54.77 E62.00719
G1 X193.024 Y54.987 E62.01727
G1 X193.001 Y155.778 E66.69879
G1 X192.968 Y156.284 E66.72234
G1 X192.848 Y157.211 E66.76576
G1 X192.658 Y158.014 E66.80409
G1 X192.187 Y159.354 E66.87006
G1 X191.963 Y159.869 E66.89614
G1 X191.76 Y160.215 E66.91478
G1 X191.127 Y161.177 E66.96827
G1 X190.793 Y161.614 E66.99381
G1 X190.407 Y162.053 E67.02096
G1 X190.008 Y162.447 E67.04701
G1 X189.36 Y163.001 E67.08661
G1 X188.857 Y163.367 E67.1155
G1 X188.1 Y163.831 E67.15674
G1 X187.537 Y164.117 E67.18607
G1 X186.734 Y164.447 E67.2264
G1 X186.155 Y164.634 E67.25466
G1 X185.33 Y164.832 E67.29407
G1 X184.626 Y164.935 E67.32711
G1 X183.199 Y165.014 E67.3935
G1 X182.98 Y165.02 E67.40367
G1 X26.134 Y164.992 E74.68882
G1 X25.428 Y164.928 E74.72175
G1 X24.07 Y164.681 E74.78586
G1 X23.286 Y164.453 E74.82378
G1 X22.462 Y164.117 E74.86511
G1 X21.886 Y163.825 E74.89511
G1 X21.153 Y163.375 E74.93506
G1 X20.653 Y163.011 E74.96379
G1 X19.984 Y162.439 E75.00467
G1 X19.548 Y162.003 E75.03331
G1 X18.995 Y161.356 E75.07284
G1 X18.631 Y160.855 E75.10161
G1 X18.168 Y160.1 E75.14274
G1 X17.885 Y159.545 E75.17168
G1 X17.557 Y158.752 E75.21154
G1 X17.341 Y158.054 E75.24548
G1 X17.109 Y156.949 E75.29792
G1 X17.025 Y156.139 E75.33574
G1 X16.976 Y55.242 E80.02219
G1 X16.988 Y54.927 E80.03683
G1 X17.148 Y52.916 E80.13053
G1 X17.233 Y52.36 E80.15665
G1 X17.366 Y51.9 E80.1789
G1 X17.822 Y50.624 E80.24183
G1 X18.049 Y50.109 E80.26798
G1 X18.242 Y49.782 E80.28561
G1 X18.873 Y48.823 E80.33893
G1 X19.3 Y48.283 E80.37091
G1 X19.887 Y47.661 E80.41063
G1 X20.505 Y47.129 E80.44851
G1 X21.7 Y46.298 E80.51611
G1 X22.183 Y46.011 E80.54221
G1 X22.453 Y45.888 E80.55599
M205 X30
G0 F3000 X22.598 Y46.239
M205 X8
G1 F1800 X23.413 Y45.904 E80.59692
G1 X23.938 Y45.734 E80.62255
G1 X24.76 Y45.537 E80.66181
G1 X25.395 Y45.444 E80.69162
G1 X26.822 Y45.365 E80.758
G1 X27.02 Y45.36 E80.7672
G1 X183.867 Y45.388 E88.0524
G1 X184.505 Y45.446 E88.08215
G1 X185.862 Y45.693 E88.14622
G1 X186.578 Y45.902 E88.18086
G1 X187.409 Y46.243 E88.22259
G1 X188.016 Y46.564 E88.25448
G1 X188.963 Y47.187 E88.30713
G1 X189.444 Y47.566 E88.33557
G1 X190.065 Y48.149 E88.37514
G1 X190.551 Y48.711 E88.40965
G1 X191.387 Y49.911 E88.47758
G1 X191.754 Y50.58 E88.51302
G1 X192.082 Y51.368 E88.55266
G1 X192.258 Y51.911 E88.57918
G1 X192.472 Y52.807 E88.62196
G1 X192.565 Y53.441 E88.65173
G1 X192.639 Y54.791 E88.71453
G1 X192.644 Y54.987 E88.72363
G1 X192.621 Y155.778 E93.40515
G1 X192.591 Y156.235 E93.42642
G1 X192.471 Y157.162 E93.46984
G1 X192.299 Y157.888 E93.50449
G1 X191.828 Y159.228 E93.57047
G1 X191.614 Y159.717 E93.59526
G1 X191.442 Y160.006 E93.61088
G1 X190.809 Y160.968 E93.66437
G1 X190.508 Y161.363 E93.68744
G1 X190.122 Y161.802 E93.71459
G1 X189.761 Y162.158 E93.73814
G1 X189.113 Y162.712 E93.77774
G1 X188.659 Y163.043 E93.80383
G1 X187.902 Y163.507 E93.84507
G1 X187.393 Y163.765 E93.87158
G1 X186.59 Y164.095 E93.9119
G1 X186.066 Y164.264 E93.93748
G1 X185.241 Y164.462 E93.97688
G1 X184.605 Y164.556 E94.00674
G1 X183.178 Y164.635 E94.07313
G1 X182.98 Y164.64 E94.08233
G1 X26.134 Y164.612 E101.36748
G1 X25.496 Y164.554 E101.39723
G1 X24.138 Y164.307 E101.46134
G1 X23.429 Y164.101 E101.49564
G1 X22.605 Y163.765 E101.53697
G1 X22.085 Y163.501 E101.56406
G1 X21.352 Y163.051 E101.60401
G1 X20.9 Y162.722 E101.62997
G1 X20.231 Y162.15 E101.67086
G1 X19.837 Y161.757 E101.6967
G1 X19.284 Y161.11 E101.73624
G1 X18.955 Y160.656 E101.76228
G1 X18.492 Y159.901 E101.80342
G1 X18.236 Y159.4 E101.82955
G1 X17.908 Y158.607 E101.86941
G1 X17.713 Y157.976 E101.90008
G1 X17.481 Y156.871 E101.95253
G1 X17.405 Y156.139 E101.98671
G1 X17.356 Y55.242 E106.67315
G1 X17.367 Y54.957 E106.6864
G1 X17.527 Y52.946 E106.7801
G1 X17.609 Y52.418 E106.80492
G1 X17.724 Y52.028 E106.8238
G1 X18.18 Y50.752 E106.88674
G1 X18.397 Y50.264 E106.91155
G1 X18.56 Y49.991 E106.92632
G1 X19.191 Y49.032 E106.97964
G1 X19.577 Y48.544 E107.00854
G1 X20.164 Y47.922 E107.04826
G1 X20.722 Y47.441 E107.08248
G1 X21.917 Y46.61 E107.15009
G1 X22.598 Y46.239 E107.18611
M205 X30
G0 F3000 X22.742 Y46.591
M205 X8
G1 F1800 X23.557 Y46.256 E107.22704
G1 X24.027 Y46.104 E107.24998
G1 X24.849 Y45.907 E107.28924
G1 X25.416 Y45.824 E107.31586
G1 X26.843 Y45.745 E107.38224
G1 X27.02 Y45.74 E107.39046
G1 X183.867 Y45.768 E114.67566
G1 X184.437 Y45.82 E114.70224
G1 X185.794 Y46.067 E114.76631
G1 X186.434 Y46.254 E114.79728
G1 X187.265 Y46.595 E114.839
G1 X187.807 Y46.881 E114.86747
G1 X188.754 Y47.504 E114.92012
G1 X189.184 Y47.843 E114.94555
G1 X189.805 Y48.426 E114.98511
G1 X190.239 Y48.929 E115.01597
G1 X191.075 Y50.129 E115.0839
G1 X191.403 Y50.726 E115.11554
G1 X191.731 Y51.514 E115.15518
G1 X191.889 Y51.999 E115.17888
G1 X192.103 Y52.895 E115.22166
G1 X192.185 Y53.461 E115.24823
G1 X192.259 Y54.811 E115.31103
G1 X192.264 Y54.987 E115.3192
G1 X192.241 Y155.778 E120.00072
G1 X192.215 Y156.187 E120.01976
G1 X192.095 Y157.114 E120.06317
G1 X191.941 Y157.762 E120.09411
G1 X191.47 Y159.102 E120.16008
G1 X191.265 Y159.563 E120.18352
G1 X191.125 Y159.797 E120.19618
G1 X190.492 Y160.759 E120.24967
G1 X190.223 Y161.112 E120.27029
G1 X189.837 Y161.551 E120.29744
G1 X189.514 Y161.87 E120.31852
G1 X188.866 Y162.424 E120.35812
G1 X188.46 Y162.719 E120.38143
G1 X187.703 Y163.183 E120.42267
G1 X187.249 Y163.414 E120.44633
G1 X186.446 Y163.744 E120.48666
G1 X185.977 Y163.895 E120.50954
G1 X185.152 Y164.093 E120.54895
G1 X184.584 Y164.176 E120.57561
G1 X183.157 Y164.255 E120.642
G1 X182.98 Y164.26 E120.65022
G1 X26.134 Y164.232 E127.93537
G1 X25.564 Y164.181 E127.96195
G1 X24.206 Y163.934 E128.02606
G1 X23.573 Y163.749 E128.05669
G1 X22.749 Y163.413 E128.09802
G1 X22.284 Y163.178 E128.12222
G1 X21.551 Y162.728 E128.16217
G1 X21.147 Y162.434 E128.18538
G1 X20.478 Y161.862 E128.22626
G1 X20.126 Y161.51 E128.24939
G1 X19.573 Y160.863 E128.28892
G1 X19.279 Y160.458 E128.31216
G1 X18.816 Y159.703 E128.3533
G1 X18.587 Y159.254 E128.37671
G1 X18.259 Y158.461 E128.41657
G1 X18.085 Y157.897 E128.44399
G1 X17.853 Y156.792 E128.49643
G1 X17.785 Y156.139 E128.52693
G1 X17.736 Y55.242 E133.21337
G1 X17.746 Y54.987 E133.22522
G1 X17.906 Y52.976 E133.31892
G1 X17.986 Y52.478 E133.34235
G1 X18.082 Y52.155 E133.358
G1 X18.538 Y50.879 E133.42094
G1 X18.745 Y50.419 E133.44437
G1 X18.877 Y50.2 E133.45625
G1 X19.508 Y49.241 E133.50957
G1 X19.853 Y48.805 E133.53539
G1 X20.44 Y48.183 E133.57512
G1 X20.939 Y47.753 E133.60571
G1 X22.134 Y46.922 E133.67332
G1 X22.742 Y46.591 E133.70547
M205 X30
G1 F3600 E128.70547
G1 Z0.6
G0 F3000 X31.776 Y59.487 Z0.6
M205 X8
;TYPE:SUPPORT
G1 Z0.3
G1 F3600 E133.70547
G1 F1800 X32.452 Y59.013 E133.74627
G1 X33.178 Y58.676 E133.78345
G1 X33.966 Y58.465 E133.82134
G1 X34.795 Y58.392 E133.85999
G1 X89.861 Y58.392 E136.41769
G1 X90.69 Y58.465 E136.45634
G1 X91.478 Y58.676 E136.49423
G1 X92.204 Y59.013 E136.53141
G1 X92.88 Y59.487 E136.56976
G1 X93.437 Y60.044 E136.60635
G1 X93.913 Y60.725 E136.64494
G1 X94.25 Y61.448 E136.68199
G1 X94.461 Y62.235 E136.71983
G1 X94.534 Y63.06 E136.7583
G1 X94.534 Y146.947 E140.65467
G1 X94.463 Y147.755 E140.69234
G1 X94.247 Y148.558 E140.73096
G1 X93.913 Y149.275 E140.7677
G1 X93.437 Y149.956 E140.8063
G1 X92.88 Y150.513 E140.84288
G1 X92.204 Y150.987 E140.88123
G1 X91.478 Y151.324 E140.91841
G1 X90.69 Y151.535 E140.9563
G1 X89.861 Y151.608 E140.99495
G1 X34.795 Y151.608 E143.55265
G1 X33.966 Y151.535 E143.5913
G1 X33.178 Y151.324 E143.62919
G1 X32.452 Y150.987 E143.66637
G1 X31.776 Y150.513 E143.70472
G1 X31.219 Y149.956 E143.7413
G1 X30.743 Y149.275 E143.7799
G1 X30.409 Y148.558 E143.81663
G1 X30.193 Y147.755 E143.85526
G1 X30.122 Y146.947 E143.89293
G1 X30.122 Y63.06 E147.7893
G1 X30.195 Y62.235 E147.82777
G1 X30.406 Y61.448 E147.86561
G1 X30.743 Y60.725 E147.90266
G1 X31.219 Y60.044 E147.94125
G1 X31.776 Y59.487 E147.97784
M205 X30
G0 F3000 X34.593 Y62.078
M205 X8
G1 F1800 X33.808 Y62.863 E148.02941
G1 X33.155 Y63.799 E148.08242
G1 X32.693 Y64.794 E148.13337
G1 X32.397 Y65.888 E148.18601
G1 X32.304 Y66.947 E148.23539
G1 X32.304 Y143.042 E151.76983
G1 X32.379 Y143.996 E151.81428
G1 X32.614 Y144.98 E151.86127
G1 X33.001 Y145.913 E151.90819
G1 X33.532 Y146.782 E151.95549
G1 X34.185 Y147.545 E152.00214
G1 X34.948 Y148.198 E152.04878
G1 X35.82 Y148.731 E152.09625
G1 X36.747 Y149.115 E152.14286
G1 X37.72 Y149.347 E152.18932
G1 X38.692 Y149.426 E152.23461
G1 X85.964 Y149.426 E154.43029
G1 X86.936 Y149.347 E154.47559
G1 X87.909 Y149.115 E154.52205
G1 X88.836 Y148.731 E154.56865
G1 X89.708 Y148.198 E154.61612
G1 X90.471 Y147.545 E154.66277
G1 X91.124 Y146.782 E154.70942
G1 X91.655 Y145.913 E154.75672
G1 X92.042 Y144.98 E154.80363
G1 X92.277 Y143.996 E154.85062
G1 X92.352 Y143.042 E154.89507
G1 X92.352 Y66.947 E158.42952
G1 X92.259 Y65.888 E158.47889
G1 X91.963 Y64.794 E158.53153
G1 X91.501 Y63.799 E158.58249
G1 X90.848 Y62.863 E158.6355
G1 X90.063 Y62.078 E158.68706
G1 X89.127 Y61.425 E158.74007
G1 X88.137 Y60.965 E158.79078
G1 X87.033 Y60.667 E158.84389
G1 X85.973 Y60.574 E158.89331
G1 X38.683 Y60.574 E161.08983
G1 X37.623 Y60.667 E161.13925
G1 X36.519 Y60.965 E161.19237
G1 X35.529 Y61.425 E161.24307
G1 X34.593 Y62.078 E161.29608
M205 X30
G0 F3000 X35.462 Y61.288
M205 X8
G1 F1800 X35.462 Y58.544 E161.42353
M205 X30
G0 F3000 X36.577 Y60.792
M205 X8
G1 F1800 X30.882 Y60.792 E161.68805
M205 X30
G0 F3000 X30.396 Y62.072
M205 X8
G1 F1800 X30.396 Y147.927 E165.67583
M205 X30
G0 F3000 X30.273 Y146.914
M205 X8
G1 F1800 X33.445 Y146.914 E165.82316
M205 X30
G0 F3000 X32.929 Y146.088
M205 X8
G1 F1800 X32.929 Y151.039 E166.05312
M205 X30
G0 F3000 X31.048 Y149.447
M205 X8
G1 F1800 X37.484 Y149.447 E166.35206
M205 X30
