;FLAVOR:RepRap
;TIME:6599
;Filament used: 3.86571m
;Layer height: 0.2
;Generated with Cura_SteamEngine 2.6.2
M190 S60
M104 S210
M109 S210
G21 ;metric values
G90 ;absolute positioning
M82 ;set extruder to absolute mode
M107 ;start with the fan off
G28 X0 Y0 ;move X/Y to min endstops
G28 Z0 ;move Z to min endstops
G0 X1 Y0 Z0.15 F9000 ; Move in 1mm from edge and up [z] 0.15mm
G92 E0 ;zero the extruded length
G1 F200 E3 ;extrude 3mm of feed stock
G92 E0 ;zero the extruded length again
G1 F9000
M117 Printing...
G5
;LAYER_COUNT:75
;LAYER:0
M107
M205 X30
G0 F3000 X71.337 Y63.157 Z0.3
M205 X8
;TYPE:SKIRT
G1 F1800 X71.784 Y62.736 E0.02852
G1 X72.281 Y62.377 E0.057
G1 X72.821 Y62.086 E0.08549
G1 X73.219 Y61.925 E0.10543
G1 X78.715 Y59.988 E0.3761
G1 X83.693 Y57.901 E0.62681
G1 X88.544 Y55.536 E0.87748
G1 X93.23 Y52.914 E1.12689
G1 X97.812 Y49.998 E1.37916
G1 X100.522 Y48.099 E1.53286
G1 X101.046 Y47.78 E1.56135
G1 X101.608 Y47.532 E1.58989
G1 X102.196 Y47.36 E1.61834
G1 X102.802 Y47.265 E1.64683
G1 X103.228 Y47.246 E1.66664
G1 X106.779 Y47.248 E1.83158
G1 X107.391 Y47.288 E1.86006
G1 X107.993 Y47.408 E1.88857
G1 X108.574 Y47.605 E1.91707
G1 X109.124 Y47.875 E1.94553
G1 X109.503 Y48.118 E1.96644
G1 X111.106 Y49.256 E2.05775
G1 X115.651 Y52.235 E2.31016
G1 X120.324 Y54.931 E2.56074
G1 X125.128 Y57.354 E2.81065
G1 X130.055 Y59.498 E3.06023
G1 X136.815 Y61.937 E3.39403
G1 X137.378 Y62.182 E3.42255
G1 X137.903 Y62.498 E3.45101
G1 X138.384 Y62.88 E3.47954
G1 X138.81 Y63.321 E3.50802
G1 X139.175 Y63.814 E3.53651
G1 X139.473 Y64.35 E3.565
G1 X139.699 Y64.921 E3.59352
G1 X139.849 Y65.516 E3.62202
G1 X139.921 Y66.125 E3.6505
G1 X139.925 Y66.514 E3.66857
G1 X139.713 Y73.311 E3.98443
G1 X139.79 Y78.811 E4.23992
G1 X139.932 Y82.201 E4.39752
G1 X139.933 Y82.574 E4.41484
G1 X139.714 Y88.439 E4.68745
G1 X139.79 Y93.924 E4.94224
G1 X139.932 Y97.314 E5.09983
G1 X139.933 Y97.687 E5.11716
G1 X139.714 Y103.552 E5.38977
G1 X139.791 Y109.083 E5.64669
G1 X139.912 Y113.219 E5.83888
G1 X139.89 Y113.832 E5.86737
G1 X139.788 Y114.437 E5.89587
G1 X139.609 Y115.024 E5.92438
G1 X139.355 Y115.582 E5.95285
G1 X139.031 Y116.103 E5.98135
G1 X138.463 Y116.757 E6.02158
G1 X134.483 Y120.572 E6.27766
G1 X130.781 Y124.547 E6.52996
G1 X129.065 Y126.555 E6.65264
G1 X125.725 Y130.816 E6.90411
G1 X122.644 Y135.238 E7.15444
G1 X119.823 Y139.823 E7.40448
G1 X117.259 Y144.568 E7.655
G1 X114.968 Y149.451 E7.90552
G1 X112.947 Y154.476 E8.15709
G1 X111.231 Y159.552 E8.40597
G1 X110.997 Y160.12 E8.4345
G1 X110.691 Y160.652 E8.46301
G1 X110.319 Y161.139 E8.49147
G1 X109.887 Y161.574 E8.51995
G1 X109.401 Y161.95 E8.54849
G1 X108.871 Y162.259 E8.57699
G1 X108.306 Y162.496 E8.60544
G1 X107.714 Y162.658 E8.63395
G1 X107.106 Y162.742 E8.66246
G1 X106.769 Y162.754 E8.67812
G1 X103.231 Y162.754 E8.84246
G1 X102.619 Y162.714 E8.87094
G1 X102.017 Y162.595 E8.89945
G1 X101.436 Y162.398 E8.92794
G1 X100.885 Y162.128 E8.95644
G1 X100.374 Y161.789 E8.98492
G1 X99.912 Y161.385 E9.01343
G1 X99.505 Y160.926 E9.04192
G1 X99.162 Y160.417 E9.07043
G1 X98.888 Y159.868 E9.09893
G1 X98.763 Y159.535 E9.11545
G1 X97.468 Y155.654 E9.30549
G1 X95.521 Y150.618 E9.55627
G1 X93.292 Y145.7 E9.80707
G1 X90.788 Y140.914 E10.05795
G1 X89.467 Y138.629 E10.18055
G1 X86.55 Y134.045 E10.43292
G1 X83.398 Y129.663 E10.68364
G1 X80.025 Y125.492 E10.93279
G1 X76.402 Y121.496 E11.18332
G1 X71.495 Y116.711 E11.50167
G1 X71.084 Y116.255 E11.53018
G1 X70.737 Y115.75 E11.55864
G1 X70.458 Y115.203 E11.58716
G1 X70.252 Y114.625 E11.61566
G1 X70.123 Y114.025 E11.64417
G1 X70.075 Y113.192 E11.68293
G1 X70.287 Y106.399 E11.9986
G1 X70.21 Y100.897 E12.25418
G1 X70.068 Y97.489 E12.41261
G1 X70.067 Y97.116 E12.42994
G1 X70.286 Y91.27 E12.70166
G1 X70.21 Y85.784 E12.9565
G1 X70.068 Y82.376 E13.11493
G1 X70.067 Y82.003 E13.13225
G1 X70.286 Y76.157 E13.40398
G1 X70.21 Y70.662 E13.65923
G1 X70.076 Y66.519 E13.85177
G1 X70.097 Y65.906 E13.88026
G1 X70.196 Y65.3 E13.90878
G1 X70.374 Y64.713 E13.93727
G1 X70.626 Y64.154 E13.96575
G1 X70.949 Y63.632 E13.99426
G1 X71.337 Y63.157 E14.02275
M205 X30
G0 F3000 X71.716 Y63.311
M205 X8
G1 F1800 X72.159 Y62.924 E14.05007
G1 X72.65 Y62.6 E14.07739
G1 X73.345 Y62.283 E14.11287
G1 X78.868 Y60.337 E14.38486
G1 X83.851 Y58.247 E14.63585
G1 X88.698 Y55.885 E14.88629
G1 X93.442 Y53.23 E15.1388
G1 X98.013 Y50.321 E15.39046
G1 X100.74 Y48.41 E15.54513
G1 X101.244 Y48.106 E15.57246
G1 X101.784 Y47.873 E15.59978
G1 X102.35 Y47.715 E15.62708
G1 X102.933 Y47.636 E15.6544
G1 X103.227 Y47.626 E15.66807
G1 X106.778 Y47.628 E15.833
G1 X107.365 Y47.668 E15.86033
G1 X107.941 Y47.788 E15.88766
G1 X108.496 Y47.984 E15.915
G1 X109.018 Y48.254 E15.94229
G1 X109.283 Y48.427 E15.95699
G1 X110.889 Y49.567 E16.04847
G1 X115.456 Y52.56 E16.30209
G1 X120.148 Y55.267 E16.5537
G1 X124.975 Y57.702 E16.80481
G1 X129.9 Y59.845 E17.05428
G1 X136.687 Y62.294 E17.38942
G1 X137.225 Y62.531 E17.41673
G1 X137.726 Y62.838 E17.44402
G1 X138.181 Y63.211 E17.47134
G1 X138.582 Y63.642 E17.49869
G1 X138.92 Y64.123 E17.52599
G1 X139.19 Y64.646 E17.55333
G1 X139.387 Y65.2 E17.58064
G1 X139.506 Y65.776 E17.60796
G1 X139.545 Y66.502 E17.64173
G1 X139.333 Y73.304 E17.95782
G1 X139.41 Y78.832 E18.21461
G1 X139.552 Y82.217 E18.37197
G1 X139.553 Y82.56 E18.38791
G1 X139.333 Y88.43 E18.66075
G1 X139.41 Y93.945 E18.91693
G1 X139.552 Y97.33 E19.0743
G1 X139.553 Y97.673 E19.09023
G1 X139.333 Y103.543 E19.36307
G1 X139.411 Y109.096 E19.62102
G1 X139.532 Y113.23 E19.81311
G1 X139.509 Y113.818 E19.84045
G1 X139.407 Y114.397 E19.86775
G1 X139.227 Y114.957 E19.89507
G1 X138.973 Y115.488 E19.92242
G1 X138.65 Y115.979 E19.94971
G1 X138.2 Y116.483 E19.9811
G1 X134.211 Y120.307 E20.23776
G1 X130.494 Y124.298 E20.49108
G1 X128.769 Y126.316 E20.61439
G1 X125.422 Y130.586 E20.86639
G1 X122.333 Y135.02 E21.11739
G1 X119.489 Y139.641 E21.36941
G1 X116.917 Y144.402 E21.62076
G1 X114.62 Y149.297 E21.87191
G1 X112.593 Y154.339 E22.12431
G1 X110.871 Y159.431 E22.37398
G1 X110.645 Y159.974 E22.4013
G1 X110.348 Y160.481 E22.42859
G1 X109.984 Y160.944 E22.45595
G1 X109.562 Y161.353 E22.48325
G1 X109.087 Y161.701 E22.5106
G1 X108.57 Y161.981 E22.53791
G1 X108.02 Y162.189 E22.56522
G1 X107.447 Y162.321 E22.59253
G1 X106.769 Y162.374 E22.62412
G1 X103.231 Y162.374 E22.78845
G1 X102.644 Y162.334 E22.81578
G1 X102.068 Y162.215 E22.8431
G1 X101.514 Y162.019 E22.87039
G1 X100.991 Y161.749 E22.89773
G1 X100.509 Y161.412 E22.92505
G1 X100.078 Y161.012 E22.95236
G1 X99.705 Y160.557 E22.97969
G1 X99.397 Y160.056 E23.007
G1 X99.124 Y159.415 E23.03936
G1 X97.831 Y155.542 E23.22902
G1 X95.869 Y150.465 E23.48183
G1 X93.638 Y145.544 E23.73279
G1 X91.114 Y140.718 E23.98575
G1 X89.794 Y138.435 E24.10824
G1 X86.863 Y133.83 E24.36178
G1 X83.716 Y129.453 E24.61218
G1 X80.301 Y125.23 E24.86444
G1 X76.68 Y121.236 E25.11484
G1 X71.76 Y116.439 E25.43401
G1 X71.368 Y116.001 E25.46131
G1 X71.039 Y115.513 E25.48865
G1 X70.778 Y114.986 E25.51596
G1 X70.592 Y114.428 E25.54328
G1 X70.483 Y113.85 E25.5706
G1 X70.455 Y113.204 E25.60063
G1 X70.667 Y106.406 E25.91654
G1 X70.59 Y100.876 E26.17342
G1 X70.448 Y97.473 E26.33162
G1 X70.447 Y97.131 E26.34751
G1 X70.667 Y91.279 E26.61951
G1 X70.59 Y85.763 E26.87574
G1 X70.448 Y82.36 E27.03394
G1 X70.447 Y82.018 E27.04983
G1 X70.667 Y76.166 E27.32183
G1 X70.589 Y70.646 E27.57825
G1 X70.456 Y66.507 E27.77059
G1 X70.477 Y65.919 E27.79792
G1 X70.578 Y65.339 E27.82527
G1 X70.756 Y64.779 E27.85256
G1 X71.008 Y64.247 E27.8799
G1 X71.33 Y63.755 E27.90721
G1 X71.716 Y63.311 E27.93454
M205 X30
G0 F3000 X72.095 Y63.474
M205 X8
G1 F1800 X72.532 Y63.122 E27.9606
G1 X73.015 Y62.835 E27.9867
G1 X73.471 Y62.642 E28.0097
G1 X78.991 Y60.697 E28.28154
G1 X84.002 Y58.596 E28.53392
G1 X88.895 Y56.211 E28.78675
G1 X93.634 Y53.558 E29.03901
G1 X98.214 Y50.644 E29.29115
G1 X100.958 Y48.721 E29.44679
G1 X101.44 Y48.432 E29.47289
G1 X101.958 Y48.215 E29.49898
G1 X102.502 Y48.073 E29.52509
G1 X103.227 Y48.006 E29.55891
G1 X106.778 Y48.008 E29.72384
G1 X107.339 Y48.048 E29.74997
G1 X107.888 Y48.168 E29.77607
G1 X108.414 Y48.364 E29.80214
G1 X109.063 Y48.737 E29.83691
G1 X110.683 Y49.887 E29.92919
G1 X115.247 Y52.879 E30.18267
G1 X119.963 Y55.599 E30.43554
G1 X124.815 Y58.047 E30.68796
G1 X129.758 Y60.198 E30.93835
G1 X136.558 Y62.651 E31.27412
G1 X137.071 Y62.879 E31.30019
G1 X137.547 Y63.177 E31.32627
G1 X137.976 Y63.54 E31.35238
G1 X138.349 Y63.96 E31.37847
G1 X138.659 Y64.429 E31.40458
G1 X138.899 Y64.937 E31.43068
G1 X139.065 Y65.474 E31.45678
G1 X139.152 Y66.029 E31.48288
G1 X139.165 Y66.49 E31.5043
G1 X138.953 Y73.298 E31.82067
G1 X139.03 Y78.818 E32.07708
G1 X139.173 Y82.233 E32.23584
G1 X139.173 Y82.546 E32.25038
G1 X138.953 Y88.421 E32.52345
G1 X139.03 Y93.931 E32.7794
G1 X139.173 Y97.346 E32.93816
G1 X139.173 Y97.659 E32.9527
G1 X138.953 Y103.534 E33.22577
G1 X139.031 Y109.101 E33.48437
G1 X139.152 Y113.241 E33.67675
G1 X139.129 Y113.803 E33.70287
G1 X139.026 Y114.355 E33.72896
G1 X138.846 Y114.887 E33.75504
G1 X138.592 Y115.388 E33.78113
G1 X138.269 Y115.848 E33.80724
G1 X137.937 Y116.208 E33.82999
G1 X133.947 Y120.033 E34.08672
G1 X130.207 Y124.049 E34.34161
G1 X128.482 Y126.066 E34.46489
G1 X125.113 Y130.365 E34.71858
G1 X122.008 Y134.822 E34.97088
G1 X119.159 Y139.45 E35.2233
G1 X116.585 Y144.216 E35.47489
G1 X114.274 Y149.141 E35.72758
G1 X112.233 Y154.216 E35.98165
G1 X110.511 Y159.309 E36.23137
G1 X110.294 Y159.827 E36.25745
G1 X110.005 Y160.309 E36.28356
G1 X109.651 Y160.745 E36.30964
G1 X109.239 Y161.127 E36.33574
G1 X108.776 Y161.446 E36.36185
G1 X108.273 Y161.696 E36.38794
G1 X107.74 Y161.873 E36.41403
G1 X107.187 Y161.972 E36.44012
G1 X106.769 Y161.994 E36.45957
G1 X103.231 Y161.994 E36.6239
G1 X102.671 Y161.954 E36.64998
G1 X102.122 Y161.835 E36.67607
G1 X101.595 Y161.639 E36.70218
G1 X101.102 Y161.371 E36.72825
G1 X100.651 Y161.035 E36.75437
G1 X100.253 Y160.639 E36.78045
G1 X99.915 Y160.19 E36.80655
G1 X99.644 Y159.698 E36.83264
G1 X99.484 Y159.295 E36.85278
G1 X98.181 Y155.392 E37.0439
G1 X96.226 Y150.334 E37.29577
G1 X93.975 Y145.367 E37.54907
G1 X91.45 Y140.54 E37.80209
G1 X90.114 Y138.229 E37.92608
G1 X87.185 Y133.626 E38.17949
G1 X84.018 Y129.223 E38.43141
G1 X80.584 Y124.976 E38.68509
G1 X76.959 Y120.978 E38.93576
G1 X72.025 Y116.167 E39.25584
G1 X71.652 Y115.747 E39.28193
G1 X71.342 Y115.279 E39.30801
G1 X71.102 Y114.771 E39.3341
G1 X70.936 Y114.234 E39.36021
G1 X70.848 Y113.679 E39.38631
G1 X70.835 Y113.216 E39.40782
G1 X71.047 Y106.412 E39.72401
G1 X70.97 Y100.89 E39.98052
G1 X70.827 Y97.457 E40.14011
G1 X70.827 Y97.145 E40.1546
G1 X71.047 Y91.288 E40.42684
G1 X70.97 Y85.777 E40.68284
G1 X70.827 Y82.344 E40.84243
G1 X70.827 Y82.032 E40.85692
G1 X71.047 Y76.175 E41.12916
G1 X70.969 Y70.609 E41.38771
G1 X70.836 Y66.494 E41.57895
G1 X70.858 Y65.933 E41.60502
G1 X70.959 Y65.38 E41.63113
G1 X71.138 Y64.848 E41.6572
G1 X71.39 Y64.346 E41.68329
G1 X71.711 Y63.885 E41.70939
G1 X72.095 Y63.474 E41.73551
M205 X30
G0 F3000 X72.471 Y63.647
M205 X8
G1 F1800 X72.903 Y63.333 E41.76032
G1 X73.598 Y63 E41.79611
G1 X79.133 Y61.05 E42.06869
G1 X84.166 Y58.939 E42.32219
G1 X89.07 Y56.549 E42.57558
G1 X93.813 Y53.894 E42.82805
G1 X98.431 Y50.956 E43.08228
G1 X101.176 Y49.032 E43.23798
G1 X101.635 Y48.759 E43.26278
G1 X102.13 Y48.558 E43.2876
G1 X102.649 Y48.433 E43.31239
G1 X103.227 Y48.386 E43.33933
G1 X106.778 Y48.388 E43.50426
G1 X107.311 Y48.428 E43.52909
G1 X107.831 Y48.547 E43.55387
G1 X108.328 Y48.743 E43.57868
G1 X108.843 Y49.047 E43.60646
G1 X110.466 Y50.199 E43.6989
G1 X115.06 Y53.21 E43.95403
G1 X119.779 Y55.932 E44.20707
G1 X124.648 Y58.389 E44.46039
G1 X129.621 Y60.553 E44.71229
G1 X136.429 Y63.009 E45.04846
G1 X136.916 Y63.227 E45.07324
G1 X137.365 Y63.516 E45.09804
G1 X137.767 Y63.868 E45.12286
G1 X138.111 Y64.276 E45.14765
G1 X138.39 Y64.731 E45.17244
G1 X138.599 Y65.223 E45.19727
G1 X138.732 Y65.74 E45.22206
G1 X138.785 Y66.478 E45.25643
G1 X138.573 Y73.274 E45.57224
G1 X138.65 Y78.839 E45.83075
G1 X138.793 Y82.249 E45.98927
G1 X138.794 Y82.531 E46.00237
G1 X138.573 Y88.431 E46.27661
G1 X138.65 Y93.952 E46.53307
G1 X138.793 Y97.362 E46.6916
G1 X138.794 Y97.644 E46.70469
G1 X138.573 Y103.544 E46.97893
G1 X138.651 Y109.106 E47.2373
G1 X138.772 Y113.253 E47.43
G1 X138.748 Y113.786 E47.45478
G1 X138.644 Y114.31 E47.47959
G1 X138.464 Y114.812 E47.50436
G1 X138.21 Y115.282 E47.52918
G1 X137.889 Y115.709 E47.55399
G1 X137.674 Y115.934 E47.56844
G1 X133.674 Y119.768 E47.8258
G1 X129.92 Y123.8 E48.08168
G1 X128.186 Y125.828 E48.20562
G1 X124.809 Y130.136 E48.45986
G1 X121.688 Y134.617 E48.7135
G1 X118.837 Y139.248 E48.9661
G1 X116.243 Y144.051 E49.21964
G1 X113.92 Y149.001 E49.47362
G1 X111.882 Y154.068 E49.72729
G1 X110.151 Y159.187 E49.97829
G1 X109.943 Y159.679 E50.0031
G1 X109.663 Y160.134 E50.02791
G1 X109.319 Y160.543 E50.05273
G1 X108.918 Y160.895 E50.07752
G1 X108.468 Y161.184 E50.10236
G1 X107.981 Y161.402 E50.12714
G1 X107.467 Y161.545 E50.15192
G1 X106.769 Y161.614 E50.1845
G1 X103.231 Y161.614 E50.34883
G1 X102.698 Y161.574 E50.37366
G1 X102.178 Y161.455 E50.39844
G1 X101.681 Y161.26 E50.42323
G1 X101.218 Y160.993 E50.44806
G1 X100.801 Y160.659 E50.47287
G1 X100.438 Y160.268 E50.49766
G1 X100.138 Y159.826 E50.52247
G1 X99.845 Y159.174 E50.55567
G1 X98.548 Y155.287 E50.746
G1 X96.574 Y150.181 E51.00027
G1 X94.315 Y145.196 E51.25447
G1 X91.786 Y140.362 E51.50787
G1 X90.444 Y138.041 E51.6324
G1 X87.495 Y133.407 E51.88753
G1 X84.314 Y128.985 E52.14054
G1 X80.884 Y124.742 E52.39396
G1 X77.221 Y120.702 E52.64726
G1 X72.291 Y115.895 E52.96708
G1 X71.937 Y115.495 E52.99189
G1 X71.648 Y115.046 E53.01669
G1 X71.428 Y114.559 E53.04151
G1 X71.284 Y114.045 E53.06631
G1 X71.217 Y113.515 E53.09112
G1 X71.215 Y113.228 E53.10445
G1 X71.427 Y106.419 E53.42087
G1 X71.35 Y100.869 E53.67868
G1 X71.207 Y97.441 E53.83804
G1 X71.207 Y97.159 E53.85114
G1 X71.427 Y91.297 E54.12361
G1 X71.35 Y85.756 E54.381
G1 X71.207 Y82.328 E54.54036
G1 X71.207 Y82.046 E54.55346
G1 X71.427 Y76.184 E54.82593
G1 X71.349 Y70.604 E55.08513
G1 X71.216 Y66.482 E55.27669
G1 X71.239 Y65.948 E55.30151
G1 X71.341 Y65.424 E55.32631
G1 X71.52 Y64.921 E55.35111
G1 X71.772 Y64.45 E55.37592
G1 X72.092 Y64.023 E55.4007
G1 X72.471 Y63.647 E55.4255
M205 X30
G0 F3000 X72.847 Y63.833
M205 X8
G1 F1800 X73.271 Y63.559 E55.44895
G1 X73.724 Y63.358 E55.47197
G1 X79.271 Y61.403 E55.74515
G1 X84.317 Y59.288 E55.99928
G1 X89.245 Y56.885 E56.25394
G1 X94.025 Y54.21 E56.50836
G1 X98.648 Y51.268 E56.76288
G1 X101.394 Y49.344 E56.91862
G1 X101.829 Y49.088 E56.94206
G1 X102.299 Y48.903 E56.96552
G1 X102.792 Y48.795 E56.98896
G1 X103.227 Y48.766 E57.00921
G1 X106.778 Y48.768 E57.17415
G1 X107.281 Y48.808 E57.19759
G1 X107.771 Y48.927 E57.22101
G1 X108.237 Y49.122 E57.24447
G1 X108.623 Y49.357 E57.26546
G1 X110.248 Y50.511 E57.35803
G1 X114.86 Y53.533 E57.61414
G1 X119.595 Y56.265 E57.86805
G1 X124.488 Y58.733 E58.1226
G1 X129.479 Y60.905 E58.37542
G1 X136.3 Y63.366 E58.71223
G1 X136.759 Y63.575 E58.73565
G1 X137.181 Y63.853 E58.75913
G1 X137.553 Y64.194 E58.78257
G1 X137.866 Y64.59 E58.80601
G1 X138.113 Y65.03 E58.82945
G1 X138.288 Y65.503 E58.85287
G1 X138.386 Y65.999 E58.87636
G1 X138.405 Y66.466 E58.89807
G1 X138.193 Y73.274 E59.21444
G1 X138.271 Y78.861 E59.47396
G1 X138.413 Y82.265 E59.63221
G1 X138.414 Y82.517 E59.64392
G1 X138.193 Y88.422 E59.91838
G1 X138.271 Y93.974 E60.17629
G1 X138.413 Y97.378 E60.33453
G1 X138.414 Y97.63 E60.34624
G1 X138.193 Y103.535 E60.6207
G1 X138.27 Y109.063 E60.87749
G1 X138.393 Y113.264 E61.0727
G1 X138.367 Y113.768 E61.09614
G1 X138.263 Y114.262 E61.11959
G1 X138.082 Y114.733 E61.14303
G1 X137.829 Y115.17 E61.16648
G1 X137.412 Y115.66 E61.19637
G1 X133.393 Y119.513 E61.45497
G1 X129.633 Y123.55 E61.71121
G1 X127.899 Y125.578 E61.83514
G1 X124.5 Y129.915 E62.09108
G1 X121.376 Y134.399 E62.34492
G1 X118.504 Y139.066 E62.59945
G1 X115.901 Y143.885 E62.85384
G1 X113.576 Y148.838 E63.10799
G1 X111.521 Y153.95 E63.36389
G1 X109.791 Y159.066 E63.61474
G1 X109.592 Y159.53 E63.63819
G1 X109.322 Y159.956 E63.66162
G1 X108.989 Y160.335 E63.68505
G1 X108.6 Y160.657 E63.7085
