;FLAVOR:RepRap
;TIME:17998
;Filament used: 13.4279m
;Layer height: 0.2
;Generated with Cura_SteamEngine 2.6.2
M190 S60
M104 S210
M109 S210
G21 ;metric values
G90 ;absolute positioning
M82 ;set extruder to absolute mode
M107 ;start with the fan off
G28 X0 Y0 ;move X/Y to min endstops
G28 Z0 ;move Z to min endstops
G0 X1 Y0 Z0.15 F9000 ; Move in 1mm from edge and up [z] 0.15mm
G92 E0 ;zero the extruded length
G1 F200 E3 ;extrude 3mm of feed stock
G92 E0 ;zero the extruded length again
G1 F9000
M117 Printing...
G5
;LAYER_COUNT:106
;LAYER:0
M107
M205 X30
G0 F3000 X60.735 Y47.951 Z0.3
M205 X8
;TYPE:SKIRT
G1 F1800 X61.277 Y47.302 E0.03927
G1 X61.985 Y46.594 E0.08578
G1 X62.628 Y46.055 E0.12475
G1 X63.394 Y45.523 E0.16807
G1 X64.106 Y45.116 E0.20616
G1 X64.896 Y44.751 E0.24658
G1 X65.659 Y44.476 E0.28425
G1 X66.579 Y44.231 E0.32848
G1 X67.181 Y44.112 E0.35698
G1 X67.626 Y44.075 E0.37772
G1 X69.997 Y43.992 E0.48791
G1 X70.326 Y43.992 E0.5032
G1 X75.637 Y44.177 E0.75003
G1 X132.892 Y44.188 E3.4094
G1 X140.031 Y43.99 E3.74112
G1 X140.34 Y43.991 E3.75547
G1 X142.302 Y44.065 E3.84666
G1 X142.912 Y44.128 E3.87515
G1 X143.244 Y44.197 E3.8909
G1 X144.098 Y44.406 E3.93173
G1 X144.863 Y44.665 E3.96925
G1 X145.772 Y45.062 E4.01532
G1 X146.574 Y45.51 E4.05799
G1 X147.445 Y46.115 E4.10725
G1 X148.118 Y46.682 E4.14812
G1 X148.73 Y47.305 E4.18868
G1 X149.228 Y47.905 E4.2249
G1 X149.73 Y48.622 E4.26556
G1 X150.128 Y49.305 E4.30227
G1 X150.523 Y50.138 E4.34509
G1 X150.812 Y50.921 E4.38386
G1 X151.052 Y51.804 E4.42636
G1 X151.174 Y52.405 E4.45485
G1 X151.209 Y52.771 E4.47192
G1 X151.304 Y54.436 E4.54939
G1 X151.311 Y54.82 E4.56722
G1 X151.112 Y62.878 E4.94161
G1 X151.152 Y98.295 E6.58666
G1 X151.281 Y101.284 E6.72562
G1 X151.285 Y101.499 E6.73561
G1 X151.266 Y109 E7.08401
G1 X151.263 Y109.159 E7.0914
G1 X151.122 Y113.033 E7.27146
G1 X151.112 Y147.085 E8.8531
G1 X151.31 Y154.223 E9.18477
G1 X151.31 Y154.497 E9.19749
G1 X151.234 Y156.997 E9.31367
G1 X151.175 Y157.608 E9.34218
G1 X151.087 Y158.027 E9.36207
G1 X150.839 Y158.991 E9.4083
G1 X150.546 Y159.809 E9.44866
G1 X150.17 Y160.615 E9.48997
G1 X149.771 Y161.31 E9.52719
G1 X149.231 Y162.088 E9.57118
G1 X148.849 Y162.568 E9.59967
G1 X148.54 Y162.878 E9.62
G1 X147.594 Y163.743 E9.67954
G1 X146.886 Y164.277 E9.72073
G1 X146.102 Y164.76 E9.7635
G1 X145.485 Y165.08 E9.79579
G1 X144.936 Y165.315 E9.82352
G1 X144.317 Y165.531 E9.85397
G1 X143.606 Y165.724 E9.88819
G1 X143.005 Y165.845 E9.91667
G1 X142.694 Y165.877 E9.93119
G1 X140.882 Y166.001 E10.01555
G1 X140.436 Y166.01 E10.03627
G1 X132.892 Y165.812 E10.38679
G1 X74.384 Y165.852 E13.10436
G1 X69.512 Y166.01 E13.33077
G1 X69.183 Y166.009 E13.34605
G1 X68.03 Y165.966 E13.39965
G1 X67.212 Y165.863 E13.43794
G1 X65.86 Y165.571 E13.50219
G1 X65.27 Y165.403 E13.53068
G1 X64.552 Y165.076 E13.56732
G1 X63.215 Y164.327 E13.63851
G1 X62.7 Y163.993 E13.66702
G1 X62.437 Y163.781 E13.68271
G1 X61.832 Y163.258 E13.71985
G1 X61.208 Y162.605 E13.7618
G1 X60.523 Y161.733 E13.81331
G1 X60.063 Y161.025 E13.85253
G1 X59.706 Y160.35 E13.88799
G1 X59.422 Y159.697 E13.92107
G1 X59.151 Y158.919 E13.95933
G1 X58.949 Y158.121 E13.99757
G1 X58.779 Y157.069 E14.04707
G1 X58.719 Y156.351 E14.08053
G1 X58.698 Y153.384 E14.21834
G1 X58.7 Y153.207 E14.22657
G1 X58.888 Y147.063 E14.51208
G1 X58.848 Y111.641 E16.15735
G1 X58.719 Y108.652 E16.29631
G1 X58.715 Y108.438 E16.30625
G1 X58.733 Y100.957 E16.65373
G1 X58.736 Y100.796 E16.66121
G1 X58.878 Y96.911 E16.84178
G1 X58.888 Y62.851 E18.42379
G1 X58.69 Y55.713 E18.75546
G1 X58.691 Y55.427 E18.76875
G1 X58.771 Y52.99 E18.882
G1 X58.831 Y52.38 E18.91047
G1 X58.915 Y51.976 E18.92964
G1 X59.162 Y51.012 E18.97586
G1 X59.454 Y50.196 E19.01611
G1 X59.843 Y49.359 E19.05898
G1 X60.242 Y48.663 E19.09625
G1 X60.735 Y47.951 E19.13647
M205 X30
G0 F3000 X61.047 Y48.167
M205 X8
G1 F1800 X61.545 Y47.57 E19.17258
G1 X62.253 Y46.862 E19.21909
G1 X62.845 Y46.368 E19.2549
G1 X63.611 Y45.836 E19.29822
G1 X64.265 Y45.461 E19.33324
G1 X65.055 Y45.096 E19.37366
G1 X65.757 Y44.843 E19.40832
G1 X66.677 Y44.598 E19.45254
G1 X67.254 Y44.485 E19.47985
G1 X67.64 Y44.455 E19.49783
G1 X70.011 Y44.372 E19.60803
G1 X70.313 Y44.372 E19.62205
G1 X75.624 Y44.557 E19.86889
G1 X132.902 Y44.568 E22.52932
G1 X140.042 Y44.37 E22.86109
G1 X140.325 Y44.371 E22.87423
G1 X142.287 Y44.445 E22.96543
G1 X143.153 Y44.566 E23.00604
G1 X144.007 Y44.775 E23.04688
G1 X144.711 Y45.013 E23.0814
G1 X145.62 Y45.41 E23.12747
G1 X146.357 Y45.822 E23.16669
G1 X147.228 Y46.427 E23.21594
G1 X147.847 Y46.949 E23.25355
G1 X148.459 Y47.572 E23.29412
G1 X148.917 Y48.123 E23.3274
G1 X149.419 Y48.84 E23.36805
G1 X149.784 Y49.468 E23.40179
G1 X150.179 Y50.301 E23.44461
G1 X150.445 Y51.02 E23.48022
G1 X150.685 Y51.903 E23.52272
G1 X150.801 Y52.48 E23.55006
G1 X150.83 Y52.792 E23.56461
G1 X150.925 Y54.457 E23.64207
G1 X150.931 Y54.811 E23.65852
G1 X150.732 Y62.869 E24.03291
G1 X150.772 Y98.311 E25.67911
G1 X150.901 Y101.3 E25.81807
G1 X150.905 Y101.498 E25.82727
G1 X150.886 Y108.999 E26.17568
G1 X150.883 Y109.146 E26.1825
G1 X150.742 Y113.02 E26.36256
G1 X150.732 Y147.096 E27.94532
G1 X150.93 Y154.234 E28.27699
G1 X150.93 Y154.486 E28.28869
G1 X150.854 Y156.986 E28.40487
G1 X150.796 Y157.571 E28.43217
G1 X150.719 Y157.933 E28.44936
G1 X150.471 Y158.897 E28.4956
G1 X150.202 Y159.649 E28.53269
G1 X149.826 Y160.455 E28.574
G1 X149.459 Y161.093 E28.60819
G1 X148.919 Y161.871 E28.65218
G1 X148.552 Y162.33 E28.67947
G1 X148.284 Y162.598 E28.69708
G1 X147.338 Y163.463 E28.75662
G1 X146.687 Y163.954 E28.79449
G1 X145.903 Y164.437 E28.83726
G1 X145.336 Y164.731 E28.86693
G1 X144.787 Y164.966 E28.89466
G1 X144.217 Y165.164 E28.92269
G1 X143.506 Y165.357 E28.95691
G1 X142.668 Y165.498 E28.99638
G1 X140.856 Y165.622 E29.08074
G1 X140.446 Y165.631 E29.09979
G1 X132.865 Y165.432 E29.45203
G1 X74.371 Y165.472 E32.16895
G1 X69.499 Y165.63 E32.39536
G1 X69.198 Y165.629 E32.40934
G1 X68.045 Y165.586 E32.46293
G1 X67.292 Y165.491 E32.49819
G1 X65.94 Y165.199 E32.56243
G1 X65.375 Y165.036 E32.58974
G1 X64.738 Y164.745 E32.62227
G1 X63.401 Y163.996 E32.69345
G1 X62.685 Y163.494 E32.73407
G1 X62.08 Y162.971 E32.77122
G1 X61.507 Y162.37 E32.80979
G1 X60.822 Y161.498 E32.86129
G1 X60.399 Y160.847 E32.89735
G1 X60.042 Y160.172 E32.93282
G1 X59.781 Y159.572 E32.96321
G1 X59.51 Y158.794 E33.00147
G1 X59.324 Y158.061 E33.0366
G1 X59.154 Y157.009 E33.0861
G1 X59.099 Y156.349 E33.11686
G1 X59.078 Y153.382 E33.25467
G1 X59.08 Y153.219 E33.26224
G1 X59.268 Y147.075 E33.54775
G1 X59.228 Y111.625 E35.19433
G1 X59.099 Y108.636 E35.33329
G1 X59.095 Y108.439 E35.34244
G1 X59.113 Y100.958 E35.68992
G1 X59.116 Y100.81 E35.69679
G1 X59.258 Y96.925 E35.87736
G1 X59.268 Y62.84 E37.46054
G1 X59.07 Y55.702 E37.79221
G1 X59.07 Y55.44 E37.80438
G1 X59.15 Y53.003 E37.91763
G1 X59.21 Y52.418 E37.94495
G1 X59.283 Y52.07 E37.96146
G1 X59.53 Y51.106 E38.00768
G1 X59.798 Y50.356 E38.04468
G1 X60.187 Y49.519 E38.08755
G1 X60.554 Y48.879 E38.12181
G1 X61.047 Y48.167 E38.16204
M205 X30
G0 F3000 X61.36 Y48.383
M205 X8
G1 F1800 X61.814 Y47.839 E38.19495
G1 X62.522 Y47.131 E38.24146
G1 X63.062 Y46.68 E38.27414
G1 X63.828 Y46.148 E38.31745
G1 X64.424 Y45.806 E38.34937
G1 X65.214 Y45.441 E38.38979
G1 X65.855 Y45.21 E38.42144
G1 X66.775 Y44.965 E38.46566
G1 X67.326 Y44.859 E38.49172
G1 X67.653 Y44.834 E38.50695
G1 X70.024 Y44.751 E38.61715
G1 X70.3 Y44.751 E38.62997
G1 X75.64 Y44.937 E38.87815
G1 X132.913 Y44.948 E41.53835
G1 X140.053 Y44.75 E41.87012
G1 X140.311 Y44.751 E41.8821
G1 X142.273 Y44.825 E41.9733
G1 X143.063 Y44.935 E42.01035
G1 X143.917 Y45.144 E42.05118
G1 X144.559 Y45.361 E42.08266
G1 X145.468 Y45.758 E42.12873
G1 X146.14 Y46.134 E42.1645
G1 X147.011 Y46.739 E42.21376
G1 X147.576 Y47.215 E42.24807
G1 X148.188 Y47.838 E42.28863
G1 X148.606 Y48.341 E42.31901
G1 X149.108 Y49.058 E42.35967
G1 X149.441 Y49.631 E42.39045
G1 X149.836 Y50.464 E42.43327
G1 X150.079 Y51.12 E42.46576
G1 X150.319 Y52.003 E42.50826
G1 X150.451 Y52.814 E42.54643
G1 X150.546 Y54.479 E42.62389
G1 X150.551 Y54.801 E42.63885
G1 X150.352 Y62.86 E43.01328
G1 X150.392 Y98.329 E44.66074
G1 X150.521 Y101.317 E44.79966
G1 X150.525 Y101.497 E44.80802
G1 X150.506 Y108.998 E45.15643
G1 X150.503 Y109.132 E45.16265
G1 X150.362 Y113.006 E45.34271
G1 X150.352 Y147.106 E46.92658
G1 X150.55 Y154.244 E47.25825
G1 X150.55 Y154.474 E47.26893
G1 X150.474 Y156.974 E47.38511
G1 X150.417 Y157.533 E47.41121
G1 X150.351 Y157.838 E47.4257
G1 X150.103 Y158.802 E47.47193
G1 X149.858 Y159.488 E47.50577
G1 X149.482 Y160.294 E47.54708
G1 X149.147 Y160.876 E47.57827
G1 X148.607 Y161.654 E47.62226
G1 X148.255 Y162.092 E47.64836
G1 X148.027 Y162.317 E47.66323
G1 X147.081 Y163.182 E47.72277
G1 X146.488 Y163.63 E47.75729
G1 X145.704 Y164.113 E47.80007
G1 X145.186 Y164.381 E47.82715
G1 X144.637 Y164.616 E47.85489
G1 X144.118 Y164.797 E47.88042
G1 X143.407 Y164.99 E47.91464
G1 X142.642 Y165.119 E47.95068
G1 X140.83 Y165.243 E48.03504
G1 X140.456 Y165.251 E48.05241
G1 X132.875 Y165.052 E48.40465
G1 X74.359 Y165.092 E51.12259
G1 X69.487 Y165.25 E51.34901
G1 X69.212 Y165.249 E51.36178
G1 X68.059 Y165.206 E51.41537
G1 X67.372 Y165.12 E51.44753
G1 X66.02 Y164.828 E51.51177
G1 X65.481 Y164.671 E51.53785
G1 X64.923 Y164.413 E51.5664
G1 X63.586 Y163.664 E51.63759
G1 X62.934 Y163.206 E51.67459
G1 X62.329 Y162.683 E51.71174
G1 X61.806 Y162.135 E51.74692
G1 X61.121 Y161.263 E51.79843
G1 X60.735 Y160.67 E51.83129
G1 X60.378 Y159.995 E51.86676
G1 X60.14 Y159.447 E51.89451
G1 X59.869 Y158.669 E51.93278
G1 X59.7 Y158 E51.96483
G1 X59.53 Y156.948 E52.01432
G1 X59.479 Y156.346 E52.04239
G1 X59.458 Y153.379 E52.1802
G1 X59.46 Y153.23 E52.18712
G1 X59.648 Y147.086 E52.47263
G1 X59.608 Y111.607 E54.12055
G1 X59.479 Y108.619 E54.25947
G1 X59.475 Y108.439 E54.26783
G1 X59.493 Y100.958 E54.61531
G1 X59.496 Y100.824 E54.62153
G1 X59.638 Y96.94 E54.80206
G1 X59.648 Y62.83 E56.38639
G1 X59.45 Y55.692 E56.71806
G1 X59.45 Y55.452 E56.72921
G1 X59.53 Y53.015 E56.84246
G1 X59.588 Y52.457 E56.86852
G1 X59.652 Y52.165 E56.88241
G1 X59.899 Y51.201 E56.92863
G1 X60.143 Y50.516 E56.9624
G1 X60.532 Y49.679 E57.00527
G1 X60.867 Y49.095 E57.03654
G1 X61.36 Y48.383 E57.07677
M205 X30
G0 F3000 X61.672 Y48.6
M205 X8
G1 F1800 X62.083 Y48.108 E57.10655
G1 X62.791 Y47.4 E57.15305
G1 X63.279 Y46.992 E57.1826
G1 X64.045 Y46.46 E57.22592
G1 X64.584 Y46.151 E57.25477
G1 X65.374 Y45.786 E57.29519
G1 X65.952 Y45.577 E57.32374
G1 X66.872 Y45.332 E57.36796
G1 X67.397 Y45.234 E57.39277
G1 X67.666 Y45.214 E57.4053
G1 X70.037 Y45.131 E57.51549
G1 X70.286 Y45.131 E57.52706
G1 X75.626 Y45.317 E57.77524
G1 X132.887 Y45.328 E60.43489
G1 X140.063 Y45.129 E60.76832
G1 X140.297 Y45.131 E60.77919
G1 X142.259 Y45.205 E60.87039
G1 X142.973 Y45.304 E60.90387
G1 X143.827 Y45.513 E60.94471
G1 X144.407 Y45.709 E60.97314
G1 X145.316 Y46.106 E61.01921
G1 X145.924 Y46.446 E61.05157
G1 X146.795 Y47.051 E61.10083
G1 X147.305 Y47.481 E61.13181
G1 X147.917 Y48.104 E61.17238
G1 X148.294 Y48.558 E61.19979
G1 X148.796 Y49.275 E61.24044
G1 X149.098 Y49.793 E61.26829
G1 X149.493 Y50.626 E61.31111
G1 X149.712 Y51.22 E61.34052
G1 X149.952 Y52.103 E61.38302
G1 X150.071 Y52.836 E61.41751
G1 X150.166 Y54.501 E61.49497
G1 X150.171 Y54.792 E61.50849
G1 X149.972 Y62.851 E61.88293
G1 X150.012 Y98.321 E63.53043
G1 X150.142 Y101.333 E63.67046
G1 X150.145 Y101.496 E63.67803
G1 X150.126 Y108.997 E64.02644
G1 X150.124 Y109.118 E64.03206
G1 X149.982 Y113.02 E64.21342
G1 X149.972 Y147.081 E65.79548
G1 X150.171 Y154.255 E66.12882
G1 X150.17 Y154.462 E66.13844
G1 X150.094 Y156.962 E66.25461
G1 X149.983 Y157.743 E66.29125
G1 X149.735 Y158.707 E66.33748
G1 X149.513 Y159.327 E66.36807
G1 X149.137 Y160.133 E66.40938
G1 X148.835 Y160.66 E66.43759
G1 X148.295 Y161.438 E66.48158
G1 X147.771 Y162.037 E66.51855
G1 X146.825 Y162.902 E66.57809
G1 X146.289 Y163.306 E66.60926
G1 X145.505 Y163.789 E66.65203
G1 X145.037 Y164.032 E66.67653
G1 X144.488 Y164.267 E66.70426
G1 X144.018 Y164.43 E66.72737
G1 X143.307 Y164.623 E66.76159
G1 X142.616 Y164.74 E66.79414
G1 X140.804 Y164.864 E66.8785
G1 X140.466 Y164.871 E66.89421
G1 X132.885 Y164.672 E67.24645
G1 X74.346 Y164.712 E69.96545
G1 X69.475 Y164.87 E70.19182
G1 X69.226 Y164.87 E70.20339
G1 X68.073 Y164.827 E70.25698
G1 X67.452 Y164.749 E70.28605
G1 X66.1 Y164.457 E70.35029
G1 X65.588 Y164.305 E70.3751
G1 X65.109 Y164.082 E70.39964
G1 X63.772 Y163.333 E70.47082
G1 X63.182 Y162.919 E70.5043
G1 X62.577 Y162.396 E70.54145
G1 X62.105 Y161.9 E70.57325
G1 X61.42 Y161.028 E70.62475
G1 X61.071 Y160.492 E70.65446
G1 X60.714 Y159.817 E70.68993
G1 X60.499 Y159.322 E70.715
G1 X60.228 Y158.544 E70.75326
G1 X60.075 Y157.94 E70.7822
G1 X59.905 Y156.888 E70.8317
G1 X59.859 Y156.343 E70.8571
G1 X59.838 Y153.376 E70.99492
G1 X59.84 Y153.242 E71.00114
G1 X60.028 Y147.097 E71.2867
G1 X59.988 Y111.615 E72.93476
G1 X59.858 Y108.603 E73.07479
G1 X59.855 Y108.44 E73.08236
G1 X59.873 Y100.959 E73.42984
G1 X59.875 Y100.838 E73.43546
G1 X60.018 Y96.926 E73.61728
G1 X60.028 Y62.855 E75.19981
G1 X59.829 Y55.681 E75.53315
G1 X59.83 Y55.465 E75.54318
G1 X59.91 Y53.028 E75.65644
G1 X60.02 Y52.259 E75.69252
G1 X60.267 Y51.295 E75.73874
G1 X60.488 Y50.676 E75.76927
G1 X60.877 Y49.839 E75.81214
G1 X61.179 Y49.312 E75.84035
G1 X61.672 Y48.6 E75.88058
M205 X30
G0 F3000 X61.984 Y48.816
M205 X8
G1 F1800 X62.351 Y48.376 E75.90719
G1 X63.059 Y47.668 E75.9537
G1 X63.495 Y47.304 E75.98008
G1 X64.261 Y46.772 E76.0234
G1 X64.743 Y46.496 E76.0492
G1 X65.533 Y46.131 E76.08962
G1 X66.05 Y45.944 E76.11515
G1 X66.97 Y45.699 E76.15937
G1 X67.679 Y45.594 E76.19266
G1 X70.05 Y45.511 E76.30286
G1 X70.273 Y45.511 E76.31322
G1 X75.613 Y45.697 E76.5614
G1 X132.898 Y45.708 E79.22216
G1 X140.074 Y45.509 E79.5556
G1 X140.282 Y45.51 E79.56526
G1 X142.244 Y45.584 E79.65645
G1 X142.882 Y45.673 E79.68637
G1 X143.736 Y45.882 E79.72721
G1 X144.255 Y46.058 E79.75267
G1 X145.164 Y46.455 E79.79874
G1 X145.707 Y46.758 E79.82762
G1 X146.578 Y47.363 E79.87688
G1 X147.034 Y47.748 E79.9046
G1 X147.646 Y48.371 E79.94516
G1 X147.983 Y48.776 E79.96963
G1 X148.485 Y49.493 E80.01029
G1 X148.754 Y49.956 E80.03516
G1 X149.149 Y50.789 E80.07798
G1 X149.345 Y51.319 E80.10423
G1 X149.585 Y52.202 E80.14673
G1 X149.692 Y52.857 E80.17755
G1 X149.787 Y54.522 E80.25502
G1 X149.791 Y54.783 E80.26714
G1 X149.592 Y62.843 E80.64162
G1 X149.632 Y98.338 E82.29029
G1 X149.762 Y101.349 E82.43027
G1 X149.765 Y101.495 E82.43706
G1 X149.746 Y108.996 E82.78546
G1 X149.744 Y109.104 E82.79048
G1 X149.602 Y113.006 E82.97184
G1 X149.592 Y147.092 E84.55506
G1 X149.791 Y154.266 E84.8884
G1 X149.791 Y154.451 E84.89699
G1 X149.715 Y156.951 E85.01317
G1 X149.615 Y157.649 E85.04592
G1 X149.367 Y158.613 E85.09215
G1 X149.169 Y159.167 E85.11948
G1 X148.793 Y159.973 E85.16079
G1 X148.523 Y160.443 E85.18597
G1 X147.983 Y161.221 E85.22995
G1 X147.515 Y161.756 E85.26297
G1 X146.569 Y162.621 E85.32251
G1 X146.089 Y162.983 E85.35043
G1 X145.305 Y163.466 E85.3932
G1 X144.887 Y163.683 E85.41508
G1 X144.338 Y163.918 E85.44282
G1 X143.919 Y164.064 E85.46343
G1 X143.208 Y164.257 E85.49765
G1 X142.59 Y164.361 E85.52675
G1 X140.778 Y164.485 E85.61111
G1 X140.476 Y164.491 E85.62514
G1 X132.894 Y164.292 E85.97743
G1 X74.333 Y164.332 E88.69746
G1 X69.462 Y164.49 E88.92383
G1 X69.24 Y164.49 E88.93414
G1 X68.087 Y164.447 E88.98773
G1 X67.533 Y164.377 E89.01367
G1 X66.181 Y164.085 E89.07791
G1 X65.697 Y163.94 E89.10138
G1 X65.295 Y163.75 E89.12203
G1 X63.958 Y163.001 E89.19321
G1 X63.431 Y162.631 E89.22312
G1 X62.826 Y162.108 E89.26027
G1 X62.403 Y161.666 E89.28868
G1 X61.718 Y160.794 E89.34019
G1 X61.407 Y160.314 E89.36675
G1 X61.05 Y159.639 E89.40222
G1 X60.858 Y159.197 E89.4246
G1 X60.587 Y158.419 E89.46287
G1 X60.45 Y157.879 E89.48875
G1 X60.28 Y156.827 E89.53824
G1 X60.239 Y156.341 E89.5609
G1 X60.218 Y153.374 E89.69871
G1 X60.219 Y153.253 E89.70433
G1 X60.408 Y147.076 E89.99137
G1 X60.368 Y111.598 E91.63925
G1 X60.238 Y108.587 E91.77923
G1 X60.235 Y108.441 E91.78602
G1 X60.253 Y100.96 E92.13349
G1 X60.255 Y100.851 E92.13856
G1 X60.398 Y96.939 E92.32038
