;FLAVOR:RepRap
;TIME:5913
;Filament used: 4.64961m
;Layer height: 0.2
;Generated with Cura_SteamEngine 2.6.2
M190 S60
M104 S210
M109 S210
G21 ;metric values
G90 ;absolute positioning
M82 ;set extruder to absolute mode
M107 ;start with the fan off
G28 X0 Y0 ;move X/Y to min endstops
G28 Z0 ;move Z to min endstops
G0 X1 Y0 Z0.15 F9000 ; Move in 1mm from edge and up [z] 0.15mm
G92 E0 ;zero the extruded length
G1 F200 E3 ;extrude 3mm of feed stock
G92 E0 ;zero the extruded length again
G1 F9000
M117 Printing...
G5
;LAYER_COUNT:31
;LAYER:0
M107
M205 X30
G0 F3000 X68.312 Y47.17 Z0.3
M205 X8
;TYPE:SKIRT
G1 F1800 X68.668 Y46.706 E0.02716
G1 X69.073 Y46.245 E0.05567
G1 X69.453 Y45.903 E0.07941
G1 X69.821 Y45.607 E0.10135
G1 X70.323 Y45.254 E0.12985
G1 X70.667 Y45.064 E0.14811
G1 X71.109 Y44.843 E0.17106
G1 X71.674 Y44.605 E0.19954
G1 X72.476 Y44.404 E0.23794
G1 X73.446 Y44.25 E0.28356
G1 X74.189 Y44.192 E0.31817
G1 X136.457 Y44.249 E3.21038
G1 X137.069 Y44.29 E3.23887
G1 X137.671 Y44.409 E3.26738
G1 X138.122 Y44.555 E3.28939
G1 X138.787 Y44.807 E3.32243
G1 X139.345 Y45.061 E3.3509
G1 X139.866 Y45.386 E3.37942
G1 X140.259 Y45.701 E3.40282
G1 X140.972 Y46.339 E3.44726
G1 X141.401 Y46.777 E3.47573
G1 X141.844 Y47.383 E3.5106
G1 X142.029 Y47.684 E3.52701
G1 X142.315 Y48.226 E3.55548
G1 X142.534 Y48.818 E3.58479
G1 X142.767 Y49.608 E3.62305
G1 X142.901 Y50.206 E3.65152
G1 X142.959 Y50.941 E3.68576
G1 X142.946 Y159.172 E8.71285
G1 X142.906 Y159.784 E8.74134
G1 X142.787 Y160.386 E8.76984
G1 X142.668 Y160.766 E8.78833
G1 X142.383 Y161.558 E8.82743
G1 X142.138 Y162.12 E8.85591
G1 X141.822 Y162.646 E8.88441
G1 X141.45 Y163.116 E8.91225
G1 X140.822 Y163.813 E8.95583
G1 X140.383 Y164.241 E8.9843
G1 X139.651 Y164.754 E9.02582
G1 X139.243 Y164.986 E9.04762
G1 X138.691 Y165.254 E9.07612
G1 X138.24 Y165.412 E9.09832
G1 X137.643 Y165.587 E9.12722
G1 X137.044 Y165.721 E9.15573
G1 X136.318 Y165.777 E9.18955
G1 X73.654 Y165.774 E12.10015
G1 X73.042 Y165.734 E12.12864
G1 X72.44 Y165.615 E12.15714
G1 X71.832 Y165.407 E12.18699
G1 X70.838 Y164.99 E12.23705
G1 X70.289 Y164.717 E12.26553
G1 X69.78 Y164.374 E12.29404
G1 X69.316 Y163.964 E12.3228
G1 X68.833 Y163.477 E12.35466
G1 X68.43 Y163.014 E12.38317
G1 X68.091 Y162.503 E12.41165
G1 X67.922 Y162.179 E12.42863
G1 X67.559 Y161.414 E12.46796
G1 X67.332 Y160.844 E12.49645
G1 X67.182 Y160.249 E12.52496
G1 X67.119 Y159.772 E12.5473
G1 X67.031 Y158.677 E12.59833
G1 X67.016 Y158.298 E12.61594
G1 X67.054 Y50.822 E17.60797
G1 X67.094 Y50.21 E17.63645
G1 X67.214 Y49.608 E17.66497
G1 X67.335 Y49.22 E17.68384
G1 X67.62 Y48.433 E17.72272
G1 X67.866 Y47.871 E17.75122
G1 X68.312 Y47.17 E17.78981
M205 X30
G0 F3000 X68.614 Y47.401
M205 X8
G1 F1800 X68.97 Y46.937 E17.81697
G1 X69.359 Y46.496 E17.84428
G1 X69.691 Y46.199 E17.86497
G1 X70.059 Y45.903 E17.88691
G1 X70.541 Y45.566 E17.91423
G1 X70.837 Y45.404 E17.9299
G1 X71.279 Y45.183 E17.95285
G1 X71.821 Y44.956 E17.98015
G1 X72.536 Y44.78 E18.01435
G1 X73.506 Y44.626 E18.05997
G1 X74.189 Y44.572 E18.09179
G1 X136.457 Y44.629 E20.984
G1 X137.044 Y44.669 E21.01133
G1 X137.62 Y44.789 E21.03866
G1 X137.987 Y44.91 E21.05661
G1 X138.652 Y45.162 E21.08964
G1 X139.187 Y45.407 E21.11697
G1 X139.683 Y45.723 E21.14429
G1 X140.005 Y45.984 E21.16354
G1 X140.718 Y46.622 E21.20798
G1 X141.129 Y47.043 E21.23531
G1 X141.52 Y47.582 E21.26624
G1 X141.705 Y47.883 E21.28265
G1 X141.978 Y48.404 E21.30997
G1 X142.169 Y48.925 E21.33574
G1 X142.402 Y49.715 E21.374
G1 X142.53 Y50.289 E21.40131
G1 X142.579 Y50.941 E21.43168
G1 X142.566 Y159.172 E26.45877
G1 X142.526 Y159.758 E26.48605
G1 X142.407 Y160.334 E26.51337
G1 X142.31 Y160.637 E26.52815
G1 X142.025 Y161.429 E26.56724
G1 X141.789 Y161.968 E26.59457
G1 X141.482 Y162.469 E26.62187
G1 X141.168 Y162.861 E26.6452
G1 X140.54 Y163.558 E26.68877
G1 X140.117 Y163.968 E26.71613
G1 X139.463 Y164.424 E26.75317
G1 X139.055 Y164.656 E26.77497
G1 X138.525 Y164.911 E26.80228
G1 X138.133 Y165.047 E26.82156
G1 X137.536 Y165.222 E26.85045
G1 X136.962 Y165.349 E26.87776
G1 X136.318 Y165.397 E26.90775
G1 X73.654 Y165.394 E29.81836
G1 X73.067 Y165.354 E29.84569
G1 X72.491 Y165.235 E29.873
G1 X71.979 Y165.057 E29.89818
G1 X70.985 Y164.64 E29.94825
G1 X70.459 Y164.376 E29.97559
G1 X69.974 Y164.043 E30.00291
G1 X69.586 Y163.696 E30.02709
G1 X69.103 Y163.209 E30.05895
G1 X68.718 Y162.764 E30.08628
G1 X68.265 Y162.016 E30.1269
G1 X67.902 Y161.251 E30.16623
G1 X67.687 Y160.704 E30.19352
G1 X67.547 Y160.132 E30.22088
G1 X67.498 Y159.742 E30.23913
G1 X67.41 Y158.647 E30.29016
G1 X67.396 Y158.298 E30.30638
G1 X67.434 Y50.822 E35.2984
G1 X67.474 Y50.236 E35.32569
G1 X67.593 Y49.66 E35.353
G1 X67.693 Y49.35 E35.36813
G1 X67.978 Y48.563 E35.40701
G1 X68.215 Y48.024 E35.43436
G1 X68.614 Y47.401 E35.46872
M205 X30
G0 F3000 X68.915 Y47.633
M205 X8
G1 F1800 X69.271 Y47.169 E35.49589
G1 X69.644 Y46.748 E35.52201
G1 X69.929 Y46.495 E35.53971
G1 X70.297 Y46.199 E35.56165
G1 X70.759 Y45.879 E35.58775
G1 X71.007 Y45.744 E35.60087
G1 X71.449 Y45.523 E35.62382
G1 X71.968 Y45.308 E35.64991
G1 X72.596 Y45.155 E35.67994
G1 X73.566 Y45.001 E35.72556
G1 X74.189 Y44.952 E35.75458
G1 X136.457 Y45.009 E38.64679
G1 X137.017 Y45.049 E38.67287
G1 X137.566 Y45.169 E38.69897
G1 X137.853 Y45.265 E38.71303
G1 X138.518 Y45.517 E38.74606
G1 X139.028 Y45.753 E38.77216
G1 X139.499 Y46.059 E38.79825
G1 X139.752 Y46.267 E38.81346
G1 X140.465 Y46.905 E38.8579
G1 X140.856 Y47.309 E38.88402
G1 X141.196 Y47.781 E38.91104
G1 X141.381 Y48.082 E38.92745
G1 X141.641 Y48.58 E38.95354
G1 X141.805 Y49.033 E38.97592
G1 X142.038 Y49.823 E39.01417
G1 X142.158 Y50.371 E39.04023
G1 X142.199 Y50.94 E39.06673
G1 X142.186 Y159.171 E44.09382
G1 X142.146 Y159.732 E44.11994
G1 X141.953 Y160.508 E44.15708
G1 X141.668 Y161.3 E44.19618
G1 X141.44 Y161.814 E44.2223
G1 X141.142 Y162.29 E44.24838
G1 X140.886 Y162.607 E44.26731
G1 X140.258 Y163.304 E44.31088
G1 X139.853 Y163.694 E44.337
G1 X139.275 Y164.094 E44.36965
G1 X138.867 Y164.326 E44.39145
G1 X138.361 Y164.568 E44.4175
G1 X138.026 Y164.683 E44.43395
G1 X137.429 Y164.858 E44.46285
G1 X136.88 Y164.977 E44.48894
G1 X136.318 Y165.017 E44.51511
G1 X73.654 Y165.014 E47.42571
G1 X73.093 Y164.974 E47.45183
G1 X72.544 Y164.855 E47.47793
G1 X72.126 Y164.706 E47.49854
G1 X71.132 Y164.289 E47.54861
G1 X70.631 Y164.036 E47.57467
G1 X70.17 Y163.714 E47.60079
G1 X69.855 Y163.429 E47.62052
G1 X69.372 Y162.942 E47.65238
G1 X69.006 Y162.516 E47.67847
G1 X68.608 Y161.853 E47.71439
G1 X68.245 Y161.088 E47.75372
G1 X68.041 Y160.565 E47.77979
G1 X67.913 Y160.018 E47.80588
G1 X67.877 Y159.711 E47.82024
G1 X67.789 Y158.616 E47.87127
G1 X67.776 Y158.299 E47.886
G1 X67.814 Y50.823 E52.87802
G1 X67.854 Y50.262 E52.90415
G1 X68.05 Y49.479 E52.94164
G1 X68.335 Y48.692 E52.98052
G1 X68.563 Y48.179 E53.00659
G1 X68.915 Y47.633 E53.03676
M205 X30
G0 F3000 X69.217 Y47.864
M205 X8
G1 F1800 X69.573 Y47.4 E53.06393
G1 X69.928 Y47.002 E53.0887
G1 X70.167 Y46.791 E53.10351
G1 X70.535 Y46.495 E53.12544
G1 X71.176 Y46.084 E53.16081
G1 X71.618 Y45.863 E53.18377
G1 X72.113 Y45.66 E53.20862
G1 X72.655 Y45.53 E53.2345
G1 X73.625 Y45.376 E53.28012
G1 X74.188 Y45.332 E53.30635
G1 X136.456 Y45.389 E56.19856
G1 X136.989 Y45.429 E56.22339
G1 X137.718 Y45.621 E56.25841
G1 X138.383 Y45.873 E56.29144
G1 X138.867 Y46.099 E56.31625
G1 X139.499 Y46.551 E56.35234
G1 X140.212 Y47.189 E56.39678
G1 X140.582 Y47.573 E56.42155
G1 X140.872 Y47.98 E56.44476
G1 X141.057 Y48.281 E56.46117
G1 X141.302 Y48.755 E56.48595
G1 X141.44 Y49.14 E56.50495
G1 X141.673 Y49.93 E56.5432
G1 X141.786 Y50.452 E56.56801
G1 X141.819 Y50.94 E56.59073
G1 X141.806 Y159.171 E61.61782
G1 X141.766 Y159.704 E61.64265
G1 X141.595 Y160.38 E61.67503
G1 X141.31 Y161.172 E61.71413
G1 X141.092 Y161.659 E61.73891
G1 X140.804 Y162.109 E61.76373
G1 X140.603 Y162.353 E61.77841
G1 X139.975 Y163.05 E61.82199
G1 X139.589 Y163.419 E61.84679
G1 X139.088 Y163.763 E61.87502
G1 X138.68 Y163.995 E61.89682
G1 X138.197 Y164.224 E61.92165
G1 X137.919 Y164.318 E61.93528
G1 X137.322 Y164.493 E61.96417
G1 X136.8 Y164.604 E61.98896
G1 X136.318 Y164.637 E62.0114
G1 X73.654 Y164.634 E64.92201
G1 X73.121 Y164.594 E64.94683
G1 X72.601 Y164.475 E64.97161
G1 X72.273 Y164.356 E64.98782
G1 X71.279 Y163.939 E65.03788
G1 X70.803 Y163.696 E65.06271
G1 X70.369 Y163.385 E65.08751
G1 X70.125 Y163.161 E65.10289
G1 X69.642 Y162.674 E65.13475
G1 X69.296 Y162.268 E65.15953
G1 X68.952 Y161.69 E65.19077
G1 X68.589 Y160.925 E65.2301
G1 X68.396 Y160.427 E65.25491
G1 X68.255 Y159.681 E65.29017
G1 X68.167 Y158.586 E65.34119
G1 X68.156 Y158.299 E65.35453
G1 X68.194 Y50.823 E70.34656
G1 X68.234 Y50.29 E70.37138
G1 X68.407 Y49.608 E70.40406
G1 X68.692 Y48.821 E70.44294
G1 X68.911 Y48.334 E70.46774
G1 X69.217 Y47.864 E70.49379
M205 X30
G0 F3000 X69.518 Y48.095
M205 X8
G1 F1800 X69.874 Y47.631 E70.52096
G1 X70.212 Y47.256 E70.5444
G1 X70.406 Y47.087 E70.55635
G1 X70.774 Y46.791 E70.57829
G1 X71.346 Y46.424 E70.60986
G1 X71.788 Y46.203 E70.63281
G1 X72.256 Y46.013 E70.65627
G1 X72.715 Y45.905 E70.67817
G1 X73.685 Y45.751 E70.72379
G1 X74.188 Y45.712 E70.74722
G1 X136.456 Y45.769 E73.63944
G1 X136.959 Y45.809 E73.66287
G1 X137.583 Y45.976 E73.69288
G1 X138.248 Y46.228 E73.72591
G1 X138.705 Y46.444 E73.74939
G1 X139.245 Y46.834 E73.78033
G1 X139.958 Y47.472 E73.82477
G1 X140.307 Y47.837 E73.84822
G1 X140.549 Y48.179 E73.86768
G1 X140.734 Y48.48 E73.88409
G1 X140.963 Y48.929 E73.9075
G1 X141.076 Y49.248 E73.92322
G1 X141.309 Y50.038 E73.96148
G1 X141.413 Y50.532 E73.98493
G1 X141.439 Y50.94 E74.00391
G1 X141.426 Y159.171 E79.031
G1 X141.386 Y159.675 E79.05449
G1 X141.238 Y160.251 E79.08211
G1 X140.953 Y161.043 E79.12121
G1 X140.745 Y161.503 E79.14466
G1 X140.321 Y162.098 E79.17859
G1 X139.693 Y162.795 E79.22217
G1 X139.326 Y163.142 E79.24563
G1 X138.9 Y163.433 E79.26959
G1 X138.492 Y163.665 E79.29139
G1 X137.812 Y163.953 E79.32569
G1 X137.215 Y164.128 E79.35459
G1 X136.721 Y164.231 E79.37803
G1 X136.318 Y164.257 E79.39678
G1 X73.654 Y164.254 E82.30739
G1 X73.151 Y164.214 E82.33082
G1 X72.66 Y164.095 E82.35429
G1 X72.42 Y164.006 E82.36618
G1 X71.426 Y163.589 E82.41625
G1 X70.977 Y163.357 E82.43972
G1 X70.395 Y162.893 E82.47429
G1 X69.912 Y162.406 E82.50615
G1 X69.586 Y162.021 E82.52958
G1 X69.295 Y161.528 E82.55617
G1 X68.932 Y160.763 E82.5955
G1 X68.752 Y160.291 E82.61897
G1 X68.634 Y159.651 E82.64919
G1 X68.546 Y158.556 E82.70022
G1 X68.536 Y158.299 E82.71216
G1 X68.574 Y50.823 E87.70419
G1 X68.614 Y50.32 E87.72762
G1 X68.765 Y49.738 E87.75555
G1 X69.05 Y48.951 E87.79443
G1 X69.259 Y48.491 E87.8179
G1 X69.518 Y48.095 E87.83987
M205 X30
G1 F3600 E82.83987
G0 F3000 X71.571 Y49.534
G0 X72.64 Y50.189
G0 X72.704 Y50.236
G0 X72.624 Y50.178
M205 X8
;TYPE:WALL-INNER
G1 F3600 E87.83987
G1 F1800 X72.802 Y49.97 E87.85259
G1 X73.005 Y49.795 E87.86504
G1 X73.233 Y49.657 E87.87742
G1 X73.482 Y49.554 E87.88993
G1 X73.747 Y49.49 E87.9026
G1 X74.03 Y49.468 E87.91578
G1 X135.97 Y49.468 E90.79276
G1 X136.253 Y49.49 E90.80594
G1 X136.518 Y49.554 E90.8186
G1 X136.767 Y49.657 E90.83112
G1 X136.995 Y49.795 E90.8435
G1 X137.198 Y49.97 E90.85595
G1 X137.376 Y50.178 E90.86866
G1 X137.515 Y50.405 E90.88103
G1 X137.617 Y50.651 E90.8934
G1 X137.682 Y50.921 E90.90629
G1 X137.704 Y51.202 E90.91939
G1 X137.704 Y158.799 E95.91703
G1 X137.682 Y159.079 E95.93007
G1 X137.617 Y159.349 E95.94297
G1 X137.515 Y159.595 E95.95534
G1 X137.376 Y159.822 E95.96771
G1 X137.198 Y160.03 E95.98042
G1 X136.995 Y160.205 E95.99287
G1 X136.767 Y160.343 E96.00525
G1 X136.518 Y160.446 E96.01776
G1 X136.253 Y160.51 E96.03043
G1 X135.97 Y160.532 E96.04361
G1 X74.03 Y160.532 E98.92059
G1 X73.747 Y160.51 E98.93377
G1 X73.482 Y160.446 E98.94643
G1 X73.233 Y160.343 E98.95895
G1 X73.005 Y160.205 E98.97133
G1 X72.802 Y160.03 E98.98378
G1 X72.624 Y159.822 E98.99649
G1 X72.485 Y159.595 E99.00886
G1 X72.383 Y159.349 E99.02123
G1 X72.318 Y159.079 E99.03413
G1 X72.296 Y158.799 E99.04717
G1 X72.296 Y51.202 E104.04481
G1 X72.318 Y50.921 E104.0579
G1 X72.383 Y50.651 E104.0708
G1 X72.485 Y50.405 E104.08317
G1 X72.624 Y50.178 E104.09554
M205 X30
G0 F3000 X72.704 Y50.236
G0 X80.528 Y66.829
G0 X80.579 Y66.914
M205 X8
G1 F1800 X80.39 Y67.051 E104.10638
G1 X80.228 Y67.219 E104.11722
G1 X80.1 Y67.408 E104.12782
G1 X80.003 Y67.62 E104.13865
G1 X79.947 Y67.842 E104.14928
G1 X79.93 Y68.035 E104.15828
G1 X79.93 Y140.562 E107.527
G1 X79.948 Y140.768 E107.53661
G1 X80.009 Y140.991 E107.54734
G1 X80.106 Y141.202 E107.55813
G1 X80.24 Y141.395 E107.56904
G1 X80.405 Y141.557 E107.57978
G1 X80.593 Y141.691 E107.59051
G1 X80.806 Y141.79 E107.60142
G1 X81.031 Y141.85 E107.61223
G1 X81.236 Y141.868 E107.62179
G1 X128.779 Y141.867 E109.83006
G1 X128.985 Y141.845 E109.83968
G1 X129.208 Y141.785 E109.85041
G1 X129.422 Y141.681 E109.86146
G1 X129.61 Y141.544 E109.87226
G1 X129.772 Y141.378 E109.88304
G1 X129.901 Y141.186 E109.89378
G1 X129.997 Y140.975 E109.90455
G1 X130.053 Y140.754 E109.91514
G1 X130.07 Y140.562 E109.92409
G1 X130.07 Y68.034 E113.29286
G1 X130.052 Y67.827 E113.30251
G1 X129.991 Y67.603 E113.31329
G1 X129.893 Y67.393 E113.32405
G1 X129.76 Y67.203 E113.33483
G1 X129.595 Y67.038 E113.34566
G1 X129.405 Y66.905 E113.35644
G1 X129.197 Y66.807 E113.36712
G1 X128.969 Y66.745 E113.37809
G1 X128.762 Y66.728 E113.38774
G1 X81.224 Y66.729 E115.59577
G1 X81.014 Y66.75 E115.60558
G1 X80.79 Y66.813 E115.61638
G1 X80.579 Y66.914 E115.62725
M205 X30
G0 F3000 X80.528 Y66.829
G0 X80.066 Y67.389
G0 X79.908 Y67.836
G0 X79.909 Y140.775
G0 X80.072 Y141.221
G0 X80.38 Y141.587
G0 X80.793 Y141.827
G0 X81.235 Y141.907
G0 X128.807 Y141.964
G0 X128.758 Y141.487
M205 X8
;TYPE:WALL-OUTER
G1 F1800 X128.915 Y141.47 E115.63458
G1 X129.075 Y141.427 E115.64228
G1 X129.226 Y141.354 E115.65007
G1 X129.36 Y141.256 E115.65778
G1 X129.476 Y141.137 E115.6655
G1 X129.568 Y141 E115.67316
G1 X129.637 Y140.849 E115.68087
G1 X129.677 Y140.69 E115.68849
G1 X129.69 Y140.545 E115.69525
G1 X129.69 Y68.051 E119.06244
G1 X129.676 Y67.894 E119.06976
G1 X129.633 Y67.734 E119.07745
G1 X129.563 Y67.584 E119.08514
G1 X129.468 Y67.448 E119.09285
G1 X129.35 Y67.33 E119.1006
G1 X129.214 Y67.235 E119.1083
G1 X129.065 Y67.165 E119.11595
G1 X128.903 Y67.121 E119.12375
G1 X128.746 Y67.108 E119.13107
G1 X81.243 Y67.109 E121.33747
G1 X81.085 Y67.125 E121.34485
G1 X80.924 Y67.17 E121.35261
G1 X80.774 Y67.242 E121.36034
G1 X80.64 Y67.339 E121.36803
G1 X80.524 Y67.459 E121.37578
G1 X80.432 Y67.595 E121.38341
G1 X80.363 Y67.746 E121.39112
G1 X80.323 Y67.905 E121.39873
G1 X80.31 Y68.052 E121.40559
G1 X80.31 Y140.545 E124.77273
G1 X80.324 Y140.701 E124.78
G1 X80.367 Y140.861 E124.7877
G1 X80.437 Y141.012 E124.79543
G1 X80.532 Y141.149 E124.80317
G1 X80.65 Y141.265 E124.81086
G1 X80.785 Y141.361 E124.81855
G1 X80.936 Y141.431 E124.82628
G1 X81.097 Y141.474 E124.83402
G1 X81.253 Y141.488 E124.8413
G1 X128.758 Y141.487 E127.0478
M205 X30
G0 F3000 X128.807 Y141.964
G0 X135.967 Y160.433
G0 X135.986 Y160.912
M205 X8
G1 F1800 X74.014 Y160.912 E129.92626
G1 X73.689 Y160.887 E129.9414
G1 X73.364 Y160.808 E129.95693
G1 X73.059 Y160.682 E129.97226
G1 X72.781 Y160.513 E129.98737
G1 X72.531 Y160.299 E130.00266
G1 X72.316 Y160.046 E130.01808
G1 X72.147 Y159.771 E130.03307
G1 X72.019 Y159.462 E130.04861
G1 X71.942 Y159.141 E130.06394
G1 X71.916 Y158.816 E130.07908
G1 X71.916 Y51.184 E135.07835
G1 X71.942 Y50.859 E135.09349
G1 X72.019 Y50.538 E135.10883
G1 X72.147 Y50.229 E135.12436
G1 X72.316 Y49.954 E135.13935
G1 X72.531 Y49.701 E135.15478
G1 X72.781 Y49.487 E135.17006
G1 X73.059 Y49.318 E135.18517
G1 X73.364 Y49.192 E135.2005
G1 X73.689 Y49.113 E135.21604
G1 X74.014 Y49.088 E135.23118
G1 X135.986 Y49.088 E138.10964
G1 X136.311 Y49.113 E138.12478
G1 X136.636 Y49.192 E138.14031
G1 X136.941 Y49.318 E138.15564
G1 X137.219 Y49.487 E138.17075
G1 X137.469 Y49.701 E138.18604
G1 X137.684 Y49.954 E138.20146
G1 X137.853 Y50.229 E138.21645
G1 X137.981 Y50.538 E138.23199
G1 X138.058 Y50.859 E138.24732
G1 X138.084 Y51.184 E138.26246
G1 X138.084 Y158.816 E143.26173
G1 X138.058 Y159.141 E143.27687
G1 X137.981 Y159.462 E143.29221
G1 X137.853 Y159.771 E143.30774
