;FLAVOR:RepRap
;TIME:15950
;Filament used: 11.5126m
;Layer height: 0.2
;Generated with Cura_SteamEngine 2.6.2
M190 S60
M104 S210
M109 S210
G21 ;metric values
G90 ;absolute positioning
M82 ;set extruder to absolute mode
M107 ;start with the fan off
G28 X0 Y0 ;move X/Y to min endstops
G28 Z0 ;move Z to min endstops
G0 X1 Y0 Z0.15 F9000 ; Move in 1mm from edge and up [z] 0.15mm
G92 E0 ;zero the extruded length
G1 F200 E3 ;extrude 3mm of feed stock
G92 E0 ;zero the extruded length again
G1 F9000
M117 Printing...
G5
;LAYER_COUNT:94
;LAYER:0
M107
M205 X30
G0 F3000 X60.708 Y47.959 Z0.3
M205 X8
;TYPE:SKIRT
G1 F1800 X61.088 Y47.477 E0.02851
G1 X61.375 Y47.185 E0.04753
G1 X62.388 Y46.24 E0.11187
G1 X62.863 Y45.852 E0.14036
G1 X63.408 Y45.516 E0.1701
G1 X64.771 Y44.799 E0.24163
G1 X65.332 Y44.549 E0.27016
G1 X66.097 Y44.338 E0.30702
G1 X67.554 Y44.065 E0.37587
G1 X68.388 Y43.984 E0.41479
G1 X70.79 Y43.967 E0.52636
G1 X70.966 Y43.969 E0.53454
G1 X77.122 Y44.156 E0.8206
G1 X135.713 Y44.116 E3.54202
G1 X140.48 Y43.959 E3.76356
G1 X140.9 Y43.963 E3.78307
G1 X142.5 Y44.053 E3.8575
G1 X143.109 Y44.128 E3.886
G1 X143.44 Y44.203 E3.90177
G1 X144.283 Y44.426 E3.94227
G1 X145.038 Y44.696 E3.97951
G1 X145.877 Y45.08 E4.02237
G1 X146.651 Y45.527 E4.06388
G1 X147.535 Y46.157 E4.1143
G1 X148.01 Y46.545 E4.14279
G1 X148.249 Y46.784 E4.15849
G1 X148.92 Y47.505 E4.20424
G1 X149.308 Y47.981 E4.23276
G1 X149.483 Y48.245 E4.24747
G1 X150.082 Y49.218 E4.30055
G1 X150.369 Y49.76 E4.32903
G1 X150.551 Y50.235 E4.35266
G1 X150.998 Y51.614 E4.41999
G1 X151.149 Y52.208 E4.44846
G1 X151.222 Y52.826 E4.47736
G1 X151.306 Y54.474 E4.55401
G1 X151.311 Y54.83 E4.57055
G1 X151.112 Y62.91 E4.94596
G1 X151.152 Y98.258 E6.58779
G1 X151.287 Y101.389 E6.73336
G1 X151.291 Y101.608 E6.74353
G1 X151.266 Y109.037 E7.08859
G1 X151.263 Y109.192 E7.09579
G1 X151.122 Y113.066 E7.27585
G1 X151.112 Y147.117 E8.85745
G1 X151.31 Y154.255 E9.18912
G1 X151.307 Y154.595 E9.20491
G1 X151.187 Y157.295 E9.33044
G1 X151.12 Y157.905 E9.35895
G1 X150.953 Y158.569 E9.39075
G1 X150.554 Y159.772 E9.44962
G1 X150.323 Y160.34 E9.4781
G1 X150.135 Y160.69 E9.49655
G1 X149.636 Y161.532 E9.54201
G1 X149.289 Y162.039 E9.57055
G1 X149.085 Y162.282 E9.58529
G1 X148.275 Y163.182 E9.64153
G1 X147.836 Y163.61 E9.67
G1 X147.524 Y163.855 E9.68843
G1 X146.73 Y164.426 E9.73386
G1 X146.21 Y164.751 E9.76234
G1 X145.911 Y164.898 E9.77781
G1 X144.912 Y165.347 E9.82869
G1 X144.178 Y165.606 E9.86484
G1 X143.489 Y165.787 E9.89793
G1 X142.743 Y165.92 E9.93312
G1 X141.818 Y166.009 E9.97629
G1 X141.248 Y166.029 E10.00278
G1 X134.322 Y165.854 E10.32458
G1 X77.178 Y165.844 E12.97879
G1 X70.052 Y166.042 E13.3099
G1 X69.729 Y166.04 E13.32491
G1 X67.575 Y165.952 E13.42504
G1 X66.965 Y165.887 E13.45353
G1 X66.47 Y165.774 E13.47712
G1 X65.468 Y165.487 E13.52553
G1 X64.761 Y165.222 E13.5606
G1 X64.093 Y164.908 E13.59488
G1 X63.556 Y164.611 E13.62338
G1 X63.299 Y164.434 E13.63788
G1 X62.262 Y163.668 E13.69776
G1 X61.793 Y163.272 E13.72627
G1 X61.427 Y162.876 E13.75132
G1 X60.663 Y161.95 E13.80708
G1 X60.171 Y161.227 E13.8477
G1 X59.763 Y160.487 E13.88695
G1 X59.408 Y159.668 E13.92841
G1 X59.024 Y158.486 E13.98613
G1 X58.873 Y157.892 E14.0146
G1 X58.82 Y157.522 E14.03196
G1 X58.725 Y156.616 E14.07427
G1 X58.7 Y156.013 E14.10231
G1 X58.877 Y148.561 E14.44853
G1 X58.888 Y114.446 E16.0331
G1 X58.69 Y107.308 E16.36477
G1 X58.688 Y107.168 E16.37127
G1 X58.698 Y101.809 E16.62019
G1 X58.7 Y101.674 E16.62646
G1 X58.888 Y95.524 E16.91225
G1 X58.848 Y60.073 E18.55887
G1 X58.69 Y54.759 E18.8058
G1 X58.695 Y54.368 E18.82396
G1 X58.777 Y52.83 E18.8955
G1 X58.849 Y52.221 E18.92399
G1 X58.925 Y51.883 E18.94008
G1 X59.177 Y50.925 E18.98609
G1 X59.46 Y50.14 E19.02485
G1 X59.817 Y49.371 E19.06423
G1 X60.209 Y48.684 E19.10096
G1 X60.708 Y47.959 E19.14184
M205 X30
G0 F3000 X61.021 Y48.174
M205 X8
G1 F1800 X61.387 Y47.713 E19.16918
G1 X61.634 Y47.463 E19.18551
G1 X62.647 Y46.518 E19.24985
G1 X63.104 Y46.147 E19.27719
G1 X63.585 Y45.852 E19.3034
G1 X64.948 Y45.135 E19.37494
G1 X65.486 Y44.897 E19.40226
G1 X66.167 Y44.711 E19.43505
G1 X67.624 Y44.438 E19.5039
G1 X68.39 Y44.364 E19.53965
G1 X70.792 Y44.347 E19.65122
G1 X70.954 Y44.349 E19.65874
G1 X77.111 Y44.536 E19.94485
G1 X135.694 Y44.496 E22.66591
G1 X140.492 Y44.338 E22.88888
G1 X140.878 Y44.343 E22.90681
G1 X142.478 Y44.433 E22.98125
G1 X143.342 Y44.57 E23.02188
G1 X144.185 Y44.793 E23.06238
G1 X144.88 Y45.042 E23.09667
G1 X145.719 Y45.426 E23.13953
G1 X146.43 Y45.837 E23.17767
G1 X147.314 Y46.467 E23.22809
G1 X147.971 Y47.043 E23.26868
G1 X148.642 Y47.764 E23.31443
G1 X149.159 Y48.444 E23.3541
G1 X149.758 Y49.417 E23.40717
G1 X150.032 Y49.938 E23.43451
G1 X150.19 Y50.352 E23.4551
G1 X150.637 Y51.731 E23.52243
G1 X150.78 Y52.301 E23.54973
G1 X150.842 Y52.846 E23.5752
G1 X150.926 Y54.494 E23.65185
G1 X150.931 Y54.821 E23.66704
G1 X150.732 Y62.901 E24.04245
G1 X150.772 Y98.274 E25.68545
G1 X150.907 Y101.405 E25.83101
G1 X150.911 Y101.607 E25.8404
G1 X150.886 Y109.036 E26.18546
G1 X150.883 Y109.179 E26.1921
G1 X150.742 Y113.053 E26.37216
G1 X150.732 Y147.128 E27.95487
G1 X150.93 Y154.266 E28.28654
G1 X150.928 Y154.578 E28.30103
G1 X150.808 Y157.278 E28.42656
G1 X150.742 Y157.863 E28.45391
G1 X150.592 Y158.449 E28.482
G1 X150.193 Y159.652 E28.54087
G1 X149.97 Y160.197 E28.56823
G1 X149.808 Y160.497 E28.58406
G1 X149.309 Y161.339 E28.62952
G1 X148.802 Y162.028 E28.66926
G1 X147.992 Y162.928 E28.7255
G1 X147.57 Y163.337 E28.75279
G1 X147.302 Y163.546 E28.76858
G1 X146.508 Y164.117 E28.814
G1 X145.755 Y164.551 E28.85437
G1 X144.756 Y165 E28.90524
G1 X144.081 Y165.239 E28.9385
G1 X143.392 Y165.42 E28.97159
G1 X142.707 Y165.542 E29.00391
G1 X141.782 Y165.631 E29.04707
G1 X141.258 Y165.65 E29.07143
G1 X134.292 Y165.474 E29.39509
G1 X77.167 Y165.464 E32.04842
G1 X70.041 Y165.662 E32.37953
G1 X69.744 Y165.66 E32.39333
G1 X67.59 Y165.572 E32.49346
G1 X67.006 Y165.509 E32.52074
G1 X66.575 Y165.409 E32.54129
G1 X65.573 Y165.122 E32.5897
G1 X64.923 Y164.878 E32.62195
G1 X64.255 Y164.564 E32.65624
G1 X63.524 Y164.128 E32.69577
G1 X62.487 Y163.362 E32.75565
G1 X62.039 Y162.981 E32.78297
G1 X61.72 Y162.635 E32.80483
G1 X60.956 Y161.709 E32.86059
G1 X60.504 Y161.044 E32.89793
G1 X60.096 Y160.304 E32.93718
G1 X59.77 Y159.551 E32.9753
G1 X59.386 Y158.369 E33.03302
G1 X59.243 Y157.798 E33.06036
G1 X59.198 Y157.483 E33.07514
G1 X59.103 Y156.577 E33.11745
G1 X59.08 Y156.022 E33.14325
G1 X59.257 Y148.57 E33.48948
G1 X59.268 Y114.435 E35.07498
G1 X59.07 Y107.297 E35.40665
G1 X59.068 Y107.169 E35.41259
G1 X59.078 Y101.81 E35.66151
G1 X59.08 Y101.686 E35.66727
G1 X59.268 Y95.536 E35.95306
G1 X59.228 Y60.062 E37.60074
G1 X59.07 Y54.748 E37.84768
G1 X59.074 Y54.388 E37.8644
G1 X59.156 Y52.85 E37.93594
G1 X59.227 Y52.267 E37.96322
G1 X59.292 Y51.979 E37.97693
G1 X59.544 Y51.021 E38.02294
G1 X59.805 Y50.3 E38.05856
G1 X60.162 Y49.531 E38.09794
G1 X60.522 Y48.899 E38.13172
G1 X61.021 Y48.174 E38.1726
M205 X30
G0 F3000 X61.334 Y48.389
M205 X8
G1 F1800 X61.685 Y47.951 E38.19867
G1 X61.894 Y47.741 E38.21243
G1 X62.907 Y46.796 E38.27678
G1 X63.344 Y46.443 E38.30287
G1 X63.762 Y46.188 E38.32561
G1 X65.125 Y45.471 E38.39715
G1 X65.64 Y45.246 E38.42325
G1 X66.237 Y45.085 E38.45197
G1 X67.694 Y44.812 E38.52082
G1 X68.393 Y44.744 E38.55344
G1 X70.795 Y44.727 E38.66501
G1 X70.943 Y44.729 E38.67189
G1 X77.1 Y44.916 E38.958
G1 X135.707 Y44.876 E41.68016
G1 X140.505 Y44.718 E41.90314
G1 X140.857 Y44.722 E41.91949
G1 X142.457 Y44.812 E41.99393
G1 X143.245 Y44.937 E42.03099
G1 X144.088 Y45.16 E42.07149
G1 X144.722 Y45.387 E42.10277
G1 X145.561 Y45.771 E42.14562
G1 X146.209 Y46.146 E42.1804
G1 X147.093 Y46.776 E42.23082
G1 X147.693 Y47.302 E42.26788
G1 X148.364 Y48.023 E42.31363
G1 X148.836 Y48.643 E42.34982
G1 X149.435 Y49.616 E42.40289
G1 X149.694 Y50.114 E42.42896
G1 X149.829 Y50.469 E42.44661
G1 X150.276 Y51.848 E42.51394
G1 X150.41 Y52.393 E42.54001
G1 X150.463 Y52.865 E42.56207
G1 X150.547 Y54.513 E42.63871
G1 X150.551 Y54.811 E42.65255
G1 X150.352 Y62.892 E43.02801
G1 X150.392 Y98.292 E44.67227
G1 X150.527 Y101.422 E44.81778
G1 X150.531 Y101.605 E44.82628
G1 X150.506 Y109.034 E45.17135
G1 X150.503 Y109.165 E45.17743
G1 X150.362 Y113.039 E45.35749
G1 X150.352 Y147.138 E46.94131
G1 X150.55 Y154.276 E47.27299
G1 X150.548 Y154.561 E47.28622
G1 X150.428 Y157.261 E47.41176
G1 X150.363 Y157.819 E47.43785
G1 X150.231 Y158.329 E47.46232
G1 X149.832 Y159.532 E47.52119
G1 X149.618 Y160.052 E47.54731
G1 X149.481 Y160.303 E47.56059
G1 X148.982 Y161.145 E47.60605
G1 X148.52 Y161.773 E47.64226
G1 X147.71 Y162.673 E47.6985
G1 X147.305 Y163.063 E47.72462
G1 X147.08 Y163.238 E47.73786
G1 X146.286 Y163.809 E47.78328
G1 X145.599 Y164.205 E47.82011
G1 X144.6 Y164.654 E47.87099
G1 X143.985 Y164.871 E47.90128
G1 X143.296 Y165.052 E47.93437
G1 X142.67 Y165.164 E47.9639
G1 X141.745 Y165.253 E48.00707
G1 X141.267 Y165.27 E48.02928
G1 X134.301 Y165.094 E48.35294
G1 X77.157 Y165.084 E51.00715
G1 X70.031 Y165.282 E51.33827
G1 X69.76 Y165.281 E51.35085
G1 X67.606 Y165.193 E51.45099
G1 X67.047 Y165.13 E51.47712
G1 X66.679 Y165.043 E51.49468
G1 X65.677 Y164.756 E51.54309
G1 X65.085 Y164.534 E51.57246
G1 X64.417 Y164.22 E51.60674
G1 X63.75 Y163.822 E51.64282
G1 X62.713 Y163.056 E51.7027
G1 X62.286 Y162.691 E51.72879
G1 X62.013 Y162.393 E51.74756
G1 X61.249 Y161.467 E51.80332
G1 X60.837 Y160.86 E51.8374
G1 X60.429 Y160.12 E51.87665
G1 X60.131 Y159.433 E51.91143
G1 X59.747 Y158.251 E51.96916
G1 X59.576 Y157.443 E52.00752
G1 X59.481 Y156.537 E52.04983
G1 X59.46 Y156.031 E52.07335
G1 X59.637 Y148.579 E52.41958
G1 X59.648 Y114.425 E54.00596
G1 X59.45 Y107.287 E54.33763
G1 X59.448 Y107.17 E54.34306
G1 X59.458 Y101.811 E54.59198
G1 X59.46 Y101.697 E54.59727
G1 X59.648 Y95.547 E54.88306
G1 X59.608 Y60.05 E56.53182
G1 X59.45 Y54.736 E56.77875
G1 X59.454 Y54.409 E56.79394
G1 X59.536 Y52.871 E56.86548
G1 X59.66 Y52.076 E56.90285
G1 X59.912 Y51.118 E56.94886
G1 X60.149 Y50.46 E56.98135
G1 X60.506 Y49.691 E57.02073
G1 X60.835 Y49.114 E57.05158
G1 X61.334 Y48.389 E57.09246
M205 X30
G0 F3000 X61.647 Y48.605
M205 X8
G1 F1800 X62.153 Y48.019 E57.12842
G1 X63.166 Y47.074 E57.19277
G1 X63.582 Y46.739 E57.21757
G1 X63.939 Y46.524 E57.23693
G1 X65.302 Y45.807 E57.30846
G1 X65.792 Y45.595 E57.33326
G1 X66.307 Y45.458 E57.35802
G1 X67.764 Y45.185 E57.42687
G1 X68.396 Y45.124 E57.45636
G1 X70.798 Y45.107 E57.56793
G1 X70.931 Y45.109 E57.57411
G1 X77.088 Y45.296 E57.86022
G1 X135.72 Y45.256 E60.58355
G1 X140.517 Y45.098 E60.80648
G1 X140.835 Y45.102 E60.82125
G1 X142.435 Y45.192 E60.89568
G1 X143.148 Y45.305 E60.92921
G1 X143.991 Y45.528 E60.96971
G1 X144.564 Y45.733 E60.99798
G1 X145.403 Y46.117 E61.04084
G1 X145.989 Y46.456 E61.07228
G1 X146.873 Y47.086 E61.1227
G1 X147.414 Y47.561 E61.15614
G1 X148.085 Y48.282 E61.20189
G1 X148.512 Y48.842 E61.2346
G1 X149.111 Y49.815 E61.28767
G1 X149.356 Y50.29 E61.3125
G1 X149.467 Y50.586 E61.32718
G1 X149.914 Y51.965 E61.39451
G1 X150.04 Y52.484 E61.41932
G1 X150.083 Y52.884 E61.438
G1 X150.167 Y54.532 E61.51465
G1 X150.171 Y54.802 E61.52719
G1 X149.972 Y62.883 E61.90265
G1 X150.012 Y98.284 E63.54695
G1 X150.148 Y101.438 E63.69358
G1 X150.151 Y101.604 E63.70129
G1 X150.126 Y109.033 E64.04636
G1 X150.124 Y109.151 E64.05184
G1 X149.982 Y113.053 E64.2332
G1 X149.972 Y147.113 E65.81521
G1 X150.171 Y154.287 E66.14855
G1 X150.168 Y154.545 E66.16054
G1 X150.048 Y157.245 E66.28607
G1 X149.985 Y157.775 E66.31086
G1 X149.87 Y158.21 E66.33176
G1 X149.471 Y159.413 E66.39063
G1 X149.154 Y160.109 E66.42615
G1 X148.655 Y160.951 E66.47161
G1 X148.238 Y161.519 E66.50434
G1 X147.428 Y162.419 E66.56058
G1 X146.858 Y162.929 E66.59611
G1 X146.064 Y163.5 E66.64153
G1 X145.444 Y163.858 E66.67479
G1 X144.445 Y164.307 E66.72566
G1 X143.888 Y164.504 E66.7531
G1 X143.199 Y164.685 E66.78619
G1 X142.634 Y164.786 E66.81285
G1 X141.709 Y164.875 E66.85601
G1 X141.277 Y164.89 E66.87609
G1 X134.311 Y164.714 E67.19975
G1 X77.182 Y164.704 E69.85326
G1 X70.02 Y164.903 E70.18605
G1 X69.775 Y164.901 E70.19743
G1 X67.621 Y164.813 E70.29756
G1 X67.091 Y164.751 E70.32235
G1 X66.784 Y164.678 E70.337
G1 X65.782 Y164.391 E70.38542
G1 X65.246 Y164.19 E70.41201
G1 X64.578 Y163.876 E70.44629
G1 X63.976 Y163.517 E70.47885
G1 X62.939 Y162.751 E70.53873
G1 X62.534 Y162.402 E70.56356
G1 X62.306 Y162.151 E70.57931
G1 X61.542 Y161.225 E70.63507
G1 X61.17 Y160.677 E70.66583
G1 X60.762 Y159.937 E70.70508
G1 X60.493 Y159.316 E70.73652
G1 X60.109 Y158.134 E70.79424
G1 X59.953 Y157.403 E70.82896
G1 X59.858 Y156.497 E70.87127
G1 X59.84 Y156.04 E70.89252
G1 X60.017 Y148.589 E71.2387
G1 X60.028 Y114.45 E72.82438
G1 X59.829 Y107.276 E73.15772
G1 X59.828 Y107.17 E73.16265
G1 X59.838 Y101.811 E73.41156
G1 X59.84 Y101.709 E73.4163
G1 X60.028 Y95.558 E73.70213
G1 X59.988 Y60.038 E75.35196
G1 X59.83 Y54.725 E75.59884
G1 X59.833 Y54.429 E75.61259
G1 X59.915 Y52.891 E75.68413
G1 X60.027 Y52.173 E75.71788
G1 X60.279 Y51.215 E75.76389
G1 X60.494 Y50.62 E75.79328
G1 X60.851 Y49.851 E75.83266
G1 X61.148 Y49.33 E75.86052
G1 X61.647 Y48.605 E75.9014
M205 X30
G0 F3000 X61.96 Y48.82
M205 X8
G1 F1800 X62.412 Y48.296 E75.93354
G1 X63.425 Y47.351 E75.99788
G1 X63.82 Y47.037 E76.02132
G1 X64.116 Y46.861 E76.03732
G1 X65.479 Y46.144 E76.10885
G1 X65.943 Y45.945 E76.1323
G1 X66.377 Y45.832 E76.15313
G1 X67.834 Y45.559 E76.22198
G1 X68.398 Y45.504 E76.2483
G1 X70.8 Y45.487 E76.35987
G1 X70.92 Y45.488 E76.36545
G1 X77.11 Y45.676 E76.65309
G1 X135.733 Y45.636 E79.376
G1 X140.53 Y45.478 E79.59893
G1 X140.814 Y45.481 E79.61212
G1 X142.414 Y45.571 E79.68656
G1 X143.051 Y45.672 E79.71651
G1 X143.894 Y45.895 E79.75702
G1 X144.406 Y46.078 E79.78227
G1 X145.245 Y46.462 E79.82513
G1 X145.768 Y46.765 E79.8532
G1 X146.652 Y47.395 E79.90362
G1 X147.136 Y47.82 E79.93354
G1 X147.807 Y48.541 E79.97929
G1 X148.189 Y49.042 E80.00855
G1 X148.788 Y50.015 E80.06162
G1 X149.017 Y50.464 E80.08503
G1 X149.106 Y50.703 E80.09688
G1 X149.553 Y52.082 E80.16421
G1 X149.67 Y52.573 E80.18766
G1 X149.704 Y52.904 E80.20311
G1 X149.788 Y54.552 E80.27976
G1 X149.791 Y54.793 E80.29095
G1 X149.592 Y62.875 E80.66646
G1 X149.632 Y98.301 E82.31192
G1 X149.768 Y101.454 E82.4585
G1 X149.771 Y101.603 E82.46542
G1 X149.746 Y109.032 E82.81049
G1 X149.744 Y109.137 E82.81537
G1 X149.602 Y113.039 E82.99672
G1 X149.592 Y147.124 E84.5799
G1 X149.791 Y154.298 E84.91324
G1 X149.789 Y154.528 E84.92392
G1 X149.669 Y157.228 E85.04946
G1 X149.607 Y157.729 E85.07291
G1 X149.51 Y158.09 E85.09027
G1 X149.111 Y159.293 E85.14914
G1 X148.827 Y159.915 E85.1809
G1 X148.328 Y160.757 E85.22636
G1 X147.955 Y161.265 E85.25563
G1 X147.145 Y162.165 E85.31187
G1 X146.636 Y162.621 E85.34361
G1 X145.842 Y163.192 E85.38904
G1 X145.288 Y163.512 E85.41876
G1 X144.289 Y163.961 E85.46963
G1 X143.792 Y164.136 E85.4941
G1 X143.103 Y164.317 E85.52719
G1 X142.598 Y164.407 E85.55102
G1 X141.673 Y164.496 E85.59418
G1 X141.286 Y164.51 E85.61217
G1 X134.32 Y164.334 E85.93582
G1 X77.172 Y164.324 E88.59022
G1 X70.01 Y164.523 E88.92301
G1 X69.791 Y164.521 E88.93318
G1 X67.637 Y164.433 E89.03331
G1 X67.136 Y164.373 E89.05675
G1 X66.889 Y164.313 E89.06856
G1 X65.887 Y164.026 E89.11697
G1 X65.408 Y163.846 E89.14074
G1 X64.74 Y163.532 E89.17502
G1 X64.202 Y163.211 E89.20412
G1 X63.165 Y162.445 E89.264
G1 X62.784 Y162.114 E89.28744
G1 X62.599 Y161.909 E89.30027
G1 X61.835 Y160.983 E89.35603
G1 X61.502 Y160.493 E89.38355
G1 X61.094 Y159.753 E89.4228
G1 X60.854 Y159.199 E89.45084
G1 X60.47 Y158.017 E89.50856
G1 X60.331 Y157.364 E89.53957
G1 X60.236 Y156.458 E89.58189
G1 X60.22 Y156.049 E89.6009
G1 X60.397 Y148.598 E89.94708
G1 X60.408 Y114.439 E91.53369
G1 X60.209 Y107.265 E91.86703
G1 X60.208 Y107.171 E91.8714
G1 X60.218 Y101.812 E92.12031
G1 X60.219 Y101.721 E92.12454
G1 X60.408 Y95.538 E92.41186
G1 X60.368 Y60.062 E94.05964
G1 X60.209 Y54.714 E94.30816
G1 X60.213 Y54.449 E94.32047
G1 X60.295 Y52.911 E94.392
G1 X60.395 Y52.269 E94.42218
G1 X60.647 Y51.311 E94.46819
G1 X60.839 Y50.78 E94.49442
G1 X61.196 Y50.011 E94.5338
G1 X61.461 Y49.545 E94.5587
G1 X61.96 Y48.82 E94.59958
M205 X30
