; generated by PrusaSlicer 2.4.0+win64 on 2021-12-24 at 16:11:50 UTC


;
;

;
;
; 

; external perimeters extrusion width = 0.45mm
; perimeters extrusion width = 0.45mm
; infill extrusion width = 0.45mm
; solid infill extrusion width = 0.45mm
; top infill extrusion width = 0.40mm
; first layer extrusion width = 0.42mm

; external perimeters extrusion width = 0.45mm
; perimeters extrusion width = 0.45mm
; infill extrusion width = 0.45mm
; solid infill extrusion width = 0.45mm
; top infill extrusion width = 0.40mm
; first layer extrusion width = 0.42mm

; external perimeters extrusion width = 0.45mm
; perimeters extrusion width = 0.45mm
; infill extrusion width = 0.45mm
; solid infill extrusion width = 0.45mm
; top infill extrusion width = 0.40mm
; first layer extrusion width = 0.42mm

; external perimeters extrusion width = 0.45mm
; perimeters extrusion width = 0.45mm
; infill extrusion width = 0.45mm
; solid infill extrusion width = 0.45mm
; top infill extrusion width = 0.40mm
; first layer extrusion width = 0.42mm

; external perimeters extrusion width = 0.45mm
; perimeters extrusion width = 0.45mm
; infill extrusion width = 0.45mm
; solid infill extrusion width = 0.45mm
; top infill extrusion width = 0.40mm
; first layer extrusion width = 0.42mm

; external perimeters extrusion width = 0.45mm
; perimeters extrusion width = 0.45mm
; infill extrusion width = 0.45mm
; solid infill extrusion width = 0.45mm
; top infill extrusion width = 0.40mm
; first layer extrusion width = 0.42mm

; external perimeters extrusion width = 0.45mm
; perimeters extrusion width = 0.45mm
; infill extrusion width = 0.45mm
; solid infill extrusion width = 0.45mm
; top infill extrusion width = 0.40mm
; first layer extrusion width = 0.42mm

; external perimeters extrusion width = 0.45mm
; perimeters extrusion width = 0.45mm
; infill extrusion width = 0.45mm
; solid infill extrusion width = 0.45mm
; top infill extrusion width = 0.40mm
; first layer extrusion width = 0.42mm

; external perimeters extrusion width = 0.45mm
; perimeters extrusion width = 0.45mm
; infill extrusion width = 0.45mm
; solid infill extrusion width = 0.45mm
; top infill extrusion width = 0.40mm
; first layer extrusion width = 0.42mm

; external perimeters extrusion width = 0.45mm
; perimeters extrusion width = 0.45mm
; infill extrusion width = 0.45mm
; solid infill extrusion width = 0.45mm
; top infill extrusion width = 0.40mm
; first layer extrusion width = 0.42mm

; external perimeters extrusion width = 0.45mm
; perimeters extrusion width = 0.45mm
; infill extrusion width = 0.45mm
; solid infill extrusion width = 0.45mm
; top infill extrusion width = 0.40mm
; first layer extrusion width = 0.42mm

; external perimeters extrusion width = 0.45mm
; perimeters extrusion width = 0.45mm
; infill extrusion width = 0.45mm
; solid infill extrusion width = 0.45mm
; top infill extrusion width = 0.40mm
; first layer extrusion width = 0.42mm

M73 P0 R99
M201 X3000 Y2000 Z60 E10000 ; sets maximum accelerations, mm/sec^2
M203 X500 Y500 Z6 E60 ; sets maximum feedrates, mm/sec
M204 P1250 R1250 T1250 ; sets acceleration (P, T) and retract acceleration (R), mm/sec^2
M205 X10.00 Y10.00 Z0.40 E5.00 ; sets the jerk limits, mm/sec
M205 S0 T0 ; sets the minimum extruding and travel feed rate, mm/sec
M107
;TYPE:Custom
G90 ; use absolute coordinates
M83 ; extruder relative mode
M204 S1250 T1250
M104 S215 ; set extruder temp
M140 S65 ; set bed temp
G28 ; home all
G1 Y1.0 Z0.3 F1000 ; move print head up
M190 S65 ; wait for bed temp
M109 S215 ; wait for extruder temp
G92 E0.0
; initial load
G1 X205.0 E19 F1000
G1 Y1.6
G1 X5.0 E19 F1000
G92 E0.0
; intro line
G1 Y2.0 Z0.2 F1000
G1 X65.0 E9.0 F1000
G1 X105.0 E12.5 F1000
G92 E0.0
G21 ; set units to millimeters
G90 ; use absolute coordinates
M83 ; use relative distances for extrusion
; Filament gcode
M107
;LAYER_CHANGE
;Z:0.2
;HEIGHT:0.2
;BEFORE_LAYER_CHANGE
G92 E0.0
;0.2
M73 P0 R98
G1 E-6 F2400
G1 Z.075 F10800
G1 Z.2
;AFTER_LAYER_CHANGE
;0.2
G1 Z.275
G1 X68.435 Y74.258
G1 Z.2
G1 E6 F3000
M204 S800
;TYPE:Skirt/Brim
;WIDTH:0.42
G1 F600
G1 X69.198 Y73.606 E.03082
G1 X69.751 Y73.301 E.01942
G1 X70.598 Y73.026 E.02735
G1 X71.411 Y72.94 E.02513
G1 X137.244 Y72.972 E2.02285
G1 X160.477 Y73.468 E.71407
G1 X161.692 Y73.801 E.03871
G1 X162.548 Y74.325 E.03082
G1 X163.396 Y75.256 E.03871
G1 X163.8 Y76.049 E.02735
G1 X163.976 Y76.656 E.01942
G1 X164.062 Y77.47 E.02513
G1 X164.062 Y95.811 E.56357
G1 X163.003 Y143.181 E1.45591
G1 X162.918 Y143.941 E.02351
G1 X162.742 Y144.548 E.01942
G1 X162.37 Y145.289 E.02547
G1 X161.95 Y145.84 E.02129
G1 X161.188 Y146.492 E.03082
G1 X160.634 Y146.797 E.01942
G1 X159.788 Y147.072 E.02735
G1 X159.161 Y147.15 E.01942
G1 X140.641 Y147.157 E.56906
G1 X70.839 Y145.829 E2.14522
G1 X70.07 Y145.743 E.02375
G1 X69.463 Y145.567 E.01942
G1 X68.723 Y145.195 E.02547
G1 X68.171 Y144.775 E.02129
G1 X67.739 Y144.314 E.01942
G1 X67.215 Y143.459 E.03082
G1 X67 Y142.865 E.01942
G1 X66.861 Y141.986 E.02735
G1 X66.854 Y123.511 E.56767
G1 X67.381 Y76.943 E1.43099
M73 P1 R98
G1 X67.467 Y76.157 E.02431
G1 X67.643 Y75.55 E.01942
G1 X68.015 Y74.809 E.02547
G1 X68.399 Y74.305 E.01945
M204 S1000
; printing object 1005022-001.STL id:0 copy 0
G1 E-3.6 F2400
;WIPE_START
G1 F8640
G1 X69.198 Y73.606 E-.28018
G1 X69.751 Y73.301 E-.16675
G1 X70.598 Y73.026 E-.23489
G1 X71.411 Y72.94 E-.21586
G1 X76.649 Y72.943 E-1.38232
;WIPE_END
G1 E-.12 F2400
G1 Z.275 F10800
G1 X80.054 Y131.561
G1 Z.2
G1 E6 F3000
M204 S800
;TYPE:External perimeter
G1 F600
G1 X80.054 Y133.947 E.07331
G1 X79.848 Y133.829 E.00729
G1 X78.382 Y133.826 E.04503
G1 X78.382 Y133.209 E.01896
G1 X79.276 Y133.203 E.02747
G1 X79.492 Y133.061 E.00795
G1 X79.591 Y132.792 E.00881
G1 X79.485 Y132.517 E.00904
G1 X79.256 Y132.38 E.00821
G1 X78.382 Y132.377 E.02684
G1 X78.382 Y131.898 E.01471
G1 X79.737 Y131.894 E.04162
G1 X79.902 Y131.819 E.00558
G1 X80.03 Y131.669 E.00606
G1 X80.041 Y131.62 E.00156
M204 S1000
G1 X79.983 Y131.955 F10800
G1 E-3.6 F2400
;WIPE_START
G1 F8640
G1 X80.054 Y133.947 E-.61415
G1 X79.848 Y133.829 E-.06259
G1 X78.382 Y133.826 E-.38669
G1 X78.382 Y133.209 E-.16279
G1 X79.276 Y133.203 E-.23588
G1 X79.492 Y133.061 E-.06824
G1 X79.591 Y132.792 E-.07564
G1 X79.485 Y132.517 E-.07762
G1 X79.256 Y132.38 E-.07055
G1 X78.382 Y132.377 E-.23047
G1 X78.382 Y131.898 E-.12631
G1 X79.023 Y131.896 E-.16907
;WIPE_END
G1 E-.12 F2400
G1 Z.275 F10800
G1 X82.155 Y133.028
G1 Z.2
G1 E6 F3000
M204 S800
G1 F600
G1 X82.278 Y132.961 E.00429
G1 X82.42 Y132.831 E.00594
G1 X82.591 Y132.58 E.00932
G1 X82.591 Y133.972 E.04277
G1 X82.18 Y133.082 E.03011
M204 S1000
G1 X82.166 Y133.167 F10800
G1 E-3.6 F2400
;WIPE_START
G1 F8640
G1 X82.278 Y132.961 E-.04106
G1 X82.42 Y132.831 E-.05098
G1 X82.591 Y132.58 E-.08002
G1 X82.591 Y133.972 E-.36735
G1 X82.18 Y133.082 E-.2586
;WIPE_END
G1 E-1.602 F2400
G1 Z.275 F10800
G1 X79.677 Y133.452
G1 Z.2
G1 E6 F3000
M204 S800
;TYPE:Perimeter
G1 F600
G1 X79.584 Y133.452 E.00284
G1 X79.677 Y133.392 E.00339
M204 S1000
G1 E-3.6 F2400
;WIPE_START
G1 F8640
G1 X79.584 Y133.452 E-.02908
G1 X79.677 Y133.392 E-.02908
;WIPE_END
G1 E-2.34184 F2400
G1 Z.275 F10800
G1 X82.304 Y135.032
G1 Z.2
G1 E6 F3000
M204 S800
G1 F600
G1 X82.127 Y135.037 E.00543
G1 X81.843 Y134.932 E.00932
G1 X81.597 Y134.701 E.01035
G1 X81.257 Y133.973 E.02471
G1 X81.253 Y134.508 E.01645
G1 X80.957 Y134.901 E.01512
G1 X80.566 Y135.053 E.01289
G1 X80.089 Y134.963 E.01492
G1 X79.838 Y135.037 E.00803
G1 X77.881 Y135.037 E.06014
G1 X77.563 Y134.943 E.01019
G1 X77.264 Y134.658 E.01269
G1 X77.171 Y134.322 E.01072
G1 X77.171 Y134.148 E.00532
G1 X77.032 Y134.559 E.01332
G1 X76.872 Y134.821 E.00943
G1 X76.51 Y135.033 E.01289
G1 X75.906 Y135.021 E.01856
G1 X75.561 Y134.792 E.01273
G1 X75.419 Y134.543 E.00883
G1 X74.484 Y131.633 E.09389
G1 X74.488 Y131.214 E.01287
G1 X74.794 Y130.81 E.01558
G1 X75.249 Y130.665 E.01467
G1 X75.66 Y130.767 E.01303
G1 X75.967 Y131.07 E.01323
G1 X76.249 Y131.943 E.02821
G1 X76.522 Y131.145 E.02591
G1 X76.75 Y130.825 E.01209
G1 X77.163 Y130.677 E.01346
G1 X77.511 Y130.717 E.01079
G1 X77.61 Y130.779 E.00359
G1 X77.863 Y130.688 E.00826
G1 X79.719 Y130.688 E.05703
G1 X80.037 Y130.764 E.01005
G1 X80.076 Y130.802 E.00168
G1 X80.189 Y130.728 E.00414
G1 X80.42 Y130.688 E.0072
G1 X81.548 Y130.688 E.03466
G1 X81.788 Y130.705 E.00739
G1 X82.058 Y130.767 E.0085
G1 X82.427 Y130.946 E.01262
G1 X82.509 Y130.831 E.00435
G1 X82.906 Y130.688 E.01295
G1 X84.051 Y130.688 E.0352
G1 X84.489 Y130.751 E.01361
G1 X84.911 Y130.96 E.01446
G1 X85.207 Y131.254 E.01282
G1 X85.351 Y131.487 E.00842
G1 X85.48 Y131.891 E.01303
G1 X85.478 Y132.349 E.01408
G1 X85.356 Y132.706 E.01159
G1 X85.441 Y132.848 E.0051
G1 X85.578 Y133.29 E.01421
G1 X85.572 Y133.761 E.01445
G1 X85.505 Y134.03 E.00853
G1 X85.4 Y134.274 E.00815
G1 X85.243 Y134.516 E.00887
G1 X84.963 Y134.777 E.01176
G1 X84.754 Y134.896 E.0074
G1 X84.514 Y134.988 E.00788
G1 X84.141 Y135.037 E.01158
G1 X82.923 Y135.037 E.03741
G1 X82.619 Y134.947 E.00975
G1 X82.434 Y135.028 E.00619
G1 X82.364 Y135.03 E.00216
M204 S1000
G1 X82.791 Y134.605 F10800
M204 S800
;TYPE:External perimeter
G1 F600
G1 X82.628 Y134.424 E.00749
G1 X82.511 Y134.583 E.00605
G1 X82.35 Y134.653 E.0054
G1 X82.189 Y134.658 E.00495
G1 X82.045 Y134.605 E.0047
G1 X81.908 Y134.476 E.00577
G1 X81.321 Y133.217 E.04269
G1 X80.886 Y133.217 E.01336
G1 X80.877 Y134.38 E.03574
G1 X80.72 Y134.588 E.008
G1 X80.525 Y134.664 E.00644
G1 X80.277 Y134.624 E.00772
G1 X80.108 Y134.465 E.00713
G1 X79.977 Y134.603 E.00587
G1 X79.784 Y134.66 E.00618
G1 X77.935 Y134.66 E.05679
G1 X77.757 Y134.607 E.00572
G1 X77.6 Y134.457 E.00667
G1 X77.549 Y134.271 E.00594
G1 X77.549 Y131.869 E.07379
G1 X76.688 Y134.398 E.08207
G1 X76.599 Y134.543 E.00525
G1 X76.411 Y134.654 E.00671
G1 X76.024 Y134.646 E.0119
G1 X75.844 Y134.527 E.00662
G1 X75.766 Y134.39 E.00487
G1 X74.862 Y131.576 E.09081
G1 X74.864 Y131.342 E.00718
G1 X75.022 Y131.133 E.00807
G1 X75.262 Y131.057 E.00772
G1 X75.469 Y131.108 E.00657
G1 X75.636 Y131.273 E.00722
G1 X76.24 Y133.139 E.06024
G1 X76.86 Y131.319 E.05907
G1 X76.989 Y131.14 E.00677
G1 X77.207 Y131.061 E.00714
G1 X77.383 Y131.082 E.00545
G1 X77.546 Y131.184 E.00591
G1 X77.604 Y131.288 E.00366
G1 X77.706 Y131.146 E.00537
G1 X77.929 Y131.065 E.0073
G1 X79.675 Y131.065 E.05364
G1 X79.848 Y131.106 E.00549
G1 X80.022 Y131.276 E.00746
G1 X80.06 Y131.423 E.00468
G1 X80.07 Y131.349 E.0023
G1 X80.166 Y131.194 E.00562
G1 X80.331 Y131.086 E.00604
G1 X80.453 Y131.065 E.00381
G1 X81.732 Y131.079 E.03931
G1 X81.932 Y131.125 E.00629
G1 X82.25 Y131.279 E.01088
G1 X82.483 Y131.504 E.00994
G1 X82.591 Y131.679 E.00631
G1 X82.591 Y131.462 E.00665
G1 X82.615 Y131.332 E.00407
G1 X82.748 Y131.146 E.00703
G1 X82.972 Y131.065 E.0073
G1 X84.024 Y131.065 E.03234
G1 X84.376 Y131.116 E.01093
G1 X84.689 Y131.271 E.01073
G1 X84.91 Y131.49 E.00956
G1 X85.006 Y131.646 E.00563
G1 X85.103 Y131.949 E.00979
G1 X85.101 Y132.286 E.01034
G1 X85.004 Y132.57 E.00923
G1 X84.903 Y132.728 E.00577
G1 X84.991 Y132.832 E.0042
G1 X85.095 Y133.004 E.00616
G1 X85.2 Y133.345 E.01098
G1 X85.195 Y133.712 E.01127
G1 X85.146 Y133.909 E.00626
G1 X85.066 Y134.096 E.00622
G1 X84.952 Y134.272 E.00646
G1 X84.738 Y134.471 E.00898
G1 X84.593 Y134.554 E.00515
G1 X84.421 Y134.62 E.00563
G1 X84.116 Y134.66 E.00946
G1 X82.978 Y134.66 E.03497
G1 X82.849 Y134.622 E.00413
M204 S1000
G1 X82.575 Y134.717 F10800
G1 E-3.6 F2400
;WIPE_START
G1 F8640
G1 X82.628 Y134.424 E-.07829
G1 X82.511 Y134.583 E-.05194
G1 X82.35 Y134.653 E-.04637
G1 X82.189 Y134.658 E-.04254
G1 X82.045 Y134.605 E-.04041
G1 X81.908 Y134.476 E-.04952
G1 X81.321 Y133.217 E-.36664
G1 X80.886 Y133.217 E-.11474
G1 X80.877 Y134.38 E-.30691
G1 X80.72 Y134.588 E-.06869
G1 X80.525 Y134.664 E-.05527
G1 X80.277 Y134.624 E-.06626
G1 X80.108 Y134.465 E-.06119
G1 X79.977 Y134.603 E-.05045
G1 X79.784 Y134.66 E-.05311
G1 X77.935 Y134.66 E-.48771
G1 X77.757 Y134.607 E-.04914
G1 X77.6 Y134.457 E-.05729
G1 X77.549 Y134.271 E-.05101
G1 X77.549 Y133.579 E-.18252
;WIPE_END
G1 E-.12 F2400
G1 Z.275 F10800
G1 X89.873 Y142.595
G1 Z.2
G1 E6 F3000
M204 S800
;TYPE:Perimeter
G1 F600
G1 X89.655 Y142.747 E.00818
G1 X89.501 Y142.811 E.00513
G1 X89.338 Y142.85 E.00513
G1 X89.149 Y142.865 E.00584
G1 X70.907 Y142.865 E.56052
G1 X70.717 Y142.85 E.00584
G1 X70.555 Y142.811 E.00513
G1 X70.303 Y142.687 E.00862
G1 X70.126 Y142.545 E.00699
G1 X70.023 Y142.424 E.00486
G1 X69.892 Y142.176 E.00862
G1 X69.832 Y141.957 E.00699
G1 X69.818 Y141.776 E.00557
G1 X69.818 Y123.534 E.56052
G1 X69.833 Y123.345 E.00584
G1 X69.872 Y123.182 E.00513
G1 X70.029 Y122.879 E.01049
G1 X70.131 Y122.759 E.00486
G1 X70.258 Y122.65 E.00513
G1 X70.401 Y122.563 E.00513
G1 X70.555 Y122.499 E.00513
G1 X70.717 Y122.46 E.00513
G1 X70.907 Y122.445 E.00584
G1 X89.149 Y122.445 E.56052
G1 X89.509 Y122.503 E.0112
G1 X89.655 Y122.563 E.00486
G1 X89.797 Y122.65 E.00513
G1 X89.924 Y122.759 E.00513
G1 X90.032 Y122.886 E.00513
G1 X90.163 Y123.134 E.00862
G1 X90.223 Y123.354 E.00699
G1 X90.237 Y123.534 E.00557
G1 X90.237 Y141.776 E.56052
G1 X90.223 Y141.966 E.00584
M73 P1 R97
G1 X90.184 Y142.128 E.00513
G1 X90.06 Y142.38 E.00862
G1 X89.919 Y142.556 E.00693
M204 S1000
G1 X90.457 Y142.454 F10800
M204 S800
;TYPE:External perimeter
G1 F600
G1 X90.369 Y142.597 E.00517
G1 X90.189 Y142.821 E.00882
G1 X90.019 Y142.966 E.00686
G1 X89.826 Y143.084 E.00695
G1 X89.617 Y143.171 E.00695
G1 X89.397 Y143.224 E.00695
G1 X89.164 Y143.242 E.00721
G1 X70.892 Y143.242 E.56143
G1 X70.658 Y143.224 E.00721
G1 X70.438 Y143.171 E.00695
G1 X70.229 Y143.084 E.00695
G1 X70.086 Y142.996 E.00517
G1 X69.862 Y142.816 E.00882
G1 X69.717 Y142.647 E.00686
G1 X69.599 Y142.454 E.00695
G1 X69.534 Y142.299 E.00517
G1 X69.459 Y142.022 E.00882
G1 X69.441 Y141.791 E.00711
G1 X69.441 Y123.519 E.56143
G1 X69.459 Y123.286 E.00721
G1 X69.512 Y123.066 E.00695
G1 X69.577 Y122.91 E.00517
G1 X69.719 Y122.661 E.00882
G1 X69.864 Y122.491 E.00686
G1 X70.036 Y122.344 E.00695
G1 X70.229 Y122.226 E.00695
G1 X70.438 Y122.14 E.00695
G1 X70.658 Y122.087 E.00695
G1 X70.892 Y122.068 E.00721
G1 X89.163 Y122.068 E.56143
G1 X89.339 Y122.082 E.00542
G1 X89.62 Y122.141 E.00882
G1 X89.826 Y122.226 E.00686
G1 X90.019 Y122.344 E.00695
G1 X90.191 Y122.491 E.00695
G1 X90.338 Y122.664 E.00695
G1 X90.457 Y122.856 E.00695
G1 X90.521 Y123.012 E.00517
G1 X90.596 Y123.289 E.00882
G1 X90.615 Y123.519 E.00711
G1 X90.615 Y141.791 E.56143
G1 X90.596 Y142.025 E.00721
G1 X90.543 Y142.245 E.00695
G1 X90.48 Y142.398 E.00511
M204 S1000
G1 X90.289 Y142.463 F10800
G1 E-3.6 F2400
;WIPE_START
G1 F8640
G1 X90.369 Y142.597 E-.06006
G1 X90.189 Y142.821 E-.07573
G1 X90.019 Y142.966 E-.05888
G1 X89.826 Y143.084 E-.05972
G1 X89.617 Y143.171 E-.05972
G1 X89.397 Y143.224 E-.05972
G1 X89.164 Y143.242 E-.0619
G1 X82.175 Y143.242 E-1.84428
;WIPE_END
G1 E-.12 F2400
G1 Z.275 F10800
G1 X79.775 Y133.1
G1 Z.2
G1 E6 F3000
M204 S800
;TYPE:Gap fill
;WIDTH:0.188372
G1 F600
G1 X79.801 Y132.951 E.00178
M204 S1000
M204 S800
;WIDTH:0.153102
G1 X79.828 Y132.803 E.00135
M204 S1000
M204 S800
;WIDTH:0.11803
G1 X79.828 Y132.777 E.00016
M204 S1000
M204 S800
;WIDTH:0.15804
G1 X79.808 Y132.669 E.00103
M204 S1000
M204 S800
;WIDTH:0.198048
G1 X79.788 Y132.561 E.00138
M204 S1000
M204 S800
;WIDTH:0.238056
G1 X79.768 Y132.454 E.00174
M204 S1000
M204 S800
;WIDTH:0.278064
G1 X79.748 Y132.346 E.0021
M204 S1000
M204 S800
;WIDTH:0.310827
G1 X79.731 Y132.303 E.00101
M204 S1000
M204 S800
;WIDTH:0.343588
G1 X79.715 Y132.259 E.00114
M204 S1000
M204 S800
;WIDTH:0.362388
G1 X79.615 Y132.083 E.00527
M204 S1000
G1 X79.865 Y132.215 F10800
M204 S800
;WIDTH:0.158915
G1 F600
G1 X79.308 Y132.138 E.00531
M204 S1000
M204 S800
;WIDTH:0.150659
G1 X78.571 Y132.138 E.00647
M204 S1000
G1 X78.571 Y133.517 F10800
M204 S800
;WIDTH:0.290747
G1 F600
G1 X79.406 Y133.515 E.01687
M204 S1000
G1 E-3.6 F2400
;WIPE_START
G1 F8640
G1 X78.571 Y133.517 E-.22045
;WIPE_END
G1 E-2.17955 F2400
G1 Z.275 F10800
G1 X77.339 Y133.136
G1 Z.2
G1 E6 F3000
M204 S800
;WIDTH:0.13749
G1 F600
G1 X77.312 Y133.302 E.00129
M204 S1000
M204 S800
;WIDTH:0.18166
G1 X77.284 Y133.467 E.00189
M204 S1000
