; generated by PrusaSlicer 2.4.0+win64 on 2021-12-24 at 16:15:01 UTC


;
;

;
;
; 

; external perimeters extrusion width = 0.45mm
; perimeters extrusion width = 0.45mm
; infill extrusion width = 0.45mm
; solid infill extrusion width = 0.45mm
; top infill extrusion width = 0.40mm
; first layer extrusion width = 0.42mm

; external perimeters extrusion width = 0.45mm
; perimeters extrusion width = 0.45mm
; infill extrusion width = 0.45mm
; solid infill extrusion width = 0.45mm
; top infill extrusion width = 0.40mm
; first layer extrusion width = 0.42mm

; external perimeters extrusion width = 0.45mm
; perimeters extrusion width = 0.45mm
; infill extrusion width = 0.45mm
; solid infill extrusion width = 0.45mm
; top infill extrusion width = 0.40mm
; first layer extrusion width = 0.42mm

; external perimeters extrusion width = 0.45mm
; perimeters extrusion width = 0.45mm
; infill extrusion width = 0.45mm
; solid infill extrusion width = 0.45mm
; top infill extrusion width = 0.40mm
; first layer extrusion width = 0.42mm

; external perimeters extrusion width = 0.45mm
; perimeters extrusion width = 0.45mm
; infill extrusion width = 0.45mm
; solid infill extrusion width = 0.45mm
; top infill extrusion width = 0.40mm
; first layer extrusion width = 0.42mm

; external perimeters extrusion width = 0.45mm
; perimeters extrusion width = 0.45mm
; infill extrusion width = 0.45mm
; solid infill extrusion width = 0.45mm
; top infill extrusion width = 0.40mm
; first layer extrusion width = 0.42mm

; external perimeters extrusion width = 0.45mm
; perimeters extrusion width = 0.45mm
; infill extrusion width = 0.45mm
; solid infill extrusion width = 0.45mm
; top infill extrusion width = 0.40mm
; first layer extrusion width = 0.42mm

M73 P0 R56
M201 X3000 Y2000 Z60 E10000 ; sets maximum accelerations, mm/sec^2
M203 X500 Y500 Z6 E60 ; sets maximum feedrates, mm/sec
M204 P1250 R1250 T1250 ; sets acceleration (P, T) and retract acceleration (R), mm/sec^2
M205 X10.00 Y10.00 Z0.40 E5.00 ; sets the jerk limits, mm/sec
M205 S0 T0 ; sets the minimum extruding and travel feed rate, mm/sec
M107
;TYPE:Custom
G90 ; use absolute coordinates
M83 ; extruder relative mode
M204 S1250 T1250
M104 S215 ; set extruder temp
M140 S65 ; set bed temp
G28 ; home all
G1 Y1.0 Z0.3 F1000 ; move print head up
M190 S65 ; wait for bed temp
M109 S215 ; wait for extruder temp
G92 E0.0
; initial load
G1 X205.0 E19 F1000
G1 Y1.6
G1 X5.0 E19 F1000
G92 E0.0
; intro line
G1 Y2.0 Z0.2 F1000
G1 X65.0 E9.0 F1000
G1 X105.0 E12.5 F1000
G92 E0.0
G21 ; set units to millimeters
G90 ; use absolute coordinates
M83 ; use relative distances for extrusion
; Filament gcode
M107
;LAYER_CHANGE
;Z:0.2
;HEIGHT:0.2
;BEFORE_LAYER_CHANGE
G92 E0.0
;0.2
G1 E-6 F2400
G1 Z.075 F10800
G1 Z.2
;AFTER_LAYER_CHANGE
;0.2
G1 Z.275
G1 X79.294 Y84.026
G1 Z.2
G1 E6 F3000
M204 S800
;TYPE:Skirt/Brim
;WIDTH:0.42
G1 F600
G1 X95.195 Y69.021 E.67178
G1 X96.002 Y68.419 E.03095
M73 P1 R55
G1 X96.929 Y68.035 E.03082
G1 X97.995 Y67.889 E.03305
G1 X116.469 Y67.896 E.56767
G1 X117.289 Y68.021 E.02547
G1 X117.943 Y68.25 E.02129
G1 X118.496 Y68.555 E.01942
G1 X119.164 Y69.102 E.02652
G1 X141.271 Y92.066 E.97947
G1 X141.754 Y92.67 E.02375
G1 X142.158 Y93.463 E.02735
G1 X142.333 Y94.07 E.01942
G1 X142.419 Y94.884 E.02513
G1 X142.418 Y113.25 E.56433
G1 X141.653 Y136.522 E.71547
G1 X141.514 Y137.401 E.02735
G1 X140.994 Y138.549 E.03871
G1 X140.343 Y139.311 E.03082
G1 X139.623 Y139.835 E.02735
G1 X138.696 Y140.218 E.03082
G1 X137.63 Y140.365 E.03305
G1 X119.322 Y140.365 E.56256
G1 X73.392 Y139.973 E1.41135
G1 X72.347 Y139.827 E.03244
G1 X71.199 Y139.308 E.03871
G1 X70.436 Y138.656 E.03082
G1 X69.913 Y137.936 E.02735
G1 X69.529 Y137.009 E.03082
G1 X69.383 Y135.944 E.03305
G1 X69.383 Y117.612 E.56328
G1 X69.805 Y94.675 E.70492
G1 X69.951 Y93.653 E.03172
G1 X70.471 Y92.505 E.03871
G1 X71.034 Y91.821 E.02724
G1 X79.251 Y84.067 E.34712
M204 S1000
; printing object 1005022-013.STL id:0 copy 0
G1 E-3.6 F2400
;WIPE_START
G1 F8640
G1 X85.534 Y78.138 E-2.28
;WIPE_END
G1 E-.12 F2400
G1 Z.275 F10800
G1 X84.483 Y123.37
G1 Z.2
G1 E6 F3000
M204 S800
;TYPE:Perimeter
G1 F600
G1 X84.691 Y123.615 E.0099
G1 X84.783 Y123.942 E.01043
G1 X84.786 Y124.152 E.00645
G1 X84.75 Y124.507 E.01096
G1 X84.643 Y124.883 E.01202
G1 X84.427 Y125.35 E.01579
G1 X84.278 Y125.575 E.00831
G1 X84.562 Y125.789 E.01093
G1 X84.846 Y126.087 E.01264
G1 X85.095 Y126.445 E.01339
G1 X85.292 Y126.866 E.01429
G1 X85.409 Y127.297 E.01372
G1 X85.464 Y127.804 E.01566
G1 X85.423 Y128.343 E.01663
G1 X85.324 Y128.726 E.01216
G1 X85.159 Y129.104 E.01266
G1 X84.934 Y129.457 E.01286
G1 X84.54 Y129.887 E.0179
G1 X84.202 Y130.14 E.01299
G1 X83.801 Y130.356 E.01398
G1 X83.385 Y130.502 E.01353
G1 X82.936 Y130.583 E.01404
G1 X82.644 Y130.596 E.00898
G1 X82.135 Y130.56 E.01568
G1 X81.649 Y130.447 E.01531
G1 X81.216 Y130.273 E.01435
G1 X80.798 Y130.02 E.01502
G1 X80.452 Y129.729 E.01388
G1 X80.15 Y129.379 E.0142
G1 X79.907 Y128.979 E.01439
G1 X79.668 Y128.363 E.02031
G1 X79.65 Y127.974 E.01196
G1 X79.756 Y127.663 E.01011
G1 X79.978 Y127.375 E.01117
G1 X80.245 Y127.208 E.00966
G1 X80.541 Y127.124 E.00946
G1 X80.954 Y127.164 E.01274
G1 X81.239 Y127.315 E.00991
G1 X81.416 Y127.478 E.0074
G1 X81.562 Y127.707 E.00832
G1 X81.681 Y128.038 E.01081
G1 X81.758 Y128.179 E.00495
G1 X81.926 Y128.369 E.00779
G1 X82.166 Y128.508 E.00855
G1 X82.319 Y128.556 E.00491
G1 X82.518 Y128.586 E.00617
G1 X82.805 Y128.578 E.00884
G1 X82.923 Y128.547 E.00373
G1 X83.149 Y128.425 E.00789
G1 X83.281 Y128.304 E.00551
G1 X83.356 Y128.209 E.00373
G1 X83.436 Y128.032 E.00594
G1 X83.445 Y127.696 E.01035
G1 X83.422 Y127.585 E.00347
G1 X83.342 Y127.409 E.00594
G1 X83.211 Y127.271 E.00586
G1 X83.071 Y127.193 E.00493
G1 X82.968 Y127.168 E.00323
G1 X82.761 Y127.164 E.00639
G1 X82.639 Y127.228 E.00422
G1 X82.29 Y127.339 E.01127
G1 X81.839 Y127.305 E.01391
G1 X81.462 Y127.074 E.01358
G1 X81.25 Y126.786 E.01097
G1 X81.131 Y126.541 E.00839
G1 X81.093 Y126.259 E.00872
G1 X81.139 Y125.925 E.01035
G1 X81.359 Y125.551 E.01333
G1 X81.915 Y125.187 E.02043
G1 X82.042 Y125.073 E.00523
G1 X80.744 Y125.073 E.03988
G1 X80.472 Y125.032 E.00844
G1 X80.195 Y124.889 E.00959
G1 X79.939 Y124.627 E.01126
G1 X79.792 Y124.248 E.0125
G1 X79.794 Y123.9 E.0107
G1 X79.89 Y123.608 E.00943
G1 X80.091 Y123.342 E.01027
G1 X80.377 Y123.145 E.01065
G1 X80.727 Y123.071 E.01101
G1 X83.832 Y123.071 E.09539
G1 X84.106 Y123.116 E.00854
G1 X84.397 Y123.269 E.01011
G1 X84.444 Y123.324 E.00222
M204 S1000
G1 X83.985 Y123.478 F10800
M204 S800
;TYPE:External perimeter
G1 F600
G1 X84.157 Y123.569 E.00598
G1 X84.35 Y123.796 E.00918
G1 X84.406 Y123.997 E.0064
G1 X84.378 Y124.436 E.01353
G1 X84.288 Y124.752 E.01008
G1 X84.097 Y125.166 E.01401
G1 X83.838 Y125.557 E.01442
G1 X83.708 Y125.7 E.00593
G1 X84.038 Y125.866 E.01135
G1 X84.311 Y126.072 E.0105
G1 X84.553 Y126.326 E.01079
G1 X84.767 Y126.633 E.01151
G1 X84.936 Y126.997 E.01231
G1 X85.037 Y127.367 E.0118
G1 X85.085 Y127.81 E.01368
G1 X85.05 Y128.281 E.01453
G1 X84.966 Y128.603 E.01021
G1 X84.825 Y128.926 E.01084
G1 X84.634 Y129.226 E.01094
G1 X84.286 Y129.606 E.01581
G1 X83.998 Y129.821 E.01105
G1 X83.648 Y130.01 E.01221
G1 X83.289 Y130.136 E.01171
G1 X82.894 Y130.207 E.01234
G1 X82.649 Y130.218 E.00753
G1 X82.191 Y130.186 E.0141
G1 X81.763 Y130.086 E.01351
G1 X81.385 Y129.934 E.01252
G1 X81.018 Y129.713 E.01317
G1 X80.718 Y129.46 E.01204
G1 X80.456 Y129.157 E.01233
G1 X80.246 Y128.812 E.0124
G1 X80.042 Y128.284 E.01738
G1 X80.03 Y128.028 E.00789
G1 X80.092 Y127.844 E.00598
G1 X80.236 Y127.659 E.00717
G1 X80.399 Y127.556 E.00595
G1 X80.575 Y127.507 E.00562
G1 X80.843 Y127.533 E.00827
G1 X81.019 Y127.626 E.00612
G1 X81.124 Y127.723 E.0044
G1 X81.221 Y127.874 E.00552
G1 X81.336 Y128.192 E.0104
G1 X81.44 Y128.385 E.00672
G1 X81.558 Y128.539 E.00595
G1 X81.687 Y128.661 E.00547
G1 X81.835 Y128.766 E.00558
G1 X82.027 Y128.86 E.00655
G1 X82.235 Y128.924 E.0067
G1 X82.647 Y128.969 E.01275
G1 X82.869 Y128.951 E.00682
G1 X83.047 Y128.905 E.00565
G1 X83.221 Y128.828 E.00586
G1 X83.381 Y128.723 E.00587
G1 X83.558 Y128.562 E.00735
G1 X83.67 Y128.42 E.00556
G1 X83.744 Y128.29 E.0046
G1 X83.826 Y128 E.00924
G1 X83.822 Y127.655 E.01061
G1 X83.786 Y127.482 E.00544
G1 X83.655 Y127.196 E.00965
G1 X83.551 Y127.068 E.00509
G1 X83.308 Y126.885 E.00934
G1 X83.028 Y126.794 E.00902
G1 X82.856 Y126.781 E.0053
G1 X82.652 Y126.791 E.00628
G1 X82.493 Y126.879 E.00559
G1 X82.246 Y126.957 E.00796
G1 X81.958 Y126.936 E.00886
G1 X81.722 Y126.791 E.00852
G1 X81.574 Y126.59 E.00765
G1 X81.497 Y126.43 E.00546
G1 X81.474 Y126.26 E.00529
G1 X81.503 Y126.051 E.00647
G1 X81.639 Y125.818 E.00831
G1 X82.145 Y125.487 E.01859
G1 X82.695 Y124.967 E.02323
G1 X82.912 Y124.696 E.01068
G1 X80.772 Y124.696 E.06575
G1 X80.59 Y124.668 E.00567
G1 X80.422 Y124.582 E.00581
G1 X80.262 Y124.419 E.007
G1 X80.169 Y124.179 E.00792
G1 X80.171 Y123.961 E.00668
G1 X80.228 Y123.785 E.00569
G1 X80.355 Y123.617 E.00647
G1 X80.528 Y123.498 E.00646
G1 X80.766 Y123.448 E.00747
G1 X83.801 Y123.448 E.09324
G1 X83.925 Y123.469 E.00388
M204 S1000
G1 X84.131 Y123.35 F10800
G1 E-3.6 F2400
;WIPE_START
G1 F8640
G1 X84.157 Y123.569 E-.06658
G1 X84.35 Y123.796 E-.07881
G1 X84.406 Y123.997 E-.05493
G1 X84.378 Y124.436 E-.1162
G1 X84.288 Y124.752 E-.08657
G1 X84.097 Y125.166 E-.12029
G1 X83.838 Y125.557 E-.1238
G1 X83.708 Y125.7 E-.05095
G1 X84.038 Y125.866 E-.0975
G1 X84.311 Y126.072 E-.09015
G1 X84.553 Y126.326 E-.09264
G1 X84.767 Y126.633 E-.09881
G1 X84.936 Y126.997 E-.10573
G1 X85.037 Y127.367 E-.10137
G1 X85.085 Y127.81 E-.11751
G1 X85.05 Y128.281 E-.12476
G1 X84.966 Y128.603 E-.08768
G1 X84.825 Y128.926 E-.0931
G1 X84.634 Y129.226 E-.09396
G1 X84.286 Y129.606 E-.13579
G1 X83.998 Y129.821 E-.09489
G1 X83.648 Y130.01 E-.10485
G1 X83.289 Y130.136 E-.10054
G1 X83.13 Y130.165 E-.0426
;WIPE_END
G1 E-.12 F2400
G1 Z.275 F10800
G1 X92.757 Y117.556
G1 Z.2
G1 E6 F3000
M204 S800
;TYPE:Perimeter
G1 F600
G1 X92.766 Y135.921 E.5643
G1 X92.751 Y136.11 E.00584
G1 X92.712 Y136.272 E.00513
G1 X92.589 Y136.524 E.00862
G1 X92.446 Y136.702 E.00699
G1 X92.326 Y136.804 E.00486
G1 X92.183 Y136.892 E.00513
G1 X92.029 Y136.956 E.00513
G1 X91.867 Y136.994 E.00513
G1 X91.677 Y137.009 E.00584
G1 X73.436 Y137.009 E.56052
G1 X73.246 Y136.994 E.00584
M73 P2 R55
G1 X73.084 Y136.956 E.00513
G1 X72.832 Y136.832 E.00862
G1 X72.654 Y136.689 E.00699
G1 X72.552 Y136.569 E.00486
G1 X72.421 Y136.321 E.00862
G1 X72.361 Y136.101 E.00699
G1 X72.347 Y135.921 E.00557
G1 X72.347 Y117.679 E.56052
G1 X72.362 Y117.489 E.00584
G1 X72.401 Y117.327 E.00513
G1 X72.558 Y117.024 E.01049
G1 X72.66 Y116.903 E.00486
G1 X72.787 Y116.795 E.00513
G1 X72.93 Y116.708 E.00513
G1 X73.084 Y116.644 E.00513
G1 X73.246 Y116.605 E.00513
G1 X73.436 Y116.59 E.00584
G1 X91.677 Y116.59 E.56052
G1 X92.037 Y116.647 E.0112
G1 X92.184 Y116.708 E.00486
G1 X92.326 Y116.795 E.00513
G1 X92.453 Y116.903 E.00513
G1 X92.561 Y117.03 E.00513
G1 X92.648 Y117.173 E.00513
G1 X92.751 Y117.496 E.01043
M204 S1000
G1 X92.985 Y117.001 F10800
M204 S800
;TYPE:External perimeter
G1 F600
G1 X93.05 Y117.156 E.00517
G1 X93.125 Y117.433 E.00882
G1 X93.143 Y117.664 E.00711
G1 X93.143 Y135.935 E.56143
G1 X93.125 Y136.169 E.00721
G1 X93.072 Y136.389 E.00695
G1 X92.985 Y136.598 E.00695
G1 X92.898 Y136.742 E.00517
G1 X92.718 Y136.966 E.00882
G1 X92.548 Y137.11 E.00686
G1 X92.355 Y137.229 E.00695
G1 X92.146 Y137.315 E.00695
G1 X91.926 Y137.368 E.00695
G1 X91.692 Y137.386 E.00721
G1 X73.421 Y137.386 E.56143
G1 X73.187 Y137.368 E.00721
G1 X72.967 Y137.315 E.00695
G1 X72.758 Y137.229 E.00695
G1 X72.614 Y137.141 E.00517
G1 X72.391 Y136.961 E.00882
G1 X72.246 Y136.791 E.00686
G1 X72.128 Y136.598 E.00695
G1 X72.063 Y136.443 E.00517
G1 X71.988 Y136.166 E.00882
G1 X71.97 Y135.935 E.00711
G1 X71.97 Y117.664 E.56143
G1 X71.988 Y117.43 E.00721
G1 X72.041 Y117.21 E.00695
G1 X72.105 Y117.055 E.00517
G1 X72.248 Y116.806 E.00882
G1 X72.393 Y116.636 E.00686
G1 X72.565 Y116.489 E.00695
G1 X72.758 Y116.371 E.00695
G1 X72.967 Y116.284 E.00695
G1 X73.187 Y116.231 E.00695
G1 X73.421 Y116.213 E.00721
G1 X91.692 Y116.213 E.56143
G1 X91.868 Y116.227 E.00542
G1 X92.149 Y116.285 E.00882
G1 X92.355 Y116.371 E.00686
G1 X92.548 Y116.489 E.00695
G1 X92.72 Y116.636 E.00695
G1 X92.867 Y116.808 E.00695
G1 X92.954 Y116.95 E.00511
M204 S1000
G1 X92.894 Y117.142 F10800
G1 X91.875 Y116.729
M204 S800
;TYPE:Solid infill
;WIDTH:0.423755
G1 F600
G1 X92.326 Y117.19 E.02001
G1 X92.428 Y117.383 E.00676
G1 X92.472 Y117.547 E.00527
G1 X92.483 Y117.876 E.01021
G1 X91.491 Y116.883 E.04355
G1 X90.952 Y116.883 E.01672
G1 X92.483 Y118.414 E.0672
G1 X92.483 Y118.953 E.01671
G1 X90.413 Y116.883 E.09085
G1 X89.874 Y116.882 E.01672
G1 X92.483 Y119.491 E.1145
G1 X92.483 Y120.03 E.01671
G1 X89.336 Y116.882 E.13815
G1 X88.797 Y116.882 E.01672
G1 X92.483 Y120.569 E.1618
G1 X92.483 Y121.107 E.01671
G1 X88.258 Y116.882 E.18546
G1 X87.719 Y116.881 E.01672
G1 X92.483 Y121.646 E.20911
G1 X92.483 Y122.184 E.01671
G1 X87.18 Y116.881 E.23276
G1 X86.641 Y116.881 E.01672
G1 X92.483 Y122.723 E.25641
G1 X92.483 Y123.262 E.01671
G1 X86.102 Y116.88 E.28006
G1 X85.563 Y116.88 E.01672
G1 X92.483 Y123.8 E.30371
G1 X92.483 Y124.339 E.01671
G1 X85.024 Y116.88 E.32736
G1 X84.485 Y116.879 E.01672
G1 X92.483 Y124.877 E.35101
G1 X92.483 Y125.416 E.01671
G1 X83.947 Y116.879 E.37466
G1 X83.408 Y116.879 E.01672
G1 X92.483 Y125.954 E.39831
G1 X92.483 Y126.493 E.01671
M73 P2 R54
G1 X82.869 Y116.878 E.42196
G1 X82.33 Y116.878 E.01672
G1 X92.483 Y127.032 E.44562
G1 X92.483 Y127.57 E.01671
G1 X81.791 Y116.878 E.46927
G1 X81.252 Y116.877 E.01672
G1 X92.483 Y128.109 E.49292
G1 X92.483 Y128.647 E.01671
G1 X80.713 Y116.877 E.51657
G1 X80.174 Y116.877 E.01672
M73 P3 R54
G1 X92.483 Y129.186 E.54022
G1 X92.483 Y129.725 E.01671
G1 X79.635 Y116.876 E.56387
G1 X79.096 Y116.876 E.01672
G1 X92.483 Y130.263 E.58752
G1 X92.483 Y130.802 E.01671
G1 X78.558 Y116.876 E.61117
G1 X78.019 Y116.876 E.01672
G1 X83.946 Y122.803 E.26016
G1 X84.197 Y122.844 E.00787
G1 X84.577 Y123.044 E.01333
G1 X84.947 Y123.48 E.01773
G1 X85.065 Y123.922 E.01421
G1 X92.483 Y131.34 E.32557
G1 X92.483 Y131.879 E.01671
G1 X85.041 Y124.437 E.32661
G1 X85.029 Y124.561 E.00386
G1 X84.94 Y124.874 E.01011
G1 X92.483 Y132.417 E.33107
G1 X92.483 Y132.956 E.01671
G1 X84.783 Y125.255 E.33797
G1 X84.661 Y125.509 E.00874
G1 X84.751 Y125.577 E.0035
G1 X85.066 Y125.907 E.01417
G1 X85.341 Y126.303 E.01496
G1 X85.384 Y126.395 E.00313
G1 X92.483 Y133.495 E.3116
G1 X92.483 Y134.033 E.01671
G1 X85.685 Y127.235 E.29834
G1 X85.745 Y127.833 E.01865
G1 X92.483 Y134.572 E.29573
G1 X92.483 Y135.11 E.01671
G1 X85.708 Y128.334 E.29738
G1 X85.604 Y128.77 E.01389
G1 X92.483 Y135.649 E.3019
G1 X92.483 Y135.91 E.00809
G1 X92.45 Y136.154 E.00766
G1 X85.447 Y129.151 E.30734
G1 X85.248 Y129.491 E.01221
G1 X92.251 Y136.493 E.30734
G1 X92.055 Y136.639 E.00758
G1 X91.912 Y136.693 E.00475
G1 X85.011 Y129.792 E.30288
G1 X84.753 Y130.073 E.01183
G1 X91.407 Y136.727 E.29202
G1 X90.868 Y136.727 E.01671
G1 X84.449 Y130.308 E.28171
G1 X84.112 Y130.509 E.01219
G1 X90.33 Y136.727 E.27286
G1 X89.791 Y136.727 E.01671
G1 X83.741 Y130.677 E.26552
G1 X83.458 Y130.776 E.00931
G1 X83.326 Y130.8 E.00417
G1 X89.252 Y136.727 E.26011
G1 X88.714 Y136.727 E.01671
G1 X82.857 Y130.87 E.25705
G1 X82.64 Y130.879 E.00674
G1 X82.304 Y130.855 E.01045
G1 X88.175 Y136.727 E.25767
G1 X87.637 Y136.727 E.01671
G1 X81.365 Y130.455 E.27526
M204 S1000
G1 E-3.6 F2400
;WIPE_START
G1 F8640
G1 X87.474 Y136.564 E-2.28
;WIPE_END
G1 E-.12 F2400
G1 Z.275 F10800
G1 X81.258 Y125.5
G1 Z.2
G1 E6 F3000
M204 S800
G1 F600
G1 X80.943 Y125.186 E.01379
M204 S1000
G1 E-3.6 F2400
;WIPE_START
G1 F8640
G1 X81.258 Y125.5 E-.11722
;WIPE_END
G1 E-2.28278 F2400
G1 Z.275 F10800
G1 X83.563 Y122.958
G1 Z.2
G1 E6 F3000
M204 S800
G1 F600
G1 X77.48 Y116.875 E.26696
G1 X76.941 Y116.875 E.01672
G1 X82.854 Y122.788 E.25952
G1 X82.316 Y122.788 E.01671
G1 X76.402 Y116.875 E.25954
G1 X75.863 Y116.874 E.01672
G1 X81.777 Y122.788 E.25955
G1 X81.238 Y122.788 E.01671
M73 P4 R54
G1 X75.324 Y116.874 E.25957
